kscalelabs/kos-kbot/outputs.csv
timestamp,target_q_0,target_q_1,target_q_2,target_q_3,target_q_4,target_q_5,target_q_6,target_q_7,target_q_8,target_q_9
1738393042.4614654,0.076547414,-0.2196228,0.043551635,-0.049739316,-0.04187034,0.066949,-0.026911013,0.011123641,0.06564125,-0.13032997
1738393042.4803126,-0.051417857,-0.013864957,-0.065771714,-0.046650134,-0.2380349,-0.09030936,0.06852163,0.01732365,-0.073843256,-0.24723387
1738393042.5017197,0.28284913,-0.00077136606,-0.029967282,0.046773445,-0.41160625,-0.046483047,-0.04688187,0.0424819,-0.1407992,-0.42303333
1738393042.5211537,-0.050204054,-0.0071681496,-0.05577852,-0.025630977,-0.25443625,-0.20655124,0.18646468,0.108704716,-0.2526226,-0.28475878
1738393042.542011,0.329566,-0.15533243,-0.087076895,0.025442924,0.053998254,-0.1022347,-0.15021089,0.012396064,-0.290033,0.06598296
1738393042.563789,-0.09058857,0.0514699,-0.04910007,-0.034332853,0.17246279,-0.22446488,0.24444795,0.0632001,-0.2627358,0.19796984
1738393042.585693,0.32380646,-0.06166271,-0.038973942,0.011029738,-0.0019165166,-0.045139074,-0.1818464,-0.03707327,-0.2814952,-0.003702255
1738393042.6070433,-0.08760643,0.17393993,-0.027622499,0.046220347,0.040696926,-0.2234453,0.42811126,0.16594277,-0.25374752,-0.096998036
1738393042.6267781,0.26603407,-0.1650403,-0.039740775,-0.034369692,0.28818408,0.005871918,-0.0030921586,-0.021364672,-0.124375805,0.27442122
1738393042.647424,-0.029500127,0.01980227,-0.0540433,-0.0683086,0.123610474,-0.12469723,0.4722474,0.1817891,-0.115411565,0.22308898
1738393042.6672428,0.27678317,-0.14250244,0.01784408,-0.24241163,-0.1884292,0.010930283,0.27615312,-0.05560968,-0.009491646,0.09257956
1738393042.6884089,0.1433897,-0.13249764,-0.033299405,-0.34355056,-0.43553716,-0.06343095,0.33160466,0.083796374,0.023737269,-0.03944142
1738393042.7094443,0.26377454,-0.15185107,0.041294783,-0.4142909,-0.3804312,-0.007073597,0.24697745,-0.05082622,0.03601203,0.016160807
1738393042.7339575,0.25239182,-0.1849134,-0.11260139,-0.4646047,-0.63136816,-0.037459247,0.24420206,0.01198236,0.049312986,-0.062006466
1738393042.753873,0.23182052,-0.06932482,-0.03991741,-0.5112207,-0.605823,-0.033226028,0.25561333,-0.0037789913,0.03901364,-0.30244848
1738393042.7716358,0.20190728,-0.1400674,-0.16333127,-0.49636373,-0.63097453,-0.056898117,0.19023888,0.009492802,0.032479905,-0.33606327
1738393042.794553,0.118757695,-0.04614179,-0.13196705,-0.41005936,-0.50760037,-0.071820416,0.090537935,-0.014081676,0.044817254,-0.42996576
1738393042.814721,0.094715446,-0.14184427,-0.17818955,-0.28301144,-0.2085861,-0.083301894,0.14852178,0.043287702,0.03736256,-0.21874641
1738393042.836167,0.076213844,-0.11636745,-0.21834038,-0.15178813,-0.02584188,-0.015919883,0.07318565,0.035099257,0.13246153,-0.27085307
1738393042.8556056,-0.0156028755,-0.1873533,-0.22260836,0.006741653,0.3363346,-0.02072825,0.063360825,0.019755205,0.0074477363,-0.12712695
1738393042.8801305,0.03475146,-0.36082736,-0.26063988,0.011224384,0.617682,-0.08217556,-0.0040936805,0.052550502,-0.21086119,-0.09469959
1738393042.8998497,0.015918853,-0.2524365,-0.14730133,0.0060148267,0.15517908,-0.17818783,0.111219496,-0.012559015,-0.3656326,-0.33506072
1738393042.920759,0.095995635,-0.30171818,-0.15300241,0.088344514,-0.08717003,-0.2046487,-0.044603057,0.03209656,-0.44134295,-0.43036485
1738393042.942173,0.0953576,-0.21697453,-0.1283488,0.07646965,-0.3156193,-0.17628066,0.044003304,0.019790363,-0.5733648,-0.37877896
1738393042.9639063,0.10089606,-0.30027062,-0.17910632,0.07005255,-0.12642807,-0.20149924,-0.0024039,0.039920993,-0.5205933,-0.21072727
1738393042.9822106,0.059598368,-0.13126457,-0.16963509,0.024292484,-0.2416423,-0.15617251,0.015952792,-0.02034654,-0.4738996,-0.11586408
1738393043.0021744,0.032849833,-0.1544483,-0.188362,0.029858328,0.1410813,-0.13179311,0.029010473,0.0010901848,-0.32774258,-0.021741312
1738393043.0243506,0.032233708,-0.047049366,-0.18795337,0.079469845,0.15341574,-0.051209383,0.21423054,0.003835217,-0.26928356,0.088739805
1738393043.0448258,-0.005166348,-0.08436745,-0.09826821,0.06895148,0.16050154,0.028442455,0.029476468,-0.054965846,-0.06499641,0.23507723
1738393043.0652761,0.017106378,-0.054258317,-0.09807952,-0.0060832286,0.24869674,-0.00083814,0.27096277,-0.001044279,-0.0009924788,0.38698095
1738393043.088529,0.09647179,-0.10847425,0.0009485297,-0.18224443,-0.11450614,0.047653466,0.18129753,-0.068934985,0.042494975,0.2848097
1738393043.1078832,0.10535407,-0.12889819,0.014723091,-0.34222087,-0.28214347,-0.007154868,0.2682181,-0.06054894,0.04369016,0.24925444
1738393043.1286523,0.18909876,-0.16793577,0.015019373,-0.4285256,-0.36501896,0.006053416,0.24961743,-0.0660084,0.054409772,0.19558437
1738393043.14982,0.16421068,-0.16755283,0.020715076,-0.46048623,-0.4810937,-0.03984654,0.27646786,-0.079985954,0.055972725,0.10756537
1738393043.1705055,0.17682384,-0.10593938,0.028878462,-0.44457102,-0.5037077,-0.017350014,0.22558488,-0.06719447,0.0059439484,0.0582354
1738393043.1894646,0.15052968,-0.08534042,0.013193472,-0.399779,-0.35648254,-0.033758216,0.14030313,-0.054192312,-0.036973797,0.08081705
1738393043.2113893,0.124506325,-0.02241785,0.05564443,-0.3430376,-0.23231524,-0.035129607,0.08506053,-0.059437357,-0.06803415,0.032658443
1738393043.2337039,0.054431513,-0.035748072,-0.005011967,-0.26103953,0.0070035607,-0.053924233,0.07409005,-0.015559344,-0.03948816,-0.07020891
1738393043.2538388,0.059372768,-0.020249845,-0.016176369,-0.1287985,0.30498344,0.005015889,0.08417396,0.017528938,0.076902725,-0.042955033
1738393043.2739537,-0.019865274,-0.1396778,-0.11914516,-0.0583593,0.6703438,0.09597378,0.06637062,0.0052911327,0.18673345,0.11109713
1738393043.2963092,-0.025048845,-0.33255458,-0.16871288,0.0017118929,0.84134376,0.0241715,0.0398299,0.0038706549,-0.046897963,-0.0039386693
1738393043.3163817,-0.016433395,-0.33643216,-0.16399662,-0.031290967,0.751117,-0.11449517,0.120964035,-0.0050398065,-0.23336326,-0.31434736
1738393043.3368108,-0.0024796538,-0.2714727,-0.111987226,-0.028512435,0.37038252,-0.16241759,0.098756075,0.002769215,-0.338774,-0.55425614
1738393043.3588507,0.039910875,-0.21509133,-0.05673358,0.004260025,0.07089457,-0.1616418,0.1319989,0.027658602,-0.46803266,-0.53380626
1738393043.3807597,0.06631846,-0.24574032,-0.10866013,0.018235903,0.065012164,-0.17712258,-0.0025825053,0.027337085,-0.49100316,-0.3625562
1738393043.3998141,0.06456652,-0.11175847,-0.0858179,-0.011236789,-0.03924866,-0.15594164,0.0072813183,-0.0075212773,-0.44706133,-0.17666213
1738393043.4207928,0.037215825,-0.060200088,-0.11563083,-0.022111118,-0.03207182,-0.122001715,-0.026596256,-0.008312678,-0.35756257,0.008565234
1738393043.4415085,0.02032449,-0.05420406,-0.14068237,0.02191054,0.10664796,-0.07915969,0.0844063,0.0037032608,-0.27344534,0.1991563
1738393043.4622166,-0.022112928,-0.10187289,-0.095626004,-0.0123429885,0.28479314,-0.01612247,0.17364278,-0.007099958,-0.094354905,0.3647086
1738393043.4825246,0.007235188,-0.10720092,-0.072235666,-0.098971196,0.083469585,-0.017997468,0.23556194,-0.01745586,-0.018596033,0.346796
1738393043.5064712,0.07774564,-0.0933177,-0.002031507,-0.21837506,-0.20453414,0.005646933,0.26440257,-0.029286744,0.013111381,0.24515802
1738393043.527718,0.09071008,-0.10954736,0.014733999,-0.34901518,-0.3045761,-0.010504998,0.30717385,-0.043311507,0.015815908,0.20143296
1738393043.548606,0.18103236,-0.12597464,0.020210803,-0.41799986,-0.38179648,0.004891595,0.30413818,-0.05050736,0.028392265,0.1903349
1738393043.5708468,0.16044655,-0.17292722,-0.031279538,-0.48017147,-0.5469368,-0.043417007,0.30698746,-0.028012471,0.052956358,0.098319344
1738393043.5893412,0.17392881,-0.15249814,-0.03125696,-0.47891536,-0.5742091,-0.007099958,0.27418312,-0.046900183,0.027904684,0.038120933
1738393043.6095433,0.17432638,-0.11260682,-0.013188269,-0.42176372,-0.40637833,-0.0075012604,0.19635838,-0.03692972,-0.019334946,0.12780525
1738393043.631592,0.13224062,-0.065046795,-0.013721576,-0.34873095,-0.14699805,-0.024249008,0.11111802,-0.054895155,-0.047909103,0.14412342
1738393043.6537082,0.07755632,-0.018465884,-0.024516016,-0.27286395,0.15592074,-0.03243524,0.11954628,-0.023541143,-0.027804608,0.101576865
1738393043.674161,0.01861075,-0.009154718,-0.06860155,-0.14408454,0.4734891,0.041229866,0.14677933,-0.011280023,0.107325554,0.035901576
1738393043.6955292,-0.0005498566,-0.1466848,-0.14494346,-0.05732405,0.8095618,0.107428744,0.051481783,0.00802325,0.16507724,0.15244818
1738393043.7165504,-0.04835,-0.33825707,-0.17103796,0.0012338487,0.9547834,0.026304098,0.05454036,0.008112482,-0.07696568,0.04550247
1738393043.7370856,-0.07417328,-0.3236972,-0.13917619,-0.046427675,0.8326793,-0.11590885,0.12387445,-0.017217873,-0.23786664,-0.35163763
1738393043.7578428,-0.058737963,-0.2591514,-0.10087609,-0.063927196,0.54390514,-0.16008931,0.12028315,-0.015975522,-0.33069998,-0.5304063
1738393043.7791011,-0.06139569,-0.23826726,-0.11077552,-0.08272268,0.49040204,-0.1871337,0.15645465,0.0042939205,-0.3765255,-0.46092078
1738393043.7986364,-0.012202822,-0.18951115,-0.118674085,-0.10074986,0.4811259,-0.18464878,0.105502196,0.020038258,-0.36807516,-0.24333724
1738393043.824852,0.014722452,-0.033528328,-0.09348301,-0.13711298,0.22807011,-0.15285869,0.044921115,0.0044379486,-0.3203462,-0.09184874
1738393043.8402236,0.020411253,0.044107765,-0.09966203,-0.17580403,0.21798766,-0.10655286,0.061405215,0.0118647665,-0.24511716,0.101981014
1738393043.8608003,-0.007910423,-0.0033420455,-0.13635163,-0.206456,0.26080403,-0.028061192,0.11059167,0.037848428,-0.15932238,0.3671611
1738393043.884542,-0.015750725,-0.08257349,-0.13381836,-0.19683129,0.16621673,-0.010734024,0.19796495,0.024254095,-0.051494636,0.51314
1738393043.9051104,0.047912575,-0.11197332,-0.062126264,-0.23947594,-0.0973929,-0.021802947,0.24404547,0.01131842,-0.015540829,0.31840187
1738393043.9248962,0.058951717,-0.14778101,-0.012903521,-0.324194,-0.25855112,-0.01136952,0.2319206,-0.00425552,-0.009283498,0.24333012
1738393043.9459877,0.09031654,-0.14957903,-0.004291664,-0.3852137,-0.33040822,-0.0042927004,0.27701926,-0.015926497,-0.016297707,0.2978594
1738393043.9671314,0.1358294,-0.1487633,-0.003586642,-0.4221399,-0.41313097,-0.011157129,0.30312476,0.0010797968,-0.0027445853,0.34599665
1738393043.9862688,0.1671896,-0.19006361,-0.047269747,-0.45063657,-0.5661978,0.0053677596,0.2923041,-0.006959431,0.014805866,0.25842702
1738393044.0072465,0.15074578,-0.17704344,-0.07158144,-0.4459644,-0.5155075,-0.015667122,0.24163231,-0.02005994,0.008928506,0.17126182
1738393044.0274243,0.1607028,-0.12315003,-0.055161536,-0.38378933,-0.2621186,0.004280539,0.16317543,-0.05462163,-0.022192916,0.21342835
1738393044.047961,0.12783542,-0.09133022,-0.088960715,-0.3368643,-0.009377835,-0.016796982,0.09654389,-0.05492097,0.0024991222,0.21588096
1738393044.0676267,0.08663405,-0.021824926,-0.11410515,-0.27122736,0.26271036,0.011551484,0.12824285,-0.053773716,0.0722155,0.07010667
1738393044.090014,0.09228265,-0.12885067,-0.16913767,-0.17953554,0.54212636,0.08436631,0.09536084,-0.052324392,0.23668918,0.013834102
1738393044.1099691,0.039464872,-0.28451923,-0.21686915,-0.13276774,0.77449673,0.07333873,0.060271535,-0.03588681,0.165647,-0.053773217
1738393044.1338615,0.026604164,-0.40545705,-0.23124626,-0.06218315,0.8679718,-0.01227241,-0.001979094,-0.013189308,-0.08042888,-0.28018448
1738393044.1554363,0.018168317,-0.33446974,-0.1790479,-0.0798362,0.7050563,-0.084546044,0.037713744,-0.0028683422,-0.24102978,-0.5151921
1738393044.176875,0.056700416,-0.30784157,-0.15212391,-0.045973152,0.4730311,-0.12172242,-8.068979e-05,0.012935391,-0.3737556,-0.56230825
1738393044.1970313,0.08333504,-0.27976534,-0.105092876,-0.024712345,0.34701124,-0.13968591,0.061274394,0.03621482,-0.45871446,-0.43669167
1738393044.2180738,0.08092828,-0.22321488,-0.102412336,-0.016631715,0.2167365,-0.16172639,-0.05580131,0.0014499212,-0.45085758,-0.28334296
1738393044.2362232,0.07126796,-0.10534625,-0.076182336,-0.010750913,0.08743749,-0.15675437,0.033779345,-0.003051851,-0.430008,-0.10194786
1738393044.256186,0.07473901,-0.043601938,-0.11998718,-0.026237067,0.13119379,-0.109761536,0.065010406,0.0001986688,-0.35147056,0.08756288
1738393044.2765913,0.04985602,-0.10448935,-0.1591827,-0.0052552214,0.27789152,-0.049858287,0.11674465,0.023044307,-0.23008573,0.34389517
1738393044.296885,0.009631276,-0.09225281,-0.11359723,-0.025555145,0.1876328,-0.030313857,0.2136171,-0.00093154237,-0.037361145,0.30872694
1738393044.317381,0.07333514,-0.1005793,-0.0290154,-0.122973576,-0.09478879,-0.01571116,0.25523752,-0.008981923,0.035530284,0.26984084
1738393044.3414457,0.13809434,-0.090755396,0.03204187,-0.2714638,-0.2804417,0.029928496,0.24308294,-0.04304207,0.036389567,0.31256735
1738393044.3620253,0.13318858,-0.0687091,0.040478554,-0.36876372,-0.31484357,-0.030248005,0.33213234,-0.029826047,0.02056727,0.24417922
1738393044.3822784,0.18899406,-0.11225875,-0.007956117,-0.46493343,-0.48677117,-0.034644097,0.31660342,-0.0497426,0.057666607,0.09193654
1738393044.4026806,0.18209139,-0.16145405,-0.06556835,-0.5179196,-0.6072189,-0.05450774,0.2810449,-0.04390589,0.057015426,0.034409963
1738393044.4231348,0.19758464,-0.18041788,-0.06470813,-0.4837349,-0.5723372,-0.023248566,0.21476927,-0.051721163,0.015938768,0.058459558
1738393044.4425955,0.16829228,-0.1381938,-0.07523634,-0.4211891,-0.4566531,-0.043196,0.16145082,-0.0472304,-0.011335171,0.060678527
1738393044.4633183,0.11858277,-0.073935494,-0.080682695,-0.3509077,-0.25940764,-0.06314197,0.09148233,-0.053048775,-0.02426563,-0.029689701
1738393044.4835796,0.052949827,-0.015723169,-0.08574516,-0.26640373,0.07485415,-0.06289227,0.12264364,-0.021281878,-0.006001789,-0.10885247
1738393044.5041957,0.06550001,-0.06981967,-0.14974244,-0.116000056,0.3628641,0.00039062463,0.12473839,-0.009653371,0.11128484,-0.16570252
1738393044.5247078,0.016212214,-0.18860435,-0.18554589,-0.037976444,0.6257886,0.019471271,0.096819535,0.024916723,0.13005605,-0.20126751
1738393044.5462437,0.03733034,-0.34214246,-0.18620877,-0.0014949152,0.5942571,-0.06949392,0.03572678,0.028600153,-0.068657614,-0.32489634
1738393044.5681689,0.05848612,-0.31881177,-0.1394391,0.0005823644,0.4038082,-0.11972953,0.070882306,0.016216509,-0.24394988,-0.39804697
1738393044.5888538,0.09035458,-0.28053492,-0.12181157,0.02268232,0.20359957,-0.14476627,0.05594168,0.029558646,-0.38189793,-0.46049383
1738393044.6114607,0.09546146,-0.26132387,-0.10237511,0.021020178,0.10034435,-0.16692504,0.054957833,0.05716697,-0.4899505,-0.45581502
1738393044.632045,0.116187684,-0.19179994,-0.08458526,0.033812437,-0.049254153,-0.15606093,0.012607329,0.052555367,-0.5127449,-0.3689986
1738393044.6513293,0.10143678,-0.10153968,-0.093051836,0.038391016,-0.17446938,-0.13962096,-0.005812384,0.03296992,-0.46931878,-0.2101359
1738393044.671701,0.127828,-0.034070313,-0.09740024,0.06536072,-0.10555265,-0.08606953,0.08282897,0.045449704,-0.3630468,-0.07534666
1738393044.6921766,0.08369066,-0.06716427,-0.11320668,0.07599572,-0.020682951,-0.046480596,0.12580237,0.025568685,-0.21134745,0.058648244
1738393044.7124636,0.029052382,-0.07658464,-0.076635815,0.03655262,0.146225,-0.036663968,0.2651248,0.020409279,-0.051737122,0.15462683
1738393044.7326431,0.093316615,-0.11523605,-0.046709742,-0.09458672,0.09999228,0.022747362,0.24734296,-0.003402993,-0.0056803077,0.2774534
1738393044.7554321,0.15818565,-0.09459487,0.00042258482,-0.24309666,-0.09679243,0.010910461,0.22751552,-0.03295207,0.026182493,0.20351914
1738393044.775605,0.14643008,-0.051386632,0.02921049,-0.3524262,-0.22275874,-0.07305274,0.3377912,-0.029760377,0.04738257,-0.022287501
1738393044.7954051,0.18379119,-0.08212266,-0.005525943,-0.46436298,-0.3770515,-0.07954572,0.3265216,-0.0545476,0.07959156,-0.13702261
1738393044.8157725,0.17570443,-0.12737167,-0.054189544,-0.53134054,-0.5459697,-0.09297899,0.29382128,-0.03702054,0.07196788,-0.19258364
1738393044.8362207,0.1975597,-0.14303881,-0.080032654,-0.54138696,-0.6117188,-0.04823894,0.2500453,-0.028062405,0.038510874,-0.16278122
1738393044.8561416,0.15842575,-0.09270246,-0.07751634,-0.49123842,-0.55845535,-0.047597,0.2089965,-0.012438362,0.014807554,-0.17083913
1738393044.87844,0.10635722,-0.07943594,-0.07953411,-0.4004691,-0.38825205,-0.055978157,0.14248177,-0.003844616,-0.013102622,-0.14914152
1738393044.898564,0.054838028,-0.05361957,-0.09283739,-0.30137074,-0.16566664,-0.06507131,0.115777165,0.0114825815,0.0027826913,-0.21149158
1738393044.918738,0.07487466,-0.11080335,-0.15715402,-0.15776443,0.11553647,-0.035733037,0.12964745,0.038010128,0.10563508,-0.21073346
1738393044.9391558,-0.026227355,-0.15855525,-0.19109443,-0.0739055,0.3892397,0.022415472,0.08467047,0.035174362,0.16026777,-0.21171139
1738393044.9610085,0.055188674,-0.3735918,-0.24072202,-0.0035553612,0.5316831,-0.06978591,-0.029943176,0.056260236,-0.050433066,-0.19813149
1738393044.9817233,-0.0011073798,-0.30500022,-0.16233267,-0.059834532,0.38464016,-0.14091691,0.09897396,0.0038015489,-0.24300504,-0.29474145
1738393045.0029342,0.081209056,-0.28039274,-0.121679574,0.005613615,0.13939363,-0.1701825,0.046594754,0.028917257,-0.38678738,-0.4225289
1738393045.0240467,0.053689566,-0.24373886,-0.092273764,-0.020270292,0.039059766,-0.17719722,0.0830632,0.044066183,-0.47917745,-0.43425873
1738393045.0438209,0.100756735,-0.22329272,-0.124357015,0.0021982314,0.0073740818,-0.17229427,0.037902556,0.05067327,-0.5003522,-0.33187062
1738393045.063827,0.06715612,-0.10575408,-0.120500706,-0.019721527,-0.10237441,-0.15771021,0.023510296,0.018514015,-0.44346297,-0.20601098
1738393045.0845072,0.084055334,-0.018475436,-0.13949987,-0.030774597,0.060350664,-0.11924256,0.08810072,0.035092875,-0.33360612,-0.09532833
1738393045.104682,0.06917959,-0.043346066,-0.1555356,-0.022305869,0.14445317,-0.04653295,0.08265704,-0.0022812663,-0.20338571,0.06328074
1738393045.1247046,-0.009590339,-0.045964915,-0.14108154,-0.08450452,0.34340167,0.00024804473,0.2518332,0.017114475,-0.043473106,0.29145423
1738393045.1453245,0.0687227,-0.12975876,-0.08825247,-0.14950901,0.08044678,0.06472528,0.113454565,-0.031078031,0.028358744,0.44031954
1738393045.166961,0.1558572,-0.061017282,-0.015979499,-0.26630014,-0.16448477,0.043687195,0.25150687,-0.019709656,0.039076693,0.3055135
1738393045.18739,0.14223301,-0.096629106,0.017653763,-0.36330402,-0.2752011,0.015613234,0.2767583,-0.04479862,0.033503905,0.20891324
1738393045.207382,0.19871546,-0.10728076,0.014090099,-0.43064713,-0.34784535,-0.00823215,0.29773492,-0.04528319,0.060866445,0.10251419
1738393045.2280133,0.17545003,-0.15523393,-0.0159397,-0.47074202,-0.46864262,-0.02327403,0.27879578,-0.056162395,0.059897207,0.07498174
1738393045.2489383,0.21567036,-0.15437026,-0.037689295,-0.46263567,-0.5195838,0.022349784,0.24472801,-0.046788894,0.040415213,0.031742074
1738393045.2697058,0.17102262,-0.11559617,-0.025041062,-0.40435803,-0.39917174,0.004798835,0.18232414,-0.05492907,0.0014903285,0.086789906
1738393045.2900817,0.14324144,-0.08411576,-0.030785419,-0.34053332,-0.14564791,0.012168089,0.10637518,-0.045733348,-0.021793498,0.12271425
1738393045.3108964,0.101462655,-0.018924544,-0.052333407,-0.27197447,0.1313988,0.019416748,0.10513415,-0.039548337,-0.0004174579,0.08168581
1738393045.3314333,0.06938176,-0.029701632,-0.11141603,-0.153998,0.5267079,0.10119731,0.0997722,-0.0068506896,0.0972176,0.20579307
1738393045.3514545,0.021665005,-0.16937844,-0.1679893,-0.09302819,0.77978396,0.12393218,-0.0046825185,-0.00032867584,0.13629702,0.1832814
1738393045.371955,-0.03695012,-0.32564086,-0.18326366,-0.050738607,0.85328346,0.030597063,0.0149804875,-0.0053087585,-0.08110517,-0.01828764
1738393045.3924024,-0.018380992,-0.35527927,-0.16602786,-0.08891485,0.79224586,-0.0891317,0.052638855,-0.012718393,-0.22820556,-0.4007656
1738393045.4128942,-0.0050542913,-0.27855754,-0.109760836,-0.09684465,0.45576483,-0.13861437,0.067152746,-0.017256878,-0.33192953,-0.5482437
1738393045.4335985,0.026700545,-0.26025373,-0.10591453,-0.081355765,0.36526886,-0.15406555,0.06485814,0.006290163,-0.41645062,-0.43422052
1738393045.454831,0.05404794,-0.17116427,-0.08634624,-0.07024571,0.25773567,-0.14992915,0.038376037,-0.0030894987,-0.4342519,-0.28771415
1738393045.4769611,0.06198547,-0.07718753,-0.071657956,-0.073551565,0.09484456,-0.13315782,-0.026827067,-0.024096118,-0.39629474,-0.11414552
1738393045.4977305,0.051873356,-0.007855304,-0.09027222,-0.08481946,0.17177233,-0.113558695,0.035822097,-0.014568163,-0.32243818,0.08319755
1738393045.5177915,0.012568053,-0.038092315,-0.11803516,-0.10287085,0.2675691,-0.05927582,0.04914399,-0.0067167524,-0.21136005,0.26048833
1738393045.538437,-0.050697505,-0.041094687,-0.12175218,-0.102606125,0.30988032,-0.017712679,0.20535846,-0.0015660068,-0.06298713,0.44593707
1738393045.557282,0.040987805,-0.09918283,-0.05443678,-0.17814614,-0.044096082,0.014766069,0.23625994,-0.012691846,0.02085221,0.33781525
1738393045.5773973,0.07734822,-0.07883059,0.022368655,-0.29930967,-0.29346225,0.019025235,0.28731787,-0.013124427,0.022276344,0.29832938
1738393045.5981345,0.10275246,-0.053128757,0.04670333,-0.38022807,-0.33683047,0.0051549133,0.35742235,-0.0198982,0.006988758,0.26142696
1738393045.6185105,0.17307349,-0.12561676,0.025666866,-0.43807122,-0.40415013,0.025181716,0.31213164,-0.049302265,0.018953206,0.27157325
1738393045.638804,0.18572749,-0.15254463,0.00185881,-0.46778533,-0.55272424,0.024543377,0.28604263,-0.05138407,0.019172212,0.27332222
1738393045.661195,0.17828636,-0.15902299,-0.01942347,-0.4568619,-0.531188,0.015342014,0.24213159,-0.05398772,0.011331951,0.18878826
1738393045.6809459,0.20050746,-0.056082368,0.031986307,-0.39202696,-0.33583546,0.026558971,0.16120128,-0.06923165,-0.027019497,0.23150784
1738393045.7025878,0.14324808,-0.036453646,-0.00021467917,-0.35453147,-0.08877881,-0.010940941,0.09293295,-0.06365696,-0.024470905,0.21449512
1738393045.7239482,0.09238178,0.050405256,-0.018295132,-0.29195473,0.22395727,-0.002666656,0.12338264,-0.047404587,0.025987303,0.10051898
1738393045.744859,0.053642396,0.06535501,-0.058756005,-0.15612884,0.53588253,0.06800105,0.1453906,-0.032621704,0.23726872,0.030624753
1738393045.7634084,0.011047006,-0.14358242,-0.13661897,-0.05833703,0.76769125,0.121983886,0.086901404,-0.033470854,0.29574722,-0.023440916
1738393045.7856638,-0.012173258,-0.345497,-0.14466438,0.016246933,0.81343204,0.012410356,0.11200935,-0.021409597,0.014124816,-0.19464228
1738393045.8050199,-0.021749623,-0.3485789,-0.101964846,-0.015596993,0.6895673,-0.08539955,0.14919609,-0.0071741454,-0.23848915,-0.3639166
1738393045.82687,0.01407795,-0.29388127,-0.08396006,-0.04391745,0.5286278,-0.12502272,0.07846385,0.021320757,-0.3450168,-0.5054632
1738393045.8477662,0.056632616,-0.24817811,-0.06444309,-0.027292576,0.28325772,-0.13664928,0.08718324,0.048016973,-0.44143593,-0.49685168
1738393045.8663855,0.114269316,-0.14903918,-0.0491874,-0.0067337975,-0.034533232,-0.13487835,0.004962519,0.029435597,-0.48192295,-0.36129823
1738393045.8855953,0.13123825,-0.048028808,-0.03048272,-0.021405444,-0.12609032,-0.121303804,-0.033215836,0.020593606,-0.4191044,-0.17504375
1738393045.9077451,0.13852926,-0.017835965,-0.08235816,-0.025145821,-0.19921646,-0.07607857,-0.05563017,-0.005267118,-0.33091512,-0.012312495
1738393045.9283466,0.11712935,-0.023090828,-0.11820644,-0.009540448,-0.035975862,-0.029835735,0.083364464,0.016802214,-0.19182934,0.16132651
1738393045.9485407,0.029432017,-0.09434056,-0.11818781,-0.020782942,0.10032568,-0.03222065,0.2050143,-0.0027255137,-0.04218454,0.19603759
1738393045.970549,0.117881976,-0.10445415,-0.06567184,-0.084000975,0.044301957,0.007215025,0.26224935,-0.03936127,0.05078268,0.15543295
1738393045.9924717,0.12706694,-0.12234943,-0.018425632,-0.21575427,-0.15221913,0.034609146,0.21086593,-0.038666748,0.041102335,0.16782531
1738393046.0137537,0.19439322,-0.10444007,0.0124662975,-0.32656202,-0.28131476,0.009834055,0.29927742,-0.048756734,0.06286821,0.13272765
1738393046.0343368,0.21370837,-0.12929803,-0.057343014,-0.4724952,-0.47404987,-0.049765162,0.31190068,-0.060243227,0.11369647,-0.10361018
1738393046.0551991,0.21297097,-0.18897733,-0.17403919,-0.57530665,-0.67516357,-0.07807551,0.27666292,-0.05855471,0.1410503,-0.28461057
1738393046.0761416,0.2242097,-0.17608777,-0.18371445,-0.58301705,-0.751194,-0.063227825,0.2587623,-0.052796677,0.11132401,-0.29689857
1738393046.09545,0.18665431,-0.1648063,-0.19972499,-0.52497464,-0.63546985,-0.059690677,0.21117716,-0.03488096,0.077050515,-0.2630849
1738393046.116339,0.11948307,-0.12465021,-0.21315701,-0.42207956,-0.48487514,-0.0683537,0.1390202,-0.024979344,0.05440464,-0.26358125
1738393046.137674,0.08864997,-0.09135958,-0.22927941,-0.27557677,-0.24764457,-0.073917635,0.1330388,-0.01520903,0.0476686,-0.22845106
1738393046.1578686,0.053157162,-0.13480616,-0.21257831,-0.13801621,0.12383252,-0.024044868,0.15941164,0.015996423,0.083058804,-0.17720656
1738393046.1800563,-0.004165102,-0.21334313,-0.23435903,-0.04570455,0.4873935,-0.045421578,0.057601362,0.057662636,0.02246199,-0.15902577
1738393046.2019484,-0.015910432,-0.2814929,-0.22020048,-0.03815692,0.4845575,-0.1267889,0.07848176,0.029576156,-0.1780072,-0.2104564
1738393046.2221613,0.008921683,-0.26261342,-0.18271762,-0.052258693,0.31383812,-0.19910264,0.077093974,0.013097061,-0.27962312,-0.333679
1738393046.2428775,0.009928249,-0.27132657,-0.16982694,-0.053392623,0.20420325,-0.21378644,0.06875168,0.014707645,-0.3741716,-0.3568405
1738393046.2637527,0.034478385,-0.2587757,-0.17151776,-0.038164843,0.1532304,-0.2255305,0.10798456,0.03705097,-0.44103116,-0.31972227
1738393046.2842698,0.034060627,-0.18788987,-0.16368039,-0.052390933,0.08050725,-0.20244224,0.096805945,0.039763443,-0.43115896,-0.24030489
1738393046.3053393,0.0082618445,-0.12028692,-0.19657871,-0.07986582,0.17104053,-0.18798755,0.0363219,0.007572379,-0.3550718,-0.14868663
1738393046.3243515,0.007668931,-0.047395356,-0.21258579,-0.10136709,0.3296388,-0.14231096,0.08703342,0.018412735,-0.27462104,-0.03473407
1738393046.3449688,-0.039952748,-0.03136833,-0.22012405,-0.09958313,0.39284942,-0.09328991,0.06931214,0.004951366,-0.16811672,0.15024872
1738393046.365309,-0.0542479,-0.04932518,-0.18670346,-0.0863496,0.27254978,-0.018819883,0.09170295,-0.0075603556,-0.08176161,0.37699366
1738393046.3864245,-0.0024479777,-0.089429185,-0.11202947,-0.14220838,0.015147872,0.025862517,0.13552934,-0.0094976,-0.01975925,0.3795288
1738393046.4102728,0.041949,-0.11558099,-0.05067157,-0.24833249,-0.1667935,0.051350534,0.19274327,0.011169175,-0.0020766035,0.4786174
1738393046.4299798,0.11103504,-0.12821415,-0.007814073,-0.34764808,-0.3662881,0.06508675,0.29117173,0.0040782467,0.0103249345,0.47311592
1738393046.4519932,0.17081213,-0.15596916,0.0009717131,-0.40717936,-0.47576362,0.062098548,0.29416734,-0.025176449,0.032531343,0.45743582
1738393046.4727607,0.20340776,-0.17112905,-0.0062230933,-0.42011037,-0.5248492,0.0553609,0.2800609,-0.044387795,0.03579332,0.39243892
1738393046.4929442,0.22589283,-0.12220459,0.010205668,-0.38545612,-0.3798985,0.057216592,0.21413745,-0.056913987,0.009226637,0.46933833
1738393046.5111017,0.23825109,-0.06322937,0.019259937,-0.3453989,-0.18267146,0.08039848,0.13048701,-0.06709291,-0.010333392,0.5283206
1738393046.531279,0.22634469,0.0015146881,0.008559451,-0.31301782,0.08435262,0.09805553,0.06248882,-0.06281462,-0.005095016,0.6108218
1738393046.5537786,0.1890785,0.109505616,-0.0015923562,-0.25971013,0.46981245,0.15284495,0.014058255,-0.05821403,0.03161647,0.7260389
1738393046.5735075,0.09531964,0.08053313,-0.04476732,-0.20283945,0.8942479,0.23041637,-0.01842133,-0.039707266,0.16334654,0.8161814
1738393046.59408,0.04327865,-0.117914446,-0.09717607,-0.14045519,1.0848111,0.19078146,-0.07994564,-0.06403622,0.12630172,0.7062036
1738393046.6156452,-0.08672263,-0.2906727,-0.1187981,-0.094066076,1.2003002,0.05375331,0.018653419,-0.09126907,-0.11370171,0.25812158
1738393046.6374364,-0.12268643,-0.43494546,-0.13140777,-0.05321792,1.164949,-0.1138082,0.05253303,-0.10207999,-0.2670659,-0.44283968
1738393046.6580112,-0.113203794,-0.40341103,-0.090784796,-0.06665824,0.861334,-0.22432648,0.14136404,-0.11028903,-0.34497675,-0.7750148
1738393046.6794796,-0.06910999,-0.27659827,-0.0446843,-0.08781273,0.6873807,-0.25401583,0.20698419,-0.097124256,-0.3701441,-0.59577364
1738393046.6996567,-0.061905272,-0.12509295,-0.007064645,-0.10088875,0.573852,-0.25715968,0.13164747,-0.10099811,-0.35397115,-0.27789402
1738393046.719477,-0.054581963,-0.0017053448,0.0011857254,-0.12385071,0.58459705,-0.23085172,0.035380766,-0.07152534,-0.3155688,0.11199677
1738393046.7403758,-0.08170062,0.028674172,-0.033338863,-0.15603572,0.5310239,-0.17553724,-0.07443136,-0.04297608,-0.24705298,0.43564296
1738393046.760728,-0.10886209,0.025091777,-0.05134371,-0.19029374,0.5889217,-0.08915009,0.01967854,0.05052437,-0.14777464,0.68776184
1738393046.7827277,-0.09468448,0.00019942038,-0.04683152,-0.20652744,0.28282562,-0.01688583,0.12101955,0.045751274,-0.07448479,0.76330334
1738393046.806645,-0.03524562,-0.04723507,0.003809914,-0.31011647,-0.09964974,-0.023759976,0.25043565,0.077876695,-0.015382141,0.49325964
1738393046.8250508,-0.022537239,-0.13666488,0.030297,-0.41536486,-0.31315908,-0.06901261,0.2689218,0.06466788,0.021619594,0.28682137
1738393046.8467343,0.013114177,-0.11850241,0.025078997,-0.48672944,-0.39940262,-0.058511965,0.3106615,0.04932735,0.009771874,0.27570686
1738393046.8677316,0.086119704,-0.15548924,-0.001090935,-0.51300174,-0.60725033,0.0026762448,0.3268945,0.042612374,-0.012999539,0.4027677
1738393046.8876405,0.15809706,-0.23056127,-0.057691906,-0.49236235,-0.70930284,0.00838929,0.2747727,0.048489355,-0.026397126,0.42853475
1738393046.9074137,0.15244994,-0.19073857,-0.046500836,-0.44323614,-0.5668693,-0.025630936,0.16765471,0.0066455677,-0.045129992,0.3819129
1738393046.9285233,0.13270503,-0.09372333,-0.026711226,-0.3689841,-0.23143685,-0.03738411,0.06686028,-0.03824067,-0.06256581,0.35571456
1738393046.9490342,0.084664166,-0.01956017,-0.04896002,-0.32875362,0.09032834,-0.06527261,0.009661164,-0.0625755,-0.035068333,0.24530736
1738393046.9699514,0.06684901,0.0625221,-0.09750703,-0.28601786,0.37512496,-0.06305967,0.078203455,-0.035658136,0.11767131,0.029496929
1738393046.989983,0.074171536,-0.07159129,-0.17267956,-0.15930836,0.532914,0.026287546,0.09413523,-0.04989855,0.40341333,-0.22981068
1738393047.0113893,0.03829866,-0.24040417,-0.17789288,-0.078328304,0.6431249,0.053117216,0.15155768,-0.052418575,0.36201638,-0.3617293
1738393047.0324948,0.023498463,-0.4126999,-0.19882895,0.0031011244,0.635912,-0.048684604,0.05541778,-0.018454716,0.024605354,-0.4528454
1738393047.0527225,0.041098073,-0.36818373,-0.14246745,-0.0143101355,0.65982866,-0.10241228,0.06358224,0.0074088424,-0.26228634,-0.43537015
1738393047.0742977,0.055364016,-0.32344922,-0.1170291,-0.006106884,0.44806364,-0.14073409,0.0488505,0.028525718,-0.39939487,-0.5653197
1738393047.0949712,0.13050196,-0.29301873,-0.078526065,0.06379515,0.1139875,-0.14900136,0.022506446,0.061821617,-0.5748345,-0.54588556
1738393047.1129062,0.13244382,-0.19343303,-0.052407984,0.07814917,-0.083413884,-0.16636309,0.041429453,0.054808028,-0.6077739,-0.4184491
1738393047.1346312,0.10849863,-0.13158526,-0.06726334,0.08403291,-0.3445601,-0.16737916,-0.041392103,0.029786669,-0.57516444,-0.2915867
1738393047.1534953,0.08479829,-0.0065260995,-0.09146426,0.07519249,-0.32858524,-0.14331977,0.08375184,0.045574754,-0.4405017,-0.08537886
1738393047.174644,0.07923187,-0.10594801,-0.15851445,0.082936145,-0.07817323,-0.068321764,0.09427005,0.04384248,-0.22851068,0.1934983
1738393047.19522,0.00922896,-0.099706665,-0.101477854,0.027495656,0.08571889,-0.022438908,0.2640695,0.050602578,-0.06604859,0.24455288
1738393047.216999,0.105657436,-0.13100073,-0.047278397,-0.11558861,0.09478528,0.042818025,0.20412485,-0.005963132,0.01921981,0.34066048
1738393047.2382927,0.18061501,-0.079250105,-0.004889155,-0.23529445,-0.10516888,0.048431046,0.23079531,-0.03658373,0.03655602,0.2670551
1738393047.2591352,0.20595714,-0.12964782,0.0011444138,-0.37934577,-0.22332397,-0.011638719,0.255907,-0.059842043,0.065036565,0.15839191
1738393047.2799351,0.2386839,-0.1272518,-0.079419866,-0.504055,-0.424497,-0.06918985,0.28886384,-0.047367834,0.106362104,-0.08792286
1738393047.301184,0.2193458,-0.14071092,-0.123307325,-0.588242,-0.620632,-0.101992846,0.26755077,-0.041396856,0.109876156,-0.2977975
1738393047.3215344,0.24484624,-0.17186017,-0.16607833,-0.5792035,-0.7208116,-0.067663975,0.24886285,-0.030892698,0.076639965,-0.23425585
1738393047.3422437,0.21192631,-0.16294186,-0.15637301,-0.50292397,-0.6336655,-0.041810405,0.18059105,-0.019342292,0.025484065,-0.13878825
1738393047.3620408,0.14264314,-0.15114579,-0.16873203,-0.36090434,-0.37390983,-0.048840508,0.10486278,-0.009170234,-0.007344527,-0.019295165
1738393047.3847983,0.08202471,-0.08714566,-0.15465574,-0.24093361,-0.08146736,-0.02110488,0.116762996,-0.0076369084,-0.037892915,-0.04757625
1738393047.4053483,0.10573408,-0.13954782,-0.23412071,-0.11852591,0.23511922,-0.006347527,0.09262263,0.018480865,0.06628609,-0.13394892
1738393047.427035,0.067205414,-0.21123226,-0.22512129,-0.09981498,0.61221963,0.04549042,-0.0031788498,0.05825986,0.052625127,-0.088499926
1738393047.4478674,0.06619116,-0.33937618,-0.26684222,-0.037427906,0.67642206,-0.06090322,0.02041202,0.054957703,-0.10273833,-0.16690536
1738393047.4675798,0.07319908,-0.32388493,-0.18496877,-0.052834354,0.4408925,-0.13241568,0.06884346,0.022917777,-0.25280097,-0.3464855
1738393047.4884777,0.10272993,-0.2717596,-0.13860846,0.0049757,0.07034226,-0.15643771,0.043803953,0.023714103,-0.39661062,-0.41148078
1738393047.5096529,0.09811698,-0.27506098,-0.108357884,0.020309225,-0.03605584,-0.16609074,0.044681128,0.042229474,-0.51326144,-0.38945174
1738393047.5300546,0.12548313,-0.21354847,-0.11283127,0.04207591,-0.17280948,-0.16143876,0.042594906,0.05250746,-0.55491996,-0.28144753
1738393047.5512435,0.09912593,-0.16127703,-0.12612846,0.03627976,-0.18511802,-0.13920806,-0.011063464,0.02548803,-0.49273586,-0.17612118
1738393047.5708177,0.118069015,-0.039873186,-0.1298232,0.05274398,-0.14420582,-0.086197026,0.107626125,0.039902404,-0.38390282,-0.10053895
1738393047.5910206,0.0668875,-0.06852733,-0.118708424,0.06386009,0.0032722466,-0.030576289,0.1561017,0.017349169,-0.20932223,0.0626479
1738393047.6114004,0.03664045,-0.06542945,-0.113034025,-0.01558965,0.18412861,-0.018167755,0.32243407,0.01901761,0.005258862,0.11287545
1738393047.634729,0.091889545,-0.13278721,-0.058572505,-0.14049616,0.11676506,0.011371393,0.27294338,-0.019686801,0.042774864,0.19499356
1738393047.65663,0.12063737,-0.027444694,-0.010952489,-0.23503424,-0.04706539,-0.029338801,0.4099089,-0.012409575,-0.016056942,0.072398014
1738393047.6767771,0.13277271,-0.026640525,0.057152912,-0.32212564,-0.09705478,-0.0552058,0.38463366,-0.035479955,-0.012211999,0.12041144
1738393047.6975982,0.15048711,-0.069324486,0.053411044,-0.41086465,-0.22345552,-0.0380115,0.32106823,-0.049342327,0.005673567,0.084141485
1738393047.7189424,0.15053463,-0.10038475,0.059259832,-0.4549537,-0.36104676,-0.035574317,0.29441625,-0.042180404,0.00061380863,0.10026401
1738393047.7380598,0.1738487,-0.05585186,0.08902208,-0.45145443,-0.4017358,-0.010706095,0.2730954,-0.036195286,-0.03175053,0.1030031
1738393047.7599614,0.1520473,-0.003500253,0.11280103,-0.435297,-0.35229462,-0.040245075,0.2206974,-0.008758588,-0.0547135,0.06661185
1738393047.7797558,0.13916388,0.032239176,0.11430131,-0.3776382,-0.18868119,-0.04517165,0.1513997,0.016958214,-0.07719075,0.08196878
1738393047.802332,0.11970521,0.09345485,0.12908049,-0.301659,0.0044086315,-0.041992754,0.13530125,0.051849827,-0.06621822,0.07421426
1738393047.823019,0.075514264,0.10066552,0.07944484,-0.18712358,0.25077578,0.013746994,0.13490391,0.07471757,0.10569027,0.036367446
1738393047.843997,0.0031405538,0.04592386,0.009659038,-0.09713851,0.57931924,0.11121994,0.026735473,0.06653313,0.2776711,0.14734714
1738393047.8640163,-0.08833462,-0.18134642,-0.067469016,0.0066607846,0.8557791,0.10081156,0.07247334,0.018855516,0.17438963,0.20276274
1738393047.8854413,-0.12215532,-0.3373947,-0.08192045,0.0038736751,0.9098456,-0.07082645,0.17658067,-0.0041705407,-0.15553696,-0.03850438
1738393047.903962,-0.13279667,-0.32813144,-0.045908377,-0.06186951,0.82846045,-0.1718233,0.16102777,-0.004704166,-0.2937389,-0.43009755
1738393047.9261897,-0.0865227,-0.23444924,-0.018115424,-0.091473274,0.46224618,-0.21568072,0.20329195,0.016326442,-0.31259388,-0.65094686
1738393047.946303,-0.029628523,-0.07056221,0.014522751,-0.123504326,0.19982031,-0.20578723,0.22627547,0.05262565,-0.31640166,-0.4966747
1738393047.9674485,0.030936286,0.0040005147,-0.016411554,-0.18587117,0.1425271,-0.16349934,0.1326029,0.07794319,-0.26919845,-0.1522748
1738393047.987371,0.043720216,0.09422716,-0.07113849,-0.25944027,0.07669635,-0.09541626,0.0014889985,0.04637479,-0.18397528,0.098843046
1738393048.0090573,0.04150217,0.11817267,-0.08432692,-0.3071262,0.004841469,-0.026144646,0.065411545,0.07536893,-0.10420238,0.29452923
1738393048.0298796,0.05692306,0.05388491,-0.0592904,-0.31765175,-0.009543886,0.026802508,0.19449142,0.08249254,-0.022715252,0.5598961
1738393048.0511887,0.110862315,-0.03808351,-0.028222889,-0.379086,-0.024532802,0.019613357,0.22703953,0.09571893,0.009321643,0.58230615
1738393048.0709496,0.15268944,-0.099341035,-0.014179276,-0.4051681,-0.12401024,0.0011840183,0.19842462,0.06677433,0.0210639,0.33574423
1738393048.092122,0.18473569,-0.12287811,-0.013042893,-0.44090232,-0.27260333,0.016643306,0.19224264,0.015467824,0.02950911,0.17048597
1738393048.1116052,0.20097497,-0.1387482,-0.022423584,-0.46849975,-0.35607922,0.014318483,0.24770267,0.018128106,0.04065489,0.1868532
1738393048.1318643,0.25669354,-0.19163695,-0.056764774,-0.4683872,-0.4288698,0.038803063,0.2253171,0.041847132,0.04427214,0.27539432
1738393048.151903,0.22643366,-0.178165,-0.08717905,-0.458745,-0.49826205,0.016407507,0.20826736,0.034741856,0.04808131,0.1828484
1738393048.1728222,0.22478557,-0.12098021,-0.09248507,-0.4105973,-0.34595916,0.04124581,0.14449924,0.007249308,0.0401062,0.14179854
1738393048.1929483,0.18157117,-0.042510986,-0.107531525,-0.36517185,-0.07689817,0.02157752,0.10561749,-0.0141048115,0.0680741,0.061583534
1738393048.2174184,0.1799769,-0.057694674,-0.18500015,-0.2895076,0.312095,0.030071428,0.081970006,-0.009433966,0.15016218,0.052169017
1738393048.2369668,0.13613139,-0.13039377,-0.22546685,-0.23485576,0.5610614,0.07499417,0.07282886,-0.023040993,0.27231067,-0.014023385
1738393048.2578251,0.07045111,-0.31714973,-0.22933766,-0.17418881,0.7460689,0.044455856,0.043465268,-0.026051773,0.14300874,-0.15901704
1738393048.280714,0.026573244,-0.37534538,-0.25042892,-0.12537162,0.9040799,-0.031625006,0.0015053265,0.0025426052,-0.13550593,-0.2858849
1738393048.298636,-0.0008940622,-0.35607782,-0.21511629,-0.16213386,0.91342604,-0.111479744,-0.01071129,-0.008583685,-0.24601783,-0.48602137
1738393048.3173444,0.017705306,-0.29509807,-0.16236405,-0.14999999,0.6161524,-0.15920927,0.011225626,-0.008044906,-0.32917458,-0.534602
1738393048.338044,0.049551502,-0.2262766,-0.12524465,-0.111052364,0.38481998,-0.16371255,0.032474823,0.00090966746,-0.41773218,-0.4166323
1738393048.357897,0.059471257,-0.17775339,-0.11218129,-0.090190664,0.29084727,-0.16848762,-0.0150517225,-0.014697228,-0.4289566,-0.2605034
1738393048.379895,0.03721574,-0.09577727,-0.107987024,-0.10162539,0.27267706,-0.17250296,-0.042310253,-0.03132072,-0.36791235,-0.062130384
1738393048.4024096,0.03255824,-0.038931936,-0.12969665,-0.10817105,0.2633864,-0.14871101,0.025784861,-0.014293844,-0.30720928,0.13323477
1738393048.4244757,0.017303355,-0.044211067,-0.16823676,-0.1043966,0.36288282,-0.08414349,0.09901787,0.020474933,-0.20888351,0.33756557
1738393048.4458187,-0.041291587,-0.05854304,-0.12582414,-0.15193605,0.30595496,0.011758534,0.18631539,0.017235458,-0.06078948,0.49931
1738393048.4653845,0.055979475,-0.08153341,-0.030488063,-0.1982457,-0.13495,-0.007967657,0.30222338,0.036519337,0.021501275,0.37912515
1738393048.486228,0.046138834,-0.07342713,0.031325754,-0.32546756,-0.3679224,0.016848965,0.29669616,0.031664386,0.027721709,0.39189088
1738393048.5066795,0.09472686,-0.05680094,0.045550343,-0.40980595,-0.4048752,-0.025095098,0.3815081,-0.0066520385,0.011442056,0.2962224
1738393048.5261421,0.16009268,-0.14025858,0.0049021337,-0.46493697,-0.4784681,0.0030218866,0.3053723,-0.049271747,0.017091738,0.3244061
1738393048.5464277,0.16702032,-0.13737115,0.004619674,-0.47286394,-0.5681622,-0.007741198,0.28232706,-0.031002725,0.006535001,0.30229944
1738393048.5666182,0.19006398,-0.13898093,0.00921772,-0.4391072,-0.46786457,0.011380663,0.21683215,-0.0551944,-0.01478074,0.348607
1738393048.5887098,0.19431452,-0.014473628,0.05645755,-0.3706218,-0.25229418,0.0068631265,0.1337684,-0.047166437,-0.056484714,0.46081144
1738393048.6091,0.16169262,0.01569696,0.05389134,-0.33295688,0.022528961,-0.012882458,0.064576596,-0.04080745,-0.062316827,0.46111152
1738393048.6308773,0.111508384,0.14108981,0.04442194,-0.26305678,0.35338464,0.014137501,0.08090128,-0.017037582,-0.003289871,0.4151625
1738393048.6510005,0.035274766,0.1185799,0.009405547,-0.15997899,0.7080837,0.095922954,0.08302395,-0.015982736,0.22341314,0.26789212
1738393048.671688,0.017640797,-0.07478385,-0.072938256,-0.034121007,0.94312906,0.121926785,0.0548411,-0.022938052,0.29666182,0.197678
1738393048.6920557,-0.030389838,-0.31798774,-0.08669644,0.04461523,1.0554897,0.054612637,0.0988319,-0.031937845,0.04252266,-0.035429217
1738393048.713917,-0.06729673,-0.36996403,-0.056903835,0.0033349665,0.849448,-0.09387655,0.16528128,-0.021659592,-0.22847575,-0.40720487
1738393048.7334428,-0.043667726,-0.29571733,-0.028596673,-0.039227,0.66067666,-0.16574843,0.19082195,0.00775914,-0.34379795,-0.608558
1738393048.754083,-0.014047023,-0.23190866,-0.016002622,-0.07007662,0.5140517,-0.17992897,0.21598418,0.043653592,-0.37555572,-0.5583053
1738393048.7747483,0.06482286,-0.13481791,-0.022935657,-0.08199662,0.29269668,-0.1482219,0.04750969,0.026889406,-0.3766865,-0.29688174
1738393048.7954032,0.079500414,0.025138343,-0.008414388,-0.1252534,0.11811706,-0.1256312,0.008178014,0.02151959,-0.31516615,-0.012129379
1738393048.8183904,0.09850432,0.072473176,-0.049036928,-0.16412228,-0.02279324,-0.061555386,-0.06963365,0.0024605938,-0.22374265,0.14087623
1738393048.841175,0.038066536,0.02560292,-0.08294305,-0.19139324,0.050890617,-0.032281175,0.08855599,0.06534236,-0.10492963,0.35450613
1738393048.8617773,0.05266941,-0.08987152,-0.12106128,-0.18148574,0.09533974,-0.053161502,0.23139931,0.03812089,0.020819878,0.34984392
1738393048.881448,0.08151875,-0.11800651,-0.06311411,-0.2534338,-0.042545978,-0.024651406,0.23222521,0.004234891,0.0148635935,0.17927177
1738393048.9027007,0.12929444,-0.12655681,-0.016019223,-0.31651995,-0.19465148,-0.0023283642,0.23651461,0.0012755552,0.011668922,0.08271386
1738393048.9217663,0.13562271,-0.13922334,0.00035416894,-0.38310242,-0.26228204,-0.016476426,0.272325,0.001471282,0.011785461,0.1131016
1738393048.9418054,0.16443738,-0.13447273,-0.0275327,-0.4403766,-0.41767776,-0.046001434,0.3009526,0.0059399763,0.034183405,0.08043705
1738393048.964677,0.19382285,-0.20689465,-0.13439848,-0.5132865,-0.6366778,-0.05612351,0.25314486,0.014082112,0.06525452,-0.052968167
1738393048.983775,0.17462413,-0.16642098,-0.14277934,-0.5278851,-0.6727928,-0.07506936,0.23236388,-0.0031998064,0.06671845,-0.22126305
1738393049.00474,0.14972946,-0.124484956,-0.15463684,-0.4953908,-0.50318575,-0.07346131,0.20889737,-0.016431922,0.05893796,-0.2785472
1738393049.0281842,0.1054147,-0.076661415,-0.20814852,-0.4190244,-0.33580852,-0.098775305,0.1302241,-0.02345608,0.08280766,-0.3542081
1738393049.0497324,0.11549754,-0.07061946,-0.214682,-0.2962648,-0.09153651,-0.08043243,0.14799674,0.0013043769,0.15346538,-0.2919504
1738393049.0708194,0.067318544,-0.15906775,-0.24297605,-0.19074865,0.19655532,-0.00059091114,0.16708101,-0.0015681172,0.24398106,-0.29371464
1738393049.091104,0.050803766,-0.29279462,-0.27089554,-0.093005694,0.45026264,-0.05374042,0.06701725,0.02170346,0.123666,-0.29515454
1738393049.1128974,0.03668555,-0.30303407,-0.23888332,-0.04931817,0.4566329,-0.108462736,0.009224191,0.031594776,-0.1414598,-0.30225578
1738393049.1320748,0.052926164,-0.29310983,-0.19993277,-0.05425444,0.39959955,-0.15903844,0.037947737,0.021415658,-0.29476136,-0.3816433
1738393049.1524987,0.07460351,-0.29274964,-0.17530333,-0.013722557,0.16698015,-0.18097918,0.036565147,0.041279525,-0.41748047,-0.45127982
1738393049.1730464,0.07387776,-0.2550697,-0.1505241,-0.006434804,0.043483064,-0.1933817,0.08361589,0.0633917,-0.49988586,-0.4191316
1738393049.1932647,0.08042088,-0.20606887,-0.14863415,0.008738148,-0.099600144,-0.20380779,-0.006392926,0.040293176,-0.48758397,-0.32585368
1738393049.2142618,0.046230603,-0.12734994,-0.14883442,-0.01926443,-0.010030391,-0.18291506,0.055266704,0.02702273,-0.42168006,-0.13275251
1738393049.2383106,0.055579983,-0.09264143,-0.22128567,-0.034151636,0.19106847,-0.12773941,0.03531824,0.013029733,-0.32174346,0.04161401
1738393049.2591445,0.038949892,-0.057726398,-0.21469793,-0.03406449,0.30901182,-0.054746248,0.11135632,0.02580005,-0.20717464,0.18613097
1738393049.2810018,-0.012539595,-0.09168951,-0.17589469,-0.043801613,0.19209701,0.0064084716,0.038327083,-0.039782815,-0.03857348,0.31863663
1738393049.3004208,0.07158689,-0.07386707,-0.09542878,-0.08325025,0.010088123,0.012049308,0.19843915,-0.012449784,0.038819224,0.30170447
1738393049.3219323,0.11270318,-0.11280151,-0.016360203,-0.21710104,-0.20133695,0.030545698,0.17621782,-0.026338948,0.048150413,0.32491013
1738393049.3409357,0.15904452,-0.12143358,-0.008042078,-0.34014022,-0.33810866,0.009452298,0.27509183,-0.029137256,0.051108584,0.2956356
1738393049.3615603,0.16860168,-0.14287063,-0.01117247,-0.41984877,-0.41868007,-0.011257494,0.31179133,-0.048992448,0.050808355,0.15237531
1738393049.3823316,0.21344835,-0.1883436,-0.047870938,-0.44832724,-0.5229834,0.026628548,0.27290195,-0.059402928,0.05197785,0.16430898
1738393049.402401,0.1904219,-0.18134114,-0.048220042,-0.42300877,-0.49265686,0.013764927,0.23523614,-0.046426967,0.032981776,0.1939093
1738393049.4232168,0.17606096,-0.16553462,-0.059240192,-0.35867715,-0.30450764,0.017820632,0.1508376,-0.06850386,-0.0022729915,0.26349932
1738393049.4453952,0.16143245,-0.09172743,-0.049354702,-0.29145166,-0.08310045,0.03089548,0.08071756,-0.078964286,-0.028983423,0.2689054
1738393049.466701,0.11900858,-0.03278749,-0.068775095,-0.20566471,0.3162702,0.0669823,0.042135216,-0.052128255,-0.039135642,0.35242245
1738393049.4878263,0.057192255,-0.02306051,-0.098949015,-0.14468867,0.7381357,0.14533553,0.050116397,-0.014719615,0.042947143,0.44169793
1738393049.5091012,0.0154858325,-0.15194795,-0.15908182,-0.06367487,0.9327158,0.10987018,-0.0069762543,-0.0139572285,0.042321064,0.33696374
1738393049.529976,-0.08809091,-0.2936755,-0.16503748,-0.049840186,1.034181,0.018856777,0.05238161,-0.03988567,-0.16282606,-0.027622575
1738393049.5487907,-0.075293615,-0.35604498,-0.18351792,-0.070943676,0.9487992,-0.12569019,0.09837502,-0.046970233,-0.26358923,-0.43735617
1738393049.5691245,-0.09524909,-0.3408431,-0.15863553,-0.096687034,0.76822233,-0.19584265,0.0866606,-0.06776638,-0.3171971,-0.56532997
1738393049.5893662,-0.07841841,-0.22580549,-0.10617023,-0.0955346,0.6403123,-0.22609091,0.14348215,-0.072257824,-0.3459811,-0.44152072
1738393049.609707,-0.05469104,-0.15001933,-0.09117965,-0.097427525,0.5297416,-0.19715427,0.041721918,-0.08171432,-0.3716666,-0.1937606
1738393049.6300128,-0.030710377,-0.044224095,-0.081338644,-0.09952892,0.48578733,-0.17823008,0.011220887,-0.0633421,-0.33265525,0.042021237
1738393049.651433,-0.0466168,-0.053203434,-0.10896506,-0.1160536,0.48461252,-0.14986214,-0.086732715,-0.05334788,-0.27318108,0.28282622
1738393049.6727014,-0.09657563,0.011839787,-0.10468537,-0.1345608,0.5772667,-0.0988037,0.068487026,0.020953681,-0.17853317,0.5209698
1738393049.6930933,-0.0989345,-0.035982266,-0.07209948,-0.12704581,0.3076045,-0.014729071,0.08801878,0.00460688,-0.095281124,0.6259933
1738393049.7146215,-0.02836249,-0.03009225,9.972602e-06,-0.21073781,-0.098407626,-0.04975625,0.29174694,0.049845293,-0.03785204,0.40916124
1738393049.7358947,-0.029579245,-0.12768544,0.045820065,-0.36636642,-0.32866907,-0.04155217,0.26347104,0.032450948,9.3406066e-05,0.32889512
1738393049.755261,0.043567356,-0.110929,0.035016373,-0.43076417,-0.4169005,-0.052023493,0.34152988,0.01484853,-0.0048416834,0.26547292
1738393049.7755244,0.079056665,-0.15813002,0.020675775,-0.4706383,-0.5162585,-0.031349026,0.33834708,-0.0076914914,-0.024614928,0.34497824
1738393049.797114,0.137819,-0.2009914,-0.043913182,-0.47589245,-0.6155372,-0.01360312,0.29262006,-0.011303835,-0.022233963,0.30947733
1738393049.819951,0.13393813,-0.16426975,-0.03193469,-0.4369669,-0.5207314,-0.021990515,0.21159598,-0.03483226,-0.039614387,0.3008844
1738393049.8401449,0.12485318,-0.11371103,-0.040820133,-0.3802673,-0.2528292,-0.033652447,0.11734511,-0.070723325,-0.04965775,0.28957027
1738393049.8600967,0.0989908,-0.033996344,-0.032559432,-0.33005205,0.03613759,-0.0501686,0.052766923,-0.09534476,-0.05443658,0.24352232
1738393049.8831553,0.04317633,0.018795786,-0.09735886,-0.2729955,0.31947467,-0.056788802,0.07244283,-0.06641008,0.028327422,0.090618
1738393049.903451,0.034881935,-0.050431836,-0.14260666,-0.14104736,0.5472286,0.043648094,0.1251649,-0.06356602,0.24309558,-0.13294251
1738393049.9220064,0.029860174,-0.20232192,-0.17030258,-0.042351123,0.6444184,0.04175879,0.13671215,-0.048165925,0.26985267,-0.3027536
1738393049.942343,0.021677818,-0.37944484,-0.18086305,0.02352785,0.6888057,-0.046612218,0.09452704,-0.017924193,-0.017626291,-0.4012221
1738393049.9626377,0.051371396,-0.33932912,-0.12780997,0.02868332,0.55264354,-0.09783773,0.072094426,-0.0005397005,-0.2424164,-0.4584641
1738393049.982583,0.05360878,-0.3199021,-0.10769878,0.031250358,0.38038453,-0.13309817,0.044382617,0.022839451,-0.3976729,-0.55461025
1738393050.0027642,0.10487248,-0.25507906,-0.061237372,0.06743238,0.13687211,-0.1509746,0.07270235,0.0579288,-0.53674656,-0.519545
1738393050.0246162,0.1118186,-0.21237189,-0.066092394,0.08576341,-0.07147863,-0.15551344,-0.005851716,0.046770632,-0.57630384,-0.41160047
1738393050.0454965,0.117839724,-0.12576887,-0.063508645,0.105857216,-0.29413787,-0.1550865,-0.06951237,0.016894067,-0.5384581,-0.24851146
1738393050.0656867,0.09767496,-0.045021523,-0.08000097,0.10522034,-0.27465683,-0.11651609,0.01365919,0.021324009,-0.41059875,-0.06497524
1738393050.086115,0.07335987,-0.06696444,-0.10242169,0.1380774,-0.084760435,-0.05361796,0.11825785,0.023512613,-0.24410775,0.1625044
1738393050.1074357,0.018201005,-0.09552963,-0.065101996,0.09767072,0.0677976,-0.04972694,0.25399378,0.036852334,-0.079509795,0.22577734
1738393050.126502,0.07555029,-0.11529559,-0.03452507,-0.017157298,0.040785298,0.012352204,0.21737604,-0.008673847,-0.007418167,0.28639925
1738393050.1476474,0.13477208,-0.08479791,0.016148977,-0.18276402,-0.100596264,0.012532083,0.25856972,-0.014760232,0.016924104,0.22603507
1738393050.1695797,0.1991643,-0.12356744,0.0033873608,-0.34686434,-0.24056444,0.0043004956,0.25773376,-0.06433489,0.051755458,0.13596748
1738393050.1916027,0.21348703,-0.076293804,-0.045622524,-0.48340443,-0.45002273,-0.09777974,0.32946673,-0.035408415,0.10185242,-0.1313555
1738393050.2140598,0.20414257,-0.14300881,-0.13533692,-0.5864812,-0.66271824,-0.10852305,0.2971851,-0.047661953,0.11471793,-0.30874646
1738393050.2364652,0.21420194,-0.17013471,-0.18045278,-0.5849288,-0.7576491,-0.074241996,0.24245031,-0.033763774,0.08165935,-0.29361156
1738393050.2579858,0.18663827,-0.20017636,-0.21197052,-0.5222426,-0.6898668,-0.061573148,0.1778526,-0.01944766,0.04506716,-0.22168307
1738393050.2790353,0.110243544,-0.15737851,-0.22049189,-0.37851888,-0.542996,-0.06982113,0.11513622,-0.022307241,0.016778672,-0.20082678
1738393050.3002696,0.063238695,-0.09833976,-0.20130157,-0.24631879,-0.25566992,-0.07772924,0.09999046,-0.011890199,-0.007082239,-0.1879346
1738393050.3207915,0.051185746,-0.16669573,-0.25078616,-0.086191736,0.12713188,-0.037473477,0.10351917,0.025780952,0.02388277,-0.15509042
1738393050.3395476,0.020691663,-0.23032941,-0.2538822,-0.024818929,0.48035097,-0.0448231,0.020832933,0.060980313,-0.014614046,-0.1635187
1738393050.3598075,0.01742817,-0.29579437,-0.24741912,-0.034506917,0.54301196,-0.117488705,0.04207166,0.039779678,-0.17649549,-0.18857397
1738393050.380736,0.0018967241,-0.31136248,-0.20485395,-0.07259343,0.44818982,-0.20334712,0.040640887,0.005478373,-0.28324726,-0.33703366
1738393050.4007387,0.016674928,-0.28838423,-0.16664396,-0.05110346,0.2775863,-0.21434513,0.064684965,0.0025058142,-0.3826498,-0.3456685
1738393050.422625,-0.00056474656,-0.26640055,-0.16370568,-0.044543624,0.22295699,-0.22565359,0.06421801,-0.009736683,-0.43313423,-0.30421835
1738393050.4467247,0.00034594908,-0.21859656,-0.17997168,-0.03967573,0.21022376,-0.22496638,0.039488077,-0.0017877026,-0.4342412,-0.24635
1738393050.467774,-0.0136311315,-0.14219573,-0.1891371,-0.051638994,0.24031365,-0.20277761,0.032119244,-0.02141003,-0.38293037,-0.13255627
1738393050.4887507,-0.017466195,-0.058082804,-0.20476644,-0.059473764,0.32592925,-0.17028236,0.054046195,-0.012672603,-0.30361822,-0.021345058
1738393050.5099351,-0.053087182,-0.026796497,-0.17683172,-0.04056092,0.39556336,-0.12015939,0.10489428,0.019167315,-0.21761201,0.13266714
1738393050.5284836,-0.073371306,-0.031870317,-0.16648327,-0.065287456,0.3505844,-0.040616326,0.16216081,0.02061931,-0.09249511,0.40120214
1738393050.548908,-0.026991628,-0.059033513,-0.06404097,-0.14222562,0.06038846,0.02316364,0.17574036,0.023358826,-0.039116293,0.46812314
1738393050.5688138,0.036089864,-0.06738491,-0.010346172,-0.26513147,-0.19087633,0.022968048,0.32771513,0.03746113,-0.036804616,0.40694776
1738393050.5911438,0.091135144,-0.09292584,0.035686735,-0.36589262,-0.3607526,0.0034462232,0.34723344,0.010316146,-0.015002019,0.43963253
1738393050.611474,0.14290151,-0.10554455,0.058136173,-0.42129207,-0.41381153,0.003988182,0.33032563,-0.016197136,-0.0138952965,0.4414918
1738393050.6337297,0.18532151,-0.1427279,0.04921626,-0.425694,-0.4795261,0.035379045,0.26912454,-0.050115526,-0.013251217,0.5081597
1738393050.6534786,0.23927936,-0.06967047,0.07341562,-0.3908242,-0.43145725,0.057636425,0.20385794,-0.03999567,-0.0342342,0.5970356
1738393050.6746414,0.24734218,0.003064774,0.09995535,-0.35751432,-0.22241142,0.047190286,0.10583027,-0.04074306,-0.049302876,0.6880056
1738393050.6949768,0.27494973,0.104435556,0.11564917,-0.30581683,0.06207948,0.09160375,0.010837607,-0.022109805,-0.06078013,0.82110316
1738393050.7158766,0.23545565,0.1970526,0.11617992,-0.25476646,0.418926,0.1253322,-0.04303699,-0.008644884,-0.0213672,0.9563228
1738393050.7350416,0.14489746,0.21450941,0.07652848,-0.19036248,0.870273,0.23083042,-0.104148984,0.0032916581,0.138244,1.0041065
1738393050.7550945,0.038361892,0.010497762,0.012469481,-0.13211252,1.2501216,0.22469515,-0.17056347,-0.03383839,0.22351132,0.93417156
1738393050.7759767,-0.074500486,-0.2747606,-0.038707715,-0.032213714,1.4646667,0.07199497,-0.033135884,-0.08168886,-0.01838832,0.45472312
1738393050.7964203,-0.1312128,-0.4121794,-0.039911713,-0.0124960765,1.3225725,-0.15052888,0.036176953,-0.09856761,-0.25332493,-0.28510877
1738393050.8165147,-0.13078101,-0.416026,0.014010749,-0.007284389,1.0237395,-0.25269008,0.17969249,-0.10587457,-0.35779116,-0.78294146
1738393050.8399873,-0.098719805,-0.34170762,0.05755841,-0.03953027,0.7556931,-0.29367873,0.2635603,-0.08137381,-0.41553542,-0.7343679
1738393050.8604686,-0.06506567,-0.09460319,0.10790379,-0.06328175,0.56614304,-0.29764673,0.2611507,-0.03854984,-0.3587931,-0.38140476
1738393050.8817499,-0.036436044,0.04704842,0.10749212,-0.09713398,0.43044576,-0.25357834,0.059744462,-0.031588778,-0.3030843,0.060433537
1738393050.9035041,-0.072637655,0.15831117,0.06824064,-0.15680003,0.39261344,-0.18998723,-0.033342257,-0.00061852485,-0.23748088,0.42631462
1738393050.9221559,-0.088878945,0.13445489,0.04265718,-0.2091409,0.40724695,-0.06921483,0.007250581,0.10065099,-0.1532538,0.73964995
1738393050.9408035,-0.060357153,0.05416985,-0.006112931,-0.26895592,0.18738377,0.0019086525,0.13998374,0.14196537,-0.0693683,0.91234976
1738393050.9617252,-0.03042183,-0.076174624,0.0028291224,-0.38724717,-0.12228465,-0.02935604,0.21620241,0.11984225,-0.013942369,0.6207318
1738393050.9824185,-0.002183959,-0.16960709,-0.0016598972,-0.45741296,-0.258671,-0.07280547,0.21291196,0.098303445,0.009942686,0.31862184
1738393051.00454,0.0285906,-0.1637169,0.0027677147,-0.50023854,-0.37512156,-0.05166012,0.24082781,0.082243994,0.009501481,0.27565563
1738393051.025034,0.12127285,-0.17229594,-0.027658757,-0.51316655,-0.5813108,0.009113027,0.290878,0.086505756,-0.002773244,0.3978648
1738393051.0467658,0.15422294,-0.20027493,-0.07232349,-0.48871633,-0.7452851,0.0005922597,0.2792719,0.083386116,-0.019778106,0.38232723
1738393051.0668864,0.18862984,-0.19933635,-0.08629977,-0.4218499,-0.6280366,-0.0029760506,0.15258333,0.056924306,-0.040093616,0.43188596
1738393051.087367,0.1618783,-0.12211353,-0.079481184,-0.35101008,-0.25748745,-0.022883713,0.06345571,-0.007717617,-0.05003807,0.34205833
1738393051.107737,0.11070853,-0.05623517,-0.12532523,-0.30976123,0.13184747,-0.06526496,0.008446053,-0.049905285,-1.7594546e-05,0.17124254
1738393051.1293325,0.12244997,0.01909055,-0.16439292,-0.2677049,0.39806172,-0.03850804,0.05687276,-0.03046829,0.14958349,0.0009352248
1738393051.1484845,0.08711834,-0.093252264,-0.20014569,-0.14890043,0.5925585,0.08112964,0.15824243,-0.065389276,0.411616,-0.1883591
1738393051.172976,0.07825685,-0.3479094,-0.2492414,-0.077615276,0.6971191,0.03959284,0.12984388,-0.049326777,0.3222709,-0.35318223
1738393051.1898777,0.042529866,-0.45895004,-0.24018408,-0.010862867,0.7091954,-0.061049655,0.008942496,-0.0021417383,-0.04920718,-0.45210227
1738393051.2117693,0.07172634,-0.39290583,-0.17556915,-0.0030303756,0.63197124,-0.10193539,-0.0031689666,0.008921639,-0.29210436,-0.5015952
1738393051.2360728,0.07649401,-0.3376905,-0.12318344,0.023420773,0.31301573,-0.13741565,-0.025796168,0.011746595,-0.4656921,-0.5800496
1738393051.2561123,0.11218796,-0.32585782,-0.10538234,0.05850061,0.15342805,-0.15797658,-0.026609302,0.047466584,-0.5964936,-0.5021265
1738393051.2770834,0.10895155,-0.25197142,-0.09203374,0.0926168,-0.0777411,-0.19675751,-0.06615672,0.03299119,-0.6172559,-0.36959925
1738393051.2979453,0.08766156,-0.1432076,-0.08267698,0.092923135,-0.32418406,-0.19002588,-0.06926042,-0.004965053,-0.5770948,-0.17745459
1738393051.3192844,0.07282172,-0.041904204,-0.11093595,0.10796321,-0.36344153,-0.15298364,0.04076428,0.012711271,-0.48803303,-0.011663602
1738393051.339667,0.09449501,-0.069928795,-0.111165166,0.15152,-0.11203375,-0.04630972,0.09608592,0.026949283,-0.2329893,0.1982155
1738393051.358143,-0.020906948,-0.10594155,-0.067241445,0.09423737,0.02295804,-0.027355395,0.19810626,0.06618391,-0.06857629,0.30590805
1738393051.3801544,0.060424574,-0.07326606,-0.0042320383,-0.018465554,-0.0121749025,0.021948317,0.26285505,0.007037885,0.021959377,0.39856154
1738393051.4004297,0.16214359,-0.08266346,0.032316234,-0.21057355,-0.1886147,0.07399868,0.20947213,-0.04485047,0.043347627,0.40827778
1738393051.4212067,0.1774186,-0.06252365,0.022393972,-0.352923,-0.28321415,-0.020053165,0.35446164,-0.026518388,0.050201036,0.20390481
1738393051.4421194,0.22743323,-0.11855762,-0.05873125,-0.4774855,-0.43640658,-0.077263296,0.3476428,-0.025234064,0.07560122,0.05442621
1738393051.463504,0.24019389,-0.19603187,-0.13398632,-0.56766856,-0.63227725,-0.06919836,0.2736783,-0.039135456,0.07776186,-0.048371315
1738393051.485697,0.25307563,-0.2352708,-0.1538689,-0.5366306,-0.70018965,-0.032014284,0.19441988,-0.04142279,0.035342805,0.0044988226
1738393051.506234,0.19793361,-0.19707145,-0.15839118,-0.42294154,-0.5964332,-0.028421385,0.13530296,-0.038343176,-0.0034579337,0.0475953
1738393051.527048,0.13537684,-0.121558055,-0.09902838,-0.27394772,-0.26325694,-0.03866417,0.06862005,-0.03058256,-0.059346877,0.14701463
1738393051.5469105,0.081909284,-0.075519085,-0.094387196,-0.14620031,0.15711004,-0.013610875,0.05350261,-0.015630117,-0.107041486,0.17885916
1738393051.5666723,0.02161192,-0.06937942,-0.13104388,-0.035509374,0.6411258,0.032906808,0.06151646,0.013544329,-0.075034246,0.1843917
1738393051.5871577,0.05682393,-0.20648596,-0.17974965,0.032505117,0.9833607,0.019152185,-0.0027191527,0.05283831,-0.041515134,0.064085655
1738393051.6073618,-0.04725919,-0.29359874,-0.17817654,-0.01748003,0.8488299,-0.074214675,0.03298837,0.021259703,-0.15710233,-0.21791543
1738393051.6273274,-0.012578998,-0.33419985,-0.15878396,-0.049434025,0.76089746,-0.1620169,0.11093893,-0.0073050633,-0.26143765,-0.38366166
1738393051.6495569,-0.069190405,-0.3080919,-0.16909754,-0.08064363,0.63365835,-0.20521511,0.09272027,-0.03945025,-0.31907293,-0.41411123
1738393051.6726546,-0.04966034,-0.2849823,-0.1612425,-0.0782614,0.6842838,-0.22505896,0.09190503,-0.023537667,-0.36170003,-0.31470704
1738393051.6937954,-0.040296927,-0.16929218,-0.1429618,-0.08977406,0.58080655,-0.20205317,0.07901492,-0.017524876,-0.35289028,-0.17519556
1738393051.7152345,-0.019688092,-0.05286503,-0.1364518,-0.09266205,0.4373057,-0.18000181,0.05625281,-0.015784055,-0.3271217,-0.051372275
1738393051.7360604,-0.009814683,0.00869198,-0.118951246,-0.089332364,0.4344999,-0.1376467,0.09188673,0.020666592,-0.26240492,0.15365948
1738393051.7556953,-0.02719561,-0.06194167,-0.121119164,-0.08621522,0.31584603,-0.07652244,0.07822658,0.023797512,-0.19889355,0.3204521
1738393051.7760546,-0.051421918,-0.051095635,-0.080104135,-0.089481145,0.15554795,-0.08300517,0.22378156,0.025106452,-0.081664525,0.3937452
1738393051.796915,-0.011472449,-0.07762013,-0.01532519,-0.1939725,-0.08725732,-0.12199855,0.3734343,0.057628036,-0.0643931,0.1675997
1738393051.8180568,-0.01864858,-0.10957335,0.039815255,-0.2964744,-0.19077346,-0.11917187,0.32262057,0.0022974531,-0.04707323,0.129837
1738393051.836031,0.027174719,-0.10083778,0.05519069,-0.37987858,-0.23778707,-0.118107766,0.32374656,0.002122248,-0.04105219,0.17705134
1738393051.8563535,0.061606698,-0.13451138,0.04808363,-0.42800266,-0.36990178,-0.08306986,0.31494576,-0.028520899,-0.03471835,0.21060391
1738393051.8782794,0.09572047,-0.11963783,0.036695916,-0.47834665,-0.49813178,-0.08998786,0.29259437,-0.027306793,-0.02659622,0.15158428
1738393051.8987331,0.08671611,-0.11315303,0.0056147603,-0.47225755,-0.44416556,-0.0964189,0.2253281,-0.03804838,-0.037397243,0.073454514
1738393051.919018,0.09459407,-0.048818737,0.050793998,-0.42504948,-0.30719253,-0.086840525,0.15004689,-0.036728576,-0.06145194,0.11006786
1738393051.9409828,0.06403108,-0.013908666,0.03392533,-0.37547082,-0.162974,-0.09915255,0.12406137,-0.037629522,-0.056098774,0.040648013
1738393051.9619064,0.02319139,0.03849674,-0.00069776643,-0.3028222,0.029286869,-0.097239494,0.13228005,-0.021798259,0.0016338546,-0.10647841
1738393051.9827387,-0.005224414,-0.0243091,-0.055775564,-0.17340909,0.26865703,-0.024485173,0.16005467,-0.023424657,0.19396713,-0.20545356
1738393052.0037124,-0.06043043,-0.1541516,-0.12732331,-0.068647206,0.5429158,0.028673498,0.15108523,-0.038162753,0.29041937,-0.25525486
1738393052.024471,-0.089412525,-0.30205014,-0.1572244,0.032474965,0.5560102,-0.08675869,0.09941609,-0.025264138,0.04269649,-0.3743995
1738393052.0430288,-0.032996647,-0.32897246,-0.12133218,0.025233377,0.47359496,-0.13394943,0.12222826,-0.012178393,-0.24294387,-0.43115884
1738393052.0642197,-0.0130812675,-0.27121526,-0.07650001,0.015525953,0.23406613,-0.1690412,0.122045845,0.016950658,-0.38354254,-0.60242283
1738393052.0851495,0.017939726,-0.22766449,-0.055491712,0.01593237,0.0737048,-0.1722497,0.11714175,0.052107453,-0.47919837,-0.5651334
1738393052.1052713,0.034766175,-0.15710238,-0.061150342,0.01500086,-0.040443994,-0.18210322,0.072891966,0.0629422,-0.48645344,-0.43879753
1738393052.1283166,0.035997517,-0.08599885,-0.071272984,-0.0009969613,-0.1173273,-0.16117471,0.010509659,0.03603559,-0.43487352,-0.23164701
1738393052.150369,0.04273069,-0.0047692284,-0.11696739,-0.044672057,-0.039529998,-0.10432277,0.034165554,0.02518608,-0.32392776,0.014136447
1738393052.171568,0.016961064,-0.03640666,-0.15383914,-0.08672485,0.21407303,-0.03359199,0.09943797,0.02252851,-0.15408929,0.22272034
1738393052.1928306,-0.0047419593,-0.04251909,-0.13307422,-0.12596579,0.22203273,-0.0015518945,0.25268325,0.009612747,-0.03386388,0.2898354
1738393052.214083,0.10774022,-0.122516364,-0.084778376,-0.18916063,0.07890589,0.032944426,0.18680796,-0.013682386,0.01180649,0.25019768
1738393052.2347412,0.14113659,-0.09176506,-0.033485677,-0.2738985,-0.10471332,-0.005275825,0.25009298,-0.009505797,0.018178849,0.12357053
1738393052.2538452,0.16854087,-0.12274346,-0.008243541,-0.3723459,-0.20607612,-0.016989475,0.22738245,-0.05558139,0.04126849,0.040109478
1738393052.274303,0.15466282,-0.107604355,-0.035415348,-0.4526008,-0.3775391,-0.07861716,0.2952582,-0.022257825,0.06399427,-0.082149185
1738393052.2955363,0.20893748,-0.15891103,-0.06187765,-0.514634,-0.4950918,-0.059734374,0.27900404,-0.02350455,0.057824053,-0.033709135
1738393052.3157597,0.18566173,-0.17279623,-0.10533516,-0.5160866,-0.60095507,-0.055520758,0.24694434,-0.020886932,0.04791952,-0.100439884
1738393052.3379517,0.15794636,-0.14845824,-0.09542742,-0.47375926,-0.48578283,-0.03844136,0.19497517,-0.024792472,0.020611903,-0.10110486
1738393052.359221,0.12916139,-0.13902922,-0.15372166,-0.38571277,-0.30184326,-0.026499942,0.10557803,-0.043660134,0.012891462,-0.075272925
1738393052.3801694,0.09935946,-0.08646097,-0.16763696,-0.28712016,-0.029867196,-0.022412222,0.0900341,-0.027278388,0.023775501,-0.09932123
1738393052.4004095,0.08394129,-0.1545406,-0.24255435,-0.16724011,0.2777096,0.017401716,0.088469185,0.010444448,0.12677333,-0.11453864
1738393052.421192,0.04990958,-0.2704123,-0.2652076,-0.11101232,0.6109394,0.024157027,-0.0059010684,0.032880012,0.07591717,-0.11745306
1738393052.4431303,0.04007139,-0.3399913,-0.24802427,-0.075110644,0.6976691,-0.05491715,-0.0074447766,0.035408296,-0.13200563,-0.18937089
1738393052.4613001,0.025401039,-0.32093972,-0.20593147,-0.1059253,0.64593565,-0.12969464,0.016287297,0.008173226,-0.26144013,-0.38214356
1738393052.4835012,0.025368303,-0.281286,-0.17980865,-0.09102888,0.44184628,-0.16534416,0.04298775,0.0071533266,-0.37249824,-0.4371158
1738393052.5039606,0.04159313,-0.25259012,-0.14400935,-0.05436727,0.24315193,-0.17315002,0.059760254,0.01766021,-0.4547358,-0.38925588
1738393052.5240872,0.050412044,-0.22000833,-0.14495115,-0.040663864,0.19950894,-0.17899548,0.0037539713,0.010349579,-0.45764285,-0.26995504
1738393052.5440207,0.019212548,-0.14480625,-0.14687796,-0.05007519,0.22619453,-0.17519286,0.009498324,-0.0153766945,-0.40085724,-0.1189856
1738393052.5666783,0.017774466,-0.057232797,-0.16657062,-0.062151637,0.30203614,-0.1497051,0.06395881,-0.010604681,-0.3225049,0.024111772
1738393052.5868301,-0.0059235804,-0.040158052,-0.16217735,-0.07476614,0.44280916,-0.082909405,0.11731799,0.027077619,-0.20377296,0.24902275
1738393052.6082885,-0.03855799,-0.060200885,-0.15305951,-0.10723085,0.3481329,0.0015614443,0.15764263,-0.004542471,-0.055939928,0.48159078
1738393052.6291783,0.03730057,-0.072920755,-0.053076476,-0.1757514,-0.03980092,0.010437248,0.2404857,0.012524667,0.0035753641,0.44623458
1738393052.6485074,0.07525237,-0.037441015,0.026980992,-0.2618632,-0.21821621,-0.02540642,0.3947542,0.033533584,-0.0137953125,0.28240332
1738393052.6682172,0.085250355,-0.07372004,0.055227965,-0.36460266,-0.29257143,-0.051632725,0.33976084,-0.012720691,-0.010595952,0.32219756
1738393052.6884336,0.1543009,-0.10732784,0.058106855,-0.42120263,-0.36826974,-0.010623259,0.29467145,-0.038017035,-0.015908986,0.38807437
1738393052.7087808,0.17983362,-0.1500174,0.04247783,-0.43494168,-0.5061198,0.013831673,0.27264225,-0.037758447,-0.018491307,0.4386161
1738393052.731001,0.20395319,-0.09906643,0.054620177,-0.41215375,-0.48153636,0.020931708,0.22653416,-0.033905923,-0.033987023,0.43397138
1738393052.7526612,0.20337392,-0.039286695,0.08478601,-0.36566952,-0.26773113,0.014282217,0.12341579,-0.046970062,-0.0653467,0.4941747
1738393052.77282,0.19659162,0.016963014,0.082239784,-0.32051444,-0.019658877,0.011170497,0.047988012,-0.039990366,-0.07316433,0.51533514
1738393052.7943337,0.15454423,0.11535951,0.0854046,-0.26181653,0.31093594,0.026968932,0.061368853,-0.008132784,-0.048251193,0.5036718
1738393052.8149025,0.05801844,0.13225852,0.02345011,-0.16876538,0.74666,0.12764321,0.021602526,-0.0013633864,0.15263458,0.444573
1738393052.8366387,0.032058716,-0.02197591,-0.035452038,-0.06245107,1.0496634,0.15585345,-0.006498143,-0.018319799,0.28641412,0.41849947
1738393052.8546832,-0.056028053,-0.29440677,-0.07423361,0.01784312,1.106127,0.08544066,0.065736935,-0.041400217,0.055952042,0.10690904
1738393052.8753603,-0.08718313,-0.39748442,-0.05609361,-0.017982416,1.0718194,-0.10821257,0.13854922,-0.030100198,-0.22473004,-0.33840194
1738393052.8957705,-0.09037605,-0.34262282,-0.023375437,-0.06291063,0.8447184,-0.18300685,0.20186791,-0.013024379,-0.31547144,-0.6475702
1738393052.9153929,-0.056478724,-0.22938631,0.0073774075,-0.07829341,0.5395025,-0.21519326,0.19612697,-0.016570497,-0.3541031,-0.6474938
1738393052.9353094,0.019190485,-0.06720495,0.04223728,-0.09446879,0.34846836,-0.1822143,0.15162426,0.014734872,-0.35217452,-0.32455924
1738393052.9587064,0.042462166,-0.0068803765,-0.008625466,-0.15887229,0.26902664,-0.14889291,-0.009082109,0.014885329,-0.2846687,0.018300997
1738393052.979123,0.036265723,0.09271588,-0.02535991,-0.20874146,0.1484077,-0.10629484,-0.018609844,0.015266841,-0.2230832,0.2572959
1738393052.9996793,-0.002848316,0.03611151,-0.06403035,-0.2394795,0.15183237,-0.029057294,0.00092221424,0.04808633,-0.13153209,0.51386213
1738393053.02001,-0.002895169,-0.011099247,-0.082325175,-0.23818642,0.10937149,-0.034984794,0.25845212,0.07897015,-0.032934476,0.55134887
1738393053.0417674,0.046692245,-0.13708447,-0.04072037,-0.30472445,-0.09962121,-0.04393938,0.22971304,0.05995111,0.0017708298,0.29205322
1738393053.0611012,0.068820134,-0.1298682,-0.0077245464,-0.35662773,-0.20514199,-0.053942107,0.2525482,0.038212232,-0.002767291,0.113233104
1738393053.0817559,0.09849718,-0.15695567,-0.012278173,-0.41450214,-0.2904484,-0.041435994,0.2740056,0.005104603,0.00576506,0.016484639
1738393053.101893,0.14064804,-0.14396733,-0.03398004,-0.4505195,-0.4216608,-0.058418088,0.31721017,0.026143078,0.012367992,0.09872113
1738393053.1222138,0.15630597,-0.19814053,-0.10959469,-0.49808216,-0.61248505,-0.068810076,0.2867581,0.040716387,0.031609215,-0.009810552
1738393053.1425195,0.138574,-0.18059045,-0.13407362,-0.49321023,-0.584661,-0.08899335,0.2539364,0.029593991,0.03185053,-0.07041413
1738393053.1643498,0.1372191,-0.12761205,-0.10350782,-0.43783808,-0.43144962,-0.056239963,0.18111643,-0.010535199,0.0073752273,-0.074989274
1738393053.1859791,0.09749943,-0.06295566,-0.11839432,-0.37055585,-0.18319592,-0.08224805,0.13448097,-0.0067749433,0.01716523,-0.060938075
1738393053.2049353,0.078147076,-0.0051957127,-0.13419385,-0.30480048,0.10063095,-0.058702864,0.13519669,0.016633697,0.06945519,-0.058598734
1738393053.2262511,0.035863712,-0.099279344,-0.18432309,-0.19009045,0.38563406,0.03232526,0.1778745,-0.003360115,0.2579678,-0.11227224
1738393053.2472339,-0.0083250515,-0.26414225,-0.2176543,-0.08572677,0.62172574,0.0061745755,0.11790986,0.00039289333,0.18560797,-0.19422607
1738393053.265554,-0.024219692,-0.35226512,-0.23622201,-0.03226475,0.7612515,-0.0724942,0.06214147,0.018954769,-0.10252317,-0.22846949
1738393053.2861915,-0.055870406,-0.31421894,-0.18301688,-0.10147341,0.7746177,-0.12100011,0.096458286,0.002490209,-0.26342013,-0.37159878
1738393053.3063712,-0.006320007,-0.27695873,-0.16329147,-0.06498046,0.44462332,-0.1528928,0.04476169,0.017605716,-0.37335107,-0.49057427
1738393053.3269863,0.008788101,-0.24381924,-0.13095684,-0.054789443,0.29726183,-0.15443358,0.09829944,0.03434035,-0.4439871,-0.41584745
1738393053.3473024,0.034583185,-0.18756135,-0.12387241,-0.042293306,0.13869199,-0.1530151,0.047479797,0.028589558,-0.44417205,-0.30471763
1738393053.3691015,0.0098175,-0.12830395,-0.12378897,-0.051678717,0.02687648,-0.15226904,-0.0758927,-0.018970503,-0.39173436,-0.1337182
1738393053.3896282,0.028539749,-0.04484473,-0.15816025,-0.06836953,0.15575325,-0.124049425,0.04835532,0.006197641,-0.32456964,0.059343055
1738393053.4111104,0.036638856,-0.09467046,-0.1838893,-0.05409871,0.22560886,-0.03899308,0.028154107,-0.0065541044,-0.21119408,0.24543169
1738393053.4309397,-0.053561382,-0.05454401,-0.17235404,-0.09503075,0.17959619,-0.044992436,0.19225642,-0.005848039,-0.06690117,0.2839674
1738393053.4517803,0.058826834,-0.14614007,-0.09571984,-0.10878208,-0.0132393595,-0.024589976,0.15583754,-0.03579554,0.039142586,0.21397215
1738393053.4707305,0.05723925,-0.1049779,-0.012542331,-0.21472284,-0.16401565,0.0030143708,0.2144105,-0.02528402,0.0051999614,0.31026113
1738393053.4914103,0.13803713,-0.1525719,-0.014013017,-0.34225094,-0.30114388,0.034469575,0.24024186,-0.04634726,0.028716123,0.33364394
1738393053.5118542,0.13708156,-0.16206315,-0.06333089,-0.44108772,-0.4924885,-0.023774762,0.28155348,-0.042667024,0.058787286,0.11149204
1738393053.5323286,0.18771715,-0.16661178,-0.07370018,-0.48273426,-0.5828515,-0.022013318,0.28609353,-0.04736445,0.048332594,0.11590417
1738393053.553591,0.17787214,-0.20247272,-0.1141047,-0.4555232,-0.54002994,-0.00879361,0.23528278,-0.041903965,0.03608554,0.1132981
1738393053.5760033,0.1602304,-0.166904,-0.089782946,-0.39325175,-0.35381174,-0.0142151145,0.15786144,-0.05747184,0.0073293205,0.1729969
1738393053.596704,0.13065544,-0.14039195,-0.12689097,-0.32200494,-0.12647527,-0.0049615717,0.09981607,-0.06788537,-0.010160691,0.19714722
1738393053.6171072,0.07409962,-0.0435257,-0.10348281,-0.22250512,0.23587537,0.012236359,0.10024761,-0.061911523,-0.026139138,0.16838263
1738393053.637561,0.04614659,-0.083767,-0.147375,-0.14043735,0.6398281,0.09737461,0.102390364,-0.021314224,0.059866622,0.2578339
1738393053.6578357,0.03691999,-0.2407524,-0.2267804,-0.06785339,0.9067145,0.06978399,-0.03233096,0.0031628488,0.056769527,0.1228514
1738393053.6765826,-0.06422629,-0.28686145,-0.17851599,-0.06361357,0.9216916,-0.00681198,0.09478901,-0.015767269,-0.1480852,-0.13004778
1738393053.6969936,-0.019618385,-0.3548775,-0.20749599,-0.075374536,0.87557995,-0.09998327,0.051260896,-0.012861988,-0.25250357,-0.42075107
1738393053.72123,-0.06563017,-0.28814456,-0.16136348,-0.10147052,0.60859555,-0.17140059,0.11200957,-0.035208277,-0.3363989,-0.5014008
1738393053.738119,-0.017646179,-0.26171154,-0.1302336,-0.068763115,0.5232712,-0.1739685,0.0709737,-0.011388864,-0.39625555,-0.36751074
1738393053.7584183,-0.027841985,-0.18540241,-0.11486463,-0.0812413,0.4925152,-0.17755657,0.02471542,-0.040449336,-0.38852605,-0.19769113
1738393053.7816312,-0.00720904,-0.110265896,-0.12250923,-0.08640327,0.44087505,-0.15626119,-0.026808344,-0.042221896,-0.35118115,-0.023221362
1738393053.8016927,-0.012012117,-0.032047052,-0.13133053,-0.08316625,0.33454537,-0.12921761,0.024242003,-0.02877759,-0.30603924,0.19040297
1738393053.822345,-0.031272464,-0.043586474,-0.11832805,-0.085764706,0.4472534,-0.08471529,0.08818103,0.027167177,-0.19090529,0.33977768
1738393053.8433495,-0.06894008,-0.07107067,-0.11176208,-0.08607828,0.25752854,-0.05090455,0.1717135,0.0044607627,-0.082542084,0.43035287
1738393053.8625126,0.0009802617,-0.059162565,-0.016778374,-0.15718454,-0.07677241,-0.07982322,0.31809795,0.024633862,-0.029699763,0.24958897
1738393053.88275,-0.004067138,-0.082780935,0.050400723,-0.28505173,-0.23802087,-0.062197164,0.32923904,0.018105695,-0.029662289,0.28274554
1738393053.903112,0.03337608,-0.05340194,0.066289954,-0.37435883,-0.3009196,-0.0851334,0.36806428,-0.00859594,-0.027263954,0.22175431
1738393053.9232476,0.06713201,-0.11213398,0.04358786,-0.43577376,-0.37409255,-0.06430034,0.354709,-0.028530316,-0.028156377,0.23794547
1738393053.9438958,0.13567016,-0.15398759,0.015034986,-0.46708083,-0.53516513,-0.023615237,0.29994893,-0.02619248,-0.025856642,0.2904653
1738393053.9669898,0.11835093,-0.14215012,0.0077794595,-0.46120507,-0.5101479,-0.055066675,0.24326673,-0.038086236,-0.030473143,0.2231848
1738393053.9868572,0.12735277,-0.07122211,0.03741774,-0.41036665,-0.3109763,-0.046814214,0.14611912,-0.060718194,-0.05662501,0.21933807
1738393054.0076442,0.10039353,-0.024317825,0.02630638,-0.35247082,-0.109309055,-0.06776036,0.07847446,-0.063586675,-0.06567435,0.22104792
1738393054.028007,0.051976897,0.0379475,0.011788619,-0.28079712,0.1524342,-0.05195804,0.0895548,-0.036706008,-0.03436845,0.16455849
1738393054.048735,-0.0060116053,0.029631035,-0.046850584,-0.1501153,0.46880817,0.016223093,0.122906074,-0.033261687,0.15330504,0.013854409
1738393054.0683904,-0.025264539,-0.1199717,-0.10967481,-0.032817364,0.7474981,0.059878893,0.106016286,-0.029001968,0.25427395,-0.07581728
1738393054.0885506,-0.08445461,-0.30554432,-0.12050245,0.026339862,0.8284028,-0.023469208,0.12207482,-0.024435723,-0.00699299,-0.24277425
1738393054.1105242,-0.04173369,-0.31607485,-0.08705771,0.014111151,0.61609,-0.12449727,0.1431996,-0.014066132,-0.25550202,-0.43725878
1738393054.1323285,-0.033330575,-0.27027288,-0.06701892,9.606406e-05,0.37187067,-0.17157336,0.10619557,0.007439092,-0.3817992,-0.61182654
1738393054.1565132,0.009398505,-0.22461689,-0.033516698,-0.0010389015,0.22226739,-0.17492174,0.15265301,0.05773347,-0.4613713,-0.5632564
1738393054.1813064,0.04281154,-0.17751378,-0.056654662,-0.0072842133,0.024682198,-0.16476098,0.04438521,0.03964372,-0.4653394,-0.35459602
1738393054.1969063,0.05653707,-0.08170642,-0.06800295,-0.05002595,0.0628607,-0.14376394,0.004538577,0.030613877,-0.38263667,-0.0958636
1738393054.2176237,0.045909952,-0.0068763634,-0.10487987,-0.09887077,0.04204361,-0.10035694,0.028837094,0.01879081,-0.27296513,0.045859672
1738393054.2377574,0.029701905,-0.007836926,-0.12663972,-0.110978775,0.11813221,-0.03885085,0.17668502,0.03431321,-0.15957434,0.20396943
1738393054.2583025,0.013322029,-0.08338311,-0.1308738,-0.13189724,0.13534975,-0.03487505,0.24373563,0.018915847,-0.049937803,0.27143747
1738393054.2804673,0.091776125,-0.10527971,-0.07137876,-0.18070872,0.05130752,-0.023600813,0.28268898,-0.0003136564,-0.0253424,0.19372669
1738393054.3011875,0.105422534,-0.09909217,-0.012811623,-0.26740286,-0.11251214,-0.032719508,0.28509206,-0.0038902108,-0.025274826,0.07838133
1738393054.3214383,0.12603568,-0.08642802,0.02025887,-0.3404086,-0.17008787,-0.048182316,0.3281512,-0.0017167721,-0.015068911,0.11416972
1738393054.3417609,0.17778549,-0.11443487,0.005558133,-0.4175684,-0.31480595,-0.03376913,0.29659334,-0.019127175,0.004149232,0.13847627
1738393054.364827,0.17523251,-0.15982068,-0.026159052,-0.47575787,-0.4803843,-0.054739237,0.29567474,0.007586804,0.019135674,0.10656576
1738393054.3841848,0.16884443,-0.1286761,-0.008735925,-0.4805087,-0.52076024,-0.031384878,0.27285632,-0.0076521095,0.006822003,0.042562224
1738393054.404952,0.16370472,-0.097900584,-0.000694396,-0.43696767,-0.34886405,-0.030429227,0.22350635,-0.0065310244,-0.017291341,0.10381244
1738393054.4262292,0.12745374,-0.06063492,-0.012082756,-0.3720006,-0.15353847,-0.027359169,0.14497277,-0.016710848,-0.02541596,0.071823314
1738393054.4466527,0.104188785,-0.040175892,-0.048878573,-0.28157037,0.15290356,-0.012446169,0.13366519,0.0018855231,0.0012717023,0.12049845
1738393054.4659991,0.062152766,-0.03536072,-0.07142736,-0.16951676,0.47140884,0.08370838,0.14682649,0.012754625,0.13871558,0.13984917
1738393054.487081,-0.032141104,-0.1517233,-0.13409841,-0.09879929,0.71544844,0.10186563,0.04705951,0.010495334,0.16583513,0.20671102
1738393054.5077562,-0.08144264,-0.3285906,-0.176731,-0.031533178,0.9905023,0.043244123,0.007705193,-0.0036772145,-0.13233511,0.10494526
1738393054.5287237,-0.13754372,-0.34154603,-0.16853578,-0.09270657,0.90297586,-0.12721892,0.08087509,-0.037583254,-0.25570697,-0.35279107
1738393054.5500119,-0.07040737,-0.30751967,-0.12981233,-0.08510628,0.5605371,-0.18236592,0.089208685,-0.02619115,-0.34119022,-0.58818406
1738393054.5719573,-0.074661404,-0.22200076,-0.094705276,-0.10289569,0.3979533,-0.1973374,0.10858686,-0.03862927,-0.36913756,-0.5192177
1738393054.5934088,-0.049572125,-0.19015379,-0.10983947,-0.1119844,0.47772056,-0.18801662,0.027732922,-0.05581706,-0.3645416,-0.24783738
1738393054.614816,-0.06062308,-0.052248947,-0.09311381,-0.13900569,0.3212208,-0.19391397,-0.06552876,-0.086839035,-0.3116865,-0.043756034
1738393054.63568,-0.02314283,-0.00023629889,-0.107740924,-0.14500327,0.36705047,-0.14086282,-0.037348203,-0.057488702,-0.27928331,0.1889271
1738393054.6563945,-0.097634986,0.01679306,-0.13886371,-0.18049867,0.5125511,-0.08096454,-0.015846752,-0.01604868,-0.16747622,0.4330812
1738393054.6750832,-0.10629548,-0.024945322,-0.12886244,-0.1579037,0.50596106,-0.0142881945,0.10078119,0.0049791536,-0.07939845,0.6097629
1738393054.6952436,-0.053738587,-0.007883806,-0.05507185,-0.20355564,0.034182534,0.0074190833,0.18455191,0.015160216,-0.015877679,0.53777635
1738393054.7159095,-4.368648e-05,-0.05007311,0.029499412,-0.339405,-0.3319744,0.022965448,0.29088455,0.046029463,0.00879694,0.44988555
1738393054.7364812,0.082159474,-0.12066758,0.030409928,-0.45402104,-0.5364981,0.09778163,0.2898093,0.017022327,0.016948381,0.63571995
1738393054.756706,0.15485507,-0.10774016,0.015248942,-0.49852902,-0.64701754,0.08138982,0.34586003,0.031217705,0.018439708,0.6562715
1738393054.7795186,0.21733062,-0.21344562,-0.04625313,-0.5012019,-0.7447858,0.09927727,0.31581208,-0.0139565,0.032942593,0.5151456
1738393054.7999954,0.24990773,-0.16538659,-0.06324851,-0.44563767,-0.6364737,0.067632936,0.21798553,-0.031252667,0.023580713,0.4409863
1738393054.820565,0.24283268,-0.10001354,-0.05202609,-0.36121082,-0.22964847,0.0650235,0.08244653,-0.07590413,-0.024558008,0.54621947
1738393054.8397717,0.21385175,-0.004633965,-0.053181496,-0.30998346,0.20728302,0.07965863,-0.016147561,-0.08520349,-0.031217039,0.6385931
1738393054.8600085,0.10213257,0.0621162,-0.10443943,-0.265302,0.6459052,0.12891929,-0.037508138,-0.08559478,0.03760989,0.5443206
1738393054.8798244,0.09568463,-0.0058730524,-0.14105916,-0.1389662,1.0131696,0.16981079,-0.04691551,-0.05917141,0.20853055,0.3864385
1738393054.900149,0.06265908,-0.27041063,-0.15805563,-0.049153946,1.1702293,0.1386498,-0.005989164,-0.0554286,0.09613597,0.14371212
1738393054.9203815,0.040208787,-0.4163306,-0.16861036,-0.03714303,1.0312467,0.0048459955,0.01150313,-0.029248985,-0.12775363,-0.31017178
1738393054.9411554,0.016355207,-0.34347424,-0.07197432,-0.062268987,0.7984968,-0.08761594,0.046475187,-0.019183213,-0.2608681,-0.6519758
1738393054.9615805,0.027646353,-0.32658693,-0.06981537,-0.056591637,0.6764058,-0.14416957,0.05424898,-0.012972549,-0.36480045,-0.62279016
1738393054.9837935,0.06744336,-0.30228055,-0.07101994,-0.024676623,0.5838228,-0.17528334,0.02453164,-0.023889532,-0.43077302,-0.43621287
1738393055.0030239,0.06368899,-0.20239207,-0.053521726,-0.033379022,0.48676682,-0.19225417,-0.030401714,-0.03736587,-0.40990588,-0.19417024
1738393055.0244756,0.08606994,-0.06745742,-0.036453392,-0.018473085,0.20366034,-0.16670932,-0.06436832,-0.05639012,-0.39578086,0.012473961
1738393055.0461628,0.06739147,0.05572377,-0.02577253,-0.021517918,0.17139861,-0.13005449,0.022253215,-0.007554857,-0.3125968,0.24927175
1738393055.067269,0.0074246377,-0.05467262,-0.07200557,-0.002853009,0.29003784,-0.046358995,0.02102016,0.036707476,-0.19095345,0.5725123
1738393055.0863926,-0.031483084,-0.03808692,-0.05707389,0.012707747,0.17815164,-0.08218174,0.22871412,0.03921894,-0.02648279,0.4318859
1738393055.106595,0.0031237938,-0.09149087,0.034703176,-0.14694431,-0.20068228,-0.046153612,0.24727556,0.0352099,0.020065846,0.27492413
1738393055.12773,0.061240688,-0.09705225,0.07270431,-0.3026801,-0.34102374,-0.015638847,0.30285472,0.017476872,0.025509788,0.2554936
1738393055.1480174,0.10952034,-0.13685712,0.029155396,-0.4059091,-0.36793455,-0.048113152,0.32502148,-0.009443944,0.02211175,0.20378561
1738393055.1680696,0.18060663,-0.14367801,-0.044491466,-0.47978505,-0.6013713,-0.0570497,0.33408114,-0.014897307,0.04106629,0.09468024
1738393055.1924355,0.16979381,-0.19566767,-0.12624168,-0.534012,-0.7638369,-0.08987914,0.26545727,-0.017730646,0.05333113,-0.058971122
1738393055.2138455,0.18603505,-0.20810103,-0.13525295,-0.48358157,-0.655254,-0.061554737,0.16874942,-0.03879463,0.0012358371,0.009378729
1738393055.2347326,0.15348576,-0.13636902,-0.10895795,-0.3948966,-0.47217795,-0.0633736,0.1010013,-0.04305113,-0.029460784,0.034498572
1738393055.2564852,0.08360365,-0.084652364,-0.13248876,-0.2831843,-0.21673715,-0.093153015,0.044529572,-0.04558435,-0.04164287,0.0027273856
1738393055.2763782,0.0061288327,0.017471606,-0.11314048,-0.2113313,0.103698514,-0.10018784,0.14019099,-0.016817665,-0.013408146,-0.13647409
1738393055.295555,0.029280467,-0.08642585,-0.19462197,-0.028010312,0.39957994,-0.03458845,0.132476,-0.0036120266,0.13057347,-0.22831261
1738393055.316509,-0.016571969,-0.23277332,-0.1976802,0.030100755,0.6384775,-0.058320105,0.10663466,0.046684265,0.029212555,-0.24880561
1738393055.3368702,0.018750196,-0.30260277,-0.16232996,0.05466511,0.428511,-0.16130215,0.08766057,0.025338935,-0.16573505,-0.38232198
1738393055.3571615,0.03624513,-0.3047398,-0.1263982,0.067642555,0.22142032,-0.178554,0.056454614,0.013235997,-0.3349582,-0.44591308
1738393055.3776152,0.07483967,-0.25958964,-0.1132527,0.1022722,0.03854888,-0.1919817,0.08810957,0.039123606,-0.46156743,-0.4944734
1738393055.4005737,0.08225615,-0.27535048,-0.12500392,0.0948194,-0.025782129,-0.19743313,0.08508274,0.0750322,-0.55422217,-0.45105824
1738393055.4216487,0.083651945,-0.20481618,-0.1349772,0.08646724,-0.092093736,-0.19193064,0.018084832,0.06487516,-0.5234169,-0.3664634
1738393055.4452958,0.056983247,-0.14640184,-0.14390722,0.058568925,-0.06842907,-0.16638628,0.031341787,0.0497801,-0.44472376,-0.17260426
1738393055.4651177,0.062826045,-0.076919794,-0.17315194,0.06003028,0.036070816,-0.11749176,0.111355305,0.047110066,-0.3318709,0.025501752
1738393055.4887705,0.013649009,-0.096137226,-0.14651942,0.08207799,0.08541891,-0.08126309,0.16311166,0.026041258,-0.21378626,0.118338525
1738393055.507767,-0.015353151,-0.077676706,-0.13289937,0.038872097,0.18866006,-0.040170692,0.14151867,-0.0058581177,-0.112245135,0.26823533
1738393055.527111,0.045336116,-0.064140305,-0.08211252,-0.046686143,0.20943803,-0.022209354,0.34986272,0.048631877,-0.12414182,0.27580363
1738393055.5478446,0.0940572,-0.10933449,-0.031981837,-0.17757484,0.012818862,-0.025798943,0.33835155,0.012333935,-0.07937653,0.30772895
1738393055.567605,0.1472283,-0.10698667,0.025324028,-0.29526576,-0.14663859,-0.007951863,0.32088658,0.007986754,-0.056524545,0.38917544
1738393055.586559,0.17020243,-0.13276955,0.038645558,-0.38006198,-0.26928622,-0.00075633265,0.32374722,-0.01784524,-0.03012858,0.3577444
1738393055.6065712,0.20654438,-0.11504566,0.051143475,-0.41524166,-0.38027576,0.01987409,0.29998022,-0.03924454,-0.02901406,0.35607994
1738393055.6286225,0.22084545,-0.0968863,0.067937024,-0.4196791,-0.37415296,0.009972883,0.23219346,-0.023146613,-0.03477367,0.38780087
1738393055.649084,0.25625134,-0.046923675,0.09064395,-0.36638242,-0.18653226,0.045947477,0.15162304,-0.037044704,-0.06264264,0.47332776
1738393055.671193,0.23592502,0.019986188,0.11680306,-0.31326848,0.018014204,0.034727827,0.108442985,-0.027966468,-0.07704973,0.4863856
1738393055.6945212,0.21176384,0.03708867,0.08056366,-0.25148007,0.30612156,0.057261407,0.06870643,-0.008846171,-0.038749665,0.49758705
1738393055.7156534,0.16281372,0.14113617,0.07956851,-0.17544521,0.7275771,0.16265418,0.021696847,0.019264735,0.07175193,0.73491
1738393055.736163,0.024279125,0.044305086,-0.012023732,-0.14055163,0.97625107,0.22120444,-0.02552455,-0.023001252,0.1836552,0.80678296
1738393055.757132,-0.07796087,-0.23324798,-0.0758761,-0.041461747,1.2810918,0.062062778,-0.07441294,-0.050686143,-0.08897016,0.5734021
1738393055.7775624,-0.20723476,-0.38060233,-0.075345345,-0.038781174,1.2622087,-0.13560085,-0.009486645,-0.10665431,-0.25761366,-0.043866444
1738393055.7969208,-0.22688858,-0.4062543,-0.06780831,-0.006114455,1.0626221,-0.28646126,0.12070244,-0.14856668,-0.34476286,-0.69077677
1738393055.8190365,-0.20463608,-0.27356178,0.011794726,-0.011047296,0.7722504,-0.3550861,0.27944565,-0.11869474,-0.37236652,-0.7226198
1738393055.8397677,-0.18681005,-0.13455051,0.04073913,-0.038084902,0.6549383,-0.36520097,0.29048872,-0.08474086,-0.36185333,-0.46149528
1738393055.8617516,-0.15005726,0.044220753,0.06395694,-0.06949866,0.6157356,-0.30585474,0.16817161,-0.04576359,-0.32079735,-0.05700372
1738393055.8822522,-0.1493552,0.18448465,0.06734836,-0.1182482,0.40538946,-0.2038741,0.030403668,0.026295068,-0.28608564,0.3386276
1738393055.9038012,-0.13267115,0.17886224,0.042310465,-0.16841042,0.33479264,-0.085237004,0.02327888,0.13738392,-0.21076724,0.6806866
1738393055.9248242,-0.08801049,0.08003994,0.010811028,-0.2849169,0.1557701,0.01229172,0.15433617,0.20723414,-0.1267045,0.9160128
1738393055.944663,-0.031014733,0.076941185,0.028514832,-0.39836076,-0.12425938,0.007706022,0.27420363,0.20507784,-0.05619798,0.8608375
1738393055.9648464,0.05152596,0.0026435629,0.035576317,-0.50312245,-0.44839782,0.042886302,0.2755413,0.1741463,0.0018162429,0.85200506
1738393055.9854436,0.1138463,0.0014741886,0.031938434,-0.5958453,-0.640333,0.094154835,0.29972866,0.15571414,0.05090961,0.97260964
1738393056.0059962,0.24703752,-0.0296669,0.014147659,-0.6295971,-0.7739749,0.1527283,0.27577543,0.13853052,0.08695621,1.1346164
1738393056.0262403,0.37021458,-0.075912505,-0.035034515,-0.58958095,-0.79089034,0.19101377,0.2065422,0.108719006,0.09414262,1.1724932
1738393056.0487633,0.46270066,-0.01664232,-0.013553132,-0.52055305,-0.58449703,0.17575884,0.063630804,0.06740832,0.08191104,1.1486424
1738393056.07108,0.4768982,0.031442292,0.021771904,-0.41947773,-0.075870454,0.17168634,-0.12500422,-0.0011005169,0.027040275,1.0913961
1738393056.0917196,0.42960894,0.13105157,0.049428295,-0.2779799,0.6441094,0.20419227,-0.30781814,-0.028433805,0.0026951171,1.0761784
1738393056.1121073,0.24183096,0.020038357,-0.0713972,-0.21911073,1.2431244,0.20944965,-0.39041266,-0.043688104,0.06578463,0.95408756
1738393056.1333785,0.12016552,-0.17599317,-0.11360669,-0.09739736,1.6127651,0.10145904,-0.17223199,-0.074152075,0.06637921,0.5261401
1738393056.1543794,0.15234898,-0.44198006,-0.06291545,-0.022368759,1.4566395,-0.01568706,-0.03772585,-0.03270977,-0.13959934,-0.1051827
1738393056.17342,0.08407877,-0.47064614,-0.0098683825,-0.017597776,1.1846397,-0.114278875,0.052705288,-0.020437194,-0.2881714,-0.69417566
1738393056.193755,0.08917676,-0.47059795,0.020757556,-0.044372715,1.0481764,-0.14918935,0.1073453,-0.014320282,-0.36953047,-0.7666146
1738393056.2141576,0.03987958,-0.46266553,-0.03389896,-0.06125768,0.9254505,-0.22047193,0.045152735,-0.06446685,-0.41037545,-0.6665048
1738393056.2360992,0.07853779,-0.3283716,-0.03298234,-0.05547383,0.7668959,-0.25406036,0.02284624,-0.08031953,-0.40148824,-0.43717274
1738393056.2560327,0.10074879,-0.17711513,0.010481005,-0.020089943,0.44778606,-0.2405259,-0.11640464,-0.08973469,-0.41081217,-0.1442025
1738393056.2789664,0.08729687,-0.027470637,0.032380432,0.014757563,0.3733562,-0.22452788,-0.08676456,-0.076390244,-0.35754156,0.12371695
1738393056.2984097,0.025557477,0.048111655,0.04883921,0.046771005,0.32513735,-0.16280706,-0.082198024,-0.019432485,-0.28107432,0.4716719
1738393056.319099,-0.036623627,0.08102617,0.04164467,0.07675413,0.29301834,-0.092794485,-0.007886976,0.054455012,-0.15747704,0.75384384
1738393056.3399043,-0.079849884,-0.010433154,0.06706968,0.026197772,0.0955003,-0.073454395,0.09840645,0.12513421,0.010441342,0.6610943
1738393056.361535,-0.04702183,0.00030867197,0.13795568,-0.16529375,-0.31231216,-0.06899707,0.3382474,0.15314773,0.018541576,0.38807756
1738393056.380218,-0.0019093044,-0.14314708,0.0931031,-0.38012603,-0.53715163,-0.018547367,0.3523115,0.11275452,0.051591657,0.33099842
1738393056.4024801,0.110288925,-0.1991025,-0.023224259,-0.5046521,-0.6767803,-0.06595681,0.39166135,0.03534335,0.074515544,0.16383298
1738393056.4226842,0.19826235,-0.31291324,-0.19640693,-0.5903261,-0.8839953,-0.08369868,0.26868063,-0.038658887,0.10068503,-0.09854554
1738393056.4431803,0.2156038,-0.31072953,-0.26701006,-0.55664235,-0.8669532,-0.07024117,0.14357677,-0.07321967,0.05922944,-0.21165955
1738393056.4632277,0.13227458,-0.23280847,-0.28545776,-0.5340926,-0.68712014,-0.121761255,0.07630636,-0.10590608,0.053040445,-0.43869218
1738393056.489444,0.07555237,-0.10913903,-0.26703134,-0.39739278,-0.5748844,-0.16334043,0.041156743,-0.11461981,0.047052793,-0.527262
1738393056.5090911,0.10343455,0.023844747,-0.2469622,-0.22301506,-0.50714463,-0.19197828,0.08103447,-0.051909156,0.06554965,-0.5015807
1738393056.5297596,0.12885994,-0.05318722,-0.2801832,-0.04502458,-0.35793066,-0.17228772,0.027514748,0.0024529244,0.18566152,-0.49633443
1738393056.5494905,0.07822719,-0.13882884,-0.24320692,0.012512048,-0.025208496,-0.10104994,0.05713099,0.029353268,0.26937145,-0.5043179
1738393056.5711422,0.09191641,-0.29516402,-0.22498597,0.097813465,-0.029032582,-0.18140648,0.037943058,0.0371212,0.038492724,-0.4030056
1738393056.589075,0.10607053,-0.33839932,-0.17872971,0.0676764,0.09842264,-0.1940086,0.05258031,0.026958881,-0.2740156,-0.24692136
1738393056.610794,0.11909503,-0.34862036,-0.16350457,0.10144244,0.051044255,-0.25071767,0.07419049,0.04643233,-0.41059217,-0.41376084
1738393056.6330547,0.10896348,-0.28428027,-0.17650509,0.12817393,-0.10671088,-0.26891458,0.11739943,0.050041355,-0.5882238,-0.5193063
1738393056.6532843,0.117043234,-0.23199946,-0.18640022,0.15149023,-0.24334407,-0.2734426,0.09246686,0.06705341,-0.67236024,-0.52928317
1738393056.673387,0.10650715,-0.2332035,-0.18565316,0.15782018,-0.4276997,-0.25252712,-0.026249118,0.051229246,-0.66617996,-0.42013153
1738393056.698374,0.08481039,-0.11964203,-0.18466324,0.1572095,-0.49844506,-0.21652126,-0.06813556,0.014051694,-0.516264,-0.18240538
1738393056.7181168,0.019440113,-0.06698075,-0.182866,0.17288391,-0.27829814,-0.16296172,0.021347165,0.060987666,-0.35161445,0.0041218586
1738393056.7383525,0.016735807,-0.072637714,-0.14963691,0.20182668,-0.028898753,-0.040283516,0.084351875,0.03855963,-0.19118379,0.18958727
1738393056.759443,-0.05605921,-0.04272916,-0.08835121,0.20803675,0.22830904,-0.042609412,0.18986434,0.07456262,-0.17404595,0.2783676
1738393056.7789032,-0.014984332,-0.027050015,-0.04480322,0.07721585,0.27580714,-0.046617478,0.3127554,0.058066703,-0.07762341,0.3315729
1738393056.7991362,-0.009873532,-0.059698306,-0.012234729,-0.110588245,0.107612975,-0.055024244,0.35504383,0.07403486,-0.06978124,0.4217374
1738393056.821539,0.067215994,-0.110046916,-0.006121182,-0.23239115,-0.098009415,-0.0138048865,0.38713133,0.067080475,-0.06972639,0.5380506
1738393056.8419297,0.1605806,-0.1767193,-0.020272542,-0.28616378,-0.28593713,0.010938343,0.3510243,0.055101283,-0.043741617,0.60304236
1738393056.8629563,0.23810513,-0.19137047,-0.016059233,-0.30443734,-0.49618998,0.065935515,0.2558216,0.027669683,-0.019355897,0.6314584
1738393056.885325,0.27053142,-0.18064262,-0.03458029,-0.2500319,-0.45742878,0.09189616,0.15979257,-0.010128034,-0.026018882,0.6884756
1738393056.9074526,0.25695264,-0.1484154,-0.030443076,-0.16131184,-0.16758814,0.08827129,0.06386186,-0.04969535,-0.065028936,0.75755215
1738393056.9261732,0.17519006,-0.12349926,-0.06088285,-0.09039514,0.23945066,0.060084738,-0.019195296,-0.08259765,-0.09691673,0.7333285
1738393056.9465377,0.04814352,-0.111027405,-0.12934136,-0.026656946,0.69670165,0.045795918,-0.09253833,-0.13950793,-0.15979335,0.56949425
1738393056.967629,-0.07640598,-0.13598001,-0.17132469,0.033851936,1.0176523,0.009521766,-0.11600797,-0.14379856,-0.22152561,0.3470222
1738393056.9869022,-0.16624229,-0.2341637,-0.19399966,0.11922462,1.077488,-0.08357729,-0.06760241,-0.15353218,-0.32981172,0.038477488
1738393057.0071082,-0.19922824,-0.3543112,-0.2286661,0.109822586,1.0322593,-0.22376813,0.021454751,-0.18306923,-0.36803162,-0.36434397
1738393057.028261,-0.2105927,-0.38813528,-0.21101214,0.06605802,0.9451289,-0.29244894,0.085221626,-0.20546654,-0.37844247,-0.5255143
1738393057.0487216,-0.1814043,-0.3540813,-0.19591746,0.050498918,0.80420226,-0.30205995,0.10884084,-0.21120684,-0.41294262,-0.4509462
1738393057.069213,-0.1300724,-0.30025506,-0.19278489,0.03529174,0.7428652,-0.29292995,0.10075304,-0.18842594,-0.444712,-0.25620183
1738393057.0917604,-0.08171944,-0.21473825,-0.15202826,0.052632697,0.5625392,-0.24655604,0.034625106,-0.16563818,-0.47313666,-0.0877907
1738393057.1134367,-0.044740565,-0.17185368,-0.1144857,0.09160546,0.38362,-0.19217145,-0.024632528,-0.14930941,-0.48370877,0.05945734
1738393057.1340294,-0.028447732,-0.13170852,-0.084086455,0.1317582,0.3516758,-0.13269104,0.018660128,-0.10825994,-0.4561085,0.21129823
1738393057.155441,-0.03248749,-0.14938754,-0.09125944,0.1936819,0.28821594,-0.06988255,0.029398248,-0.07411089,-0.3993163,0.26536262
1738393057.1758385,-0.07690607,-0.09273673,-0.06743019,0.25188187,0.20437968,-0.06849664,0.13938147,-0.04277853,-0.3078181,0.21206415
1738393057.1957526,-0.08689934,-0.119784296,-0.07115703,0.1871613,0.1061539,-0.07518543,0.2396203,-0.028776566,-0.20559922,0.057031803
1738393057.2162673,-0.04073663,-0.12331369,-0.081212066,0.004027878,0.023796547,-0.059055418,0.4279725,-0.025577335,-0.10156489,0.037322015
1738393057.2368898,0.005141031,-0.19766496,-0.12429154,-0.17847921,-0.0359434,-0.047064908,0.45649204,-0.055741005,-0.069723405,0.043790318
1738393057.2576566,0.056823708,-0.24674203,-0.18068308,-0.27838504,-0.09314397,-0.039913278,0.41184047,-0.095679194,-0.06152545,0.07571985
1738393057.278732,0.08804679,-0.25407085,-0.23216633,-0.30631676,-0.19587606,-0.036010623,0.3442963,-0.13544834,-0.051023513,0.06662733
1738393057.3012118,0.083845004,-0.25919443,-0.26369697,-0.27171293,-0.20388585,-0.020004766,0.24796344,-0.14614679,-0.05385624,0.13230905
1738393057.3239138,0.06756149,-0.25208285,-0.2982106,-0.20846522,-0.15171295,-0.018704621,0.15151364,-0.16488542,-0.056101575,0.16032524
1738393057.3439214,0.022735702,-0.25593078,-0.34221143,-0.11215973,-0.06469864,-0.009752302,0.0760043,-0.17315415,-0.08218388,0.09498994
1738393057.3656251,-0.022263892,-0.25666752,-0.35564673,0.0047582695,0.047927327,0.0019418877,0.026553527,-0.15377206,-0.14060964,0.013354877
1738393057.3849797,-0.029001385,-0.28141788,-0.38897976,0.12264767,0.15902388,-0.014210334,-0.03415955,-0.10338465,-0.187564,-0.05894459
1738393057.403573,-0.001842171,-0.28350756,-0.36856484,0.1561677,0.22927088,-0.027686417,-0.021364875,-0.075325996,-0.2585432,-0.095828384
1738393057.4240806,0.0049573593,-0.31100976,-0.34536612,0.11426343,0.28736737,-0.07116664,-0.009589627,-0.080028735,-0.34004197,-0.16398898
1738393057.4449484,-0.0026321597,-0.35223886,-0.33474597,0.06908428,0.34738988,-0.1295019,-0.04161089,-0.106591366,-0.37176806,-0.21714382
1738393057.465757,-0.016779102,-0.37112576,-0.33018482,0.050672248,0.36031517,-0.17702156,-0.052681185,-0.1364787,-0.38756096,-0.22775951
1738393057.4870121,-0.02290158,-0.3640916,-0.32145405,0.0497604,0.3354515,-0.20991458,-0.06274046,-0.15639493,-0.40025318,-0.21003294
1738393057.5080345,-0.021334872,-0.3349984,-0.3091824,0.055701166,0.29651815,-0.22025393,-0.07850127,-0.16391069,-0.4008067,-0.16042998
1738393057.5289428,-0.022652447,-0.29111543,-0.28429946,0.06459902,0.27537477,-0.21205033,-0.05805108,-0.15590315,-0.38628027,-0.09005945
