kscalelabs/kos-kbot/outputs.csv
timestamp,target_q_0,target_q_1,target_q_2,target_q_3,target_q_4,target_q_5,target_q_6,target_q_7,target_q_8,target_q_9
1738237946.1319876,-0.027476743,-0.14401016,-0.04186173,0.014756247,-0.04683471,-0.06231907,-0.05328411,-0.040452726,0.008891135,-0.28798866
1738237946.145632,-0.019534461,0.06886958,-0.0060525863,0.09194542,-0.026223686,-0.092344284,0.044378463,-0.052437223,-0.12159118,-0.23887707
1738237946.1519406,-0.043814987,-0.066158034,-0.012758039,0.07369733,-0.20379826,-0.09486699,-0.003505066,-0.011039352,-0.22320609,-0.2781747
1738237946.1652577,0.06844276,-0.16693228,-0.05261015,0.077162914,-0.35774583,-0.11169641,-0.023974486,-0.024735803,-0.31372127,-0.3794837
1738237946.176357,0.1306263,-0.014978963,-0.029215196,0.071374044,-0.45564282,-0.12525919,-0.027812198,-0.015143577,-0.39692187,-0.48765358
1738237946.1855707,0.13317099,-0.034658775,-0.012783235,0.06759507,-0.7119105,-0.14516541,-0.140955,-0.024519524,-0.48958743,-0.5074017
1738237946.1974113,0.13791406,-0.09517143,-0.027076397,0.035952095,-0.7487669,-0.17655635,-0.133315,0.013108695,-0.5353571,-0.46101683
1738237946.2073271,0.17743962,0.028712627,-0.009388402,0.07124709,-0.5520731,-0.18342134,-0.002975721,0.059052184,-0.55330944,-0.37129304
1738237946.218085,0.14336449,0.04475195,-0.006838889,0.042070426,-0.5343652,-0.21879326,0.048799142,0.10258762,-0.5105124,-0.30975008
1738237946.229555,0.093871646,0.041095395,-0.02336566,0.02227468,-0.58800554,-0.22458991,0.07888426,0.10191302,-0.43728492,-0.36755326
1738237946.2390625,0.0716814,0.06716014,-0.0028222634,0.0042622425,-0.5643452,-0.23763126,0.09266573,0.098431,-0.37605152,-0.2986423
1738237946.2498262,0.05521369,0.06084804,-0.020248732,0.0128185935,-0.40598795,-0.235977,0.12480231,0.13191773,-0.31285584,-0.23747851
1738237946.2617326,0.067581296,0.016294915,-0.016299278,-0.0050248876,-0.17527387,-0.20769763,0.15460302,0.11903872,-0.29212633,-0.094729
1738237946.2734897,0.068963565,0.030555487,-0.041926082,0.015320748,-0.011212196,-0.10249062,0.026781015,0.050563194,-0.25062704,-0.08983948
1738237946.2829683,0.042755257,-0.021127602,-0.059905425,0.03314655,0.15505603,-0.08603688,-0.00464049,0.051168926,-0.18675819,-0.11250934
1738237946.293364,0.082959175,-0.030259304,-0.030219784,0.042517953,0.3033812,-0.03453628,-0.0058316477,0.022153787,-0.13289887,-0.1024735
1738237946.304286,0.05856145,-0.058679845,-0.03409093,0.022218842,0.4447031,-0.002329222,-0.05231884,0.01005602,-0.08098234,-0.049083114
1738237946.3153226,0.092353135,0.060150582,-0.01424077,0.048516065,0.47358197,0.002346984,0.11416721,0.037877776,-0.043512356,-0.20164904
1738237946.3264916,0.15496907,0.00094173197,-0.050359964,0.027799327,0.3961555,0.013885408,0.06318774,0.039288215,-0.009373745,-0.26217493
1738237946.3366146,0.12742367,-0.053880922,-0.07360851,-0.029481942,0.20051405,0.009684504,0.06441469,0.03554175,0.015552286,-0.29602098
1738237946.3467422,0.14385575,-0.006598468,-0.04750136,-0.098162,-0.013208494,-0.024454746,0.23623657,0.049893215,0.043959994,-0.40745223
1738237946.3578744,0.1679602,-0.0612826,-0.04725045,-0.1851112,-0.17448816,-0.054557752,0.2498528,0.041444816,0.068870455,-0.4941112
1738237946.3680499,0.18862604,-0.07162865,-0.051061083,-0.3150715,-0.32744494,-0.05189122,0.20289999,0.032032147,0.07357183,-0.49171922
1738237946.378898,0.21574602,-0.050177366,-0.045148972,-0.38767096,-0.43364358,-0.024358938,0.12798631,-0.02054565,0.07409716,-0.51046485
1738237946.3885527,0.20871533,-0.018691724,-0.07276584,-0.46021333,-0.51622206,-0.065054044,0.13109094,-0.013609765,0.10372695,-0.5818129
1738237946.4000103,0.23099166,0.009295895,-0.038678568,-0.52137613,-0.53346676,-0.06826508,0.06196605,-0.03402336,0.11403097,-0.5742399
1738237946.409703,0.24120094,0.034646958,-0.039478827,-0.56112313,-0.54058915,-0.06247827,-0.012828164,-0.059960164,0.12903357,-0.55191064
1738237946.4227498,0.23104976,0.025848892,-0.086038135,-0.5506872,-0.54941803,-0.082499295,0.0061926804,-0.054913208,0.1474498,-0.5734513
1738237946.4310467,0.2169554,0.049089964,-0.057010207,-0.54187477,-0.5956974,-0.09408293,0.016032547,-0.040315077,0.16111176,-0.62056804
1738237946.4430847,0.21515276,0.00980742,-0.04378373,-0.5038879,-0.5706153,-0.09719213,0.026841836,-0.04149086,0.16122475,-0.5379822
1738237946.4521282,0.19920646,-0.02154283,-0.05291526,-0.44739237,-0.5966671,-0.09607587,0.033921774,-0.048683397,0.15240063,-0.48682895
1738237946.4655573,0.19851677,-0.06305932,-0.048446864,-0.36631015,-0.5385759,-0.08092621,0.03388997,-0.041684173,0.15651773,-0.4755282
1738237946.4734828,0.18868788,-0.06335475,-0.041257437,-0.28879887,-0.47362283,-0.064276166,0.069297895,-0.02628954,0.16324669,-0.41033202
1738237946.484758,0.1738446,-0.08735672,-0.042085987,-0.22479555,-0.45707044,-0.05580711,0.090540096,-0.010532239,0.17041731,-0.3481413
1738237946.4950066,0.15870672,-0.09523409,-0.0365423,-0.16066273,-0.36034378,-0.034369044,0.091965735,0.017718092,0.16938835,-0.24143812
1738237946.5079594,0.12714115,-0.08397416,-0.047718864,-0.12361306,-0.25480828,-0.026688207,0.10191518,0.04312659,0.16267349,-0.13436688
1738237946.5167272,0.09453628,-0.081940874,-0.04368363,-0.07885194,-0.21655759,-0.014576236,0.092837274,0.057278417,0.16758676,-0.013910531
1738237946.5259633,0.05565724,-0.10825151,-0.041385014,-0.0039235502,-0.22736943,-0.045265965,0.034499083,0.053439803,0.14708841,0.10267839
1738237946.536726,0.045005392,-0.16320466,-0.0546937,0.0966717,-0.15302128,-0.08533289,-0.053577527,0.041540943,0.048600886,0.2837544
1738237946.5490663,0.063006565,-0.18237253,-0.073488615,0.10040675,-0.091677494,-0.12142686,-0.093503945,0.03922157,-0.05812177,0.40286216
1738237946.557718,0.0927213,-0.17244904,-0.080793075,0.11641103,-0.18711612,-0.14969766,-0.07136855,0.040919937,-0.101805836,0.37515557
1738237946.5686657,0.09550527,-0.0747472,-0.02685757,0.14794663,-0.26695982,-0.1632202,-0.033205815,0.056847416,-0.15540472,0.2405029
1738237946.5803313,0.1193746,-0.078789316,-0.012183677,0.17300409,-0.40924048,-0.17581528,0.00076398626,0.03458862,-0.23834966,0.13036847
1738237946.5906227,0.13129944,-0.10225056,0.002928059,0.16045958,-0.4336004,-0.20371866,0.017056242,0.012842682,-0.29802924,0.039162286
1738237946.602057,0.11869559,-0.08388043,-0.005371455,0.15685917,-0.4729047,-0.21494517,0.04629049,0.008865539,-0.4018857,-0.09738935
1738237946.6128561,0.13164537,-0.076320045,-0.024280768,0.1613411,-0.513277,-0.23282649,0.0046944916,-0.00060754176,-0.45855567,-0.22221087
1738237946.6227908,0.120238066,-0.06348978,-0.018068468,0.14724556,-0.5237035,-0.24542545,-0.025338978,-0.0027289363,-0.49934018,-0.34309623
1738237946.6333258,0.09719536,-0.078000754,-0.039835203,0.119773835,-0.48100176,-0.2495448,-0.041185006,-0.006673835,-0.51511735,-0.40314358
1738237946.6444342,0.08790319,-0.077870205,-0.039700475,0.11752246,-0.43600348,-0.25630474,-0.026253097,0.008707335,-0.4905166,-0.4633452
1738237946.6557338,0.10795373,-0.039369654,0.00047468115,0.13419464,-0.40118793,-0.23492782,0.063584514,0.037894726,-0.44932255,-0.46177736
1738237946.6654072,0.12265556,0.026469678,0.006437421,0.14470476,-0.3634269,-0.19439971,0.10574232,0.068742566,-0.3860412,-0.42131796
1738237946.6762273,0.11798027,-0.013791331,-0.0389274,0.14347354,-0.22957927,-0.11832382,0.09615351,0.1027144,-0.29728004,-0.34046444
1738237946.6870909,0.08865018,-0.041866686,-0.033682078,0.12036444,-0.029717224,-0.12640305,0.2251507,0.16593052,-0.20806833,-0.19300438
1738237946.6976066,0.06517464,-0.076666206,-0.0372573,0.09045256,0.21438754,-0.07024988,0.25168303,0.15414672,-0.09644351,-0.12442635
1738237946.7097733,0.030135596,-0.07598881,-0.037475668,0.079220854,0.43713358,-0.055209156,0.21249399,0.14863658,-0.009315917,-0.043135036
1738237946.7212613,0.052482665,-0.05872124,-0.045908462,0.07823665,0.64594465,0.009702344,0.11711201,0.094253905,0.04285213,-0.03447125
1738237946.7307167,0.05101368,-0.0680485,-0.0573545,0.068943165,0.75596184,0.044219203,0.026097147,0.029883994,0.078723475,-0.07157159
1738237946.7419512,0.04900915,-0.06093584,-0.07338209,0.034807257,0.7238856,0.0663293,0.00405572,-0.0032054745,0.0963002,-0.12752834
1738237946.751674,0.13087495,-0.0045988252,-0.05837197,0.011648018,0.5228011,0.08084416,0.0030972436,-0.012981178,0.12874526,-0.23995638
1738237946.7634857,0.1489827,-0.02762056,-0.06697834,-0.051758327,0.27873737,0.07604411,0.03956587,0.0020615826,0.14038898,-0.29019266
1738237946.7727277,0.17831019,-0.023229456,-0.064857334,-0.1145186,0.022729836,0.052891266,0.13749668,0.024484165,0.15470105,-0.3680415
1738237946.7839868,0.18661562,-0.03222593,-0.06324261,-0.21624453,-0.28123498,0.033850353,0.098294556,0.0018256796,0.17146923,-0.46706095
1738237946.7943833,0.19644837,0.0014303895,-0.04678806,-0.3010635,-0.45119044,-0.008073607,0.14000288,-0.0021294253,0.16951737,-0.53679526
1738237946.80714,0.21298197,0.036545023,-0.065287955,-0.38364834,-0.54417324,-0.02252492,0.10297407,-0.017139029,0.16720976,-0.5932979
1738237946.8168066,0.20654894,0.0093798125,-0.08747617,-0.46125677,-0.5895199,-0.02444918,0.046542495,-0.021113014,0.17288905,-0.5881391
1738237946.8282878,0.22971228,0.014427076,-0.07674203,-0.5040499,-0.559797,-0.013684903,0.058029298,-0.0309933,0.16019052,-0.5156642
1738237946.8392806,0.24305543,0.054447178,-0.06310737,-0.5190778,-0.57953274,-0.023146486,0.033617727,-0.025935123,0.1599769,-0.501387
1738237946.848231,0.23844434,0.05087005,-0.045062333,-0.5175468,-0.61937296,-0.044415735,0.023403198,-0.020559106,0.16562079,-0.46978384
1738237946.8596728,0.24072073,0.02784082,-0.033062417,-0.4910171,-0.62092435,-0.04265964,0.06301612,-0.015319921,0.15867779,-0.42489684
1738237946.870997,0.24562548,-0.00075063016,-0.029420953,-0.44319758,-0.6070026,-0.032057904,0.085383154,-0.01097597,0.15056369,-0.3898685
1738237946.8812418,0.24133584,-0.018283252,-0.02640015,-0.4108233,-0.5603772,-0.040544804,0.12890878,-0.0045760404,0.16330877,-0.4039494
1738237946.8936937,0.21932729,-0.033567313,-0.023728639,-0.39087102,-0.5079263,-0.050969914,0.11074786,-0.01904888,0.17697665,-0.43375295
1738237946.902729,0.2202748,-0.04501586,-0.022998748,-0.34473795,-0.39976478,-0.042004343,0.1456018,-0.008653734,0.1916998,-0.4189315
1738237946.912697,0.21901287,-0.05684474,-0.02626269,-0.31377834,-0.3092632,-0.025003806,0.14837074,0.0034646261,0.19032238,-0.3630075
1738237946.9240363,0.22392242,-0.02805788,-0.021710983,-0.2887063,-0.18245122,0.0038093412,0.14159855,0.026953837,0.18600391,-0.28940475
1738237946.9336212,0.20943306,-0.018747216,-0.03572665,-0.26166385,-0.059531823,0.012608443,0.11970709,0.051112056,0.19896603,-0.1936118
1738237946.9455087,0.1811102,-0.023848508,-0.049203202,-0.22513625,0.02911064,0.039802507,0.11924108,0.065334596,0.2120105,-0.05900363
1738237946.9559295,0.13018894,-0.020175233,-0.04994244,-0.17632237,0.105380215,0.042999294,0.122273475,0.07497655,0.25733846,0.036948204
1738237946.966759,0.09254177,-0.08068144,-0.057814263,-0.08913524,0.15935737,-0.0023156907,0.092673115,0.06803444,0.22523747,0.12135562
1738237946.976726,0.08015091,-0.16602658,-0.07351034,-0.013351881,0.2662977,-0.053357195,-0.0077736154,0.047348723,0.11108287,0.2723622
1738237946.989044,0.12466918,-0.20309786,-0.09771184,-0.018693395,0.3370022,-0.0934036,-0.058607526,0.038991705,-0.0336701,0.36035556
1738237946.9982088,0.15018219,-0.15319352,-0.09813701,-0.024693923,0.34808847,-0.12610692,-0.037905768,0.051720865,-0.10682152,0.2347551
1738237947.0098908,0.18078168,-0.10259801,-0.05680433,-0.0004994739,0.24040687,-0.13030712,-0.028966025,0.045347936,-0.17057231,0.073219255
1738237947.0196939,0.18951294,-0.10984904,-0.03013535,0.021473859,0.108536206,-0.15199153,-0.029941477,0.025664803,-0.25474337,-0.0381238
1738237947.0319016,0.16820565,-0.07623482,-0.004881709,0.033983037,0.047797464,-0.16736889,-0.0052096583,0.011251978,-0.35692552,-0.15630087
1738237947.0416028,0.16013227,-0.051079564,-0.002402688,0.054356597,-0.06687914,-0.18651149,-0.012268983,-0.0075513944,-0.43588543,-0.27919936
1738237947.051994,0.17138955,-0.008068918,0.011048142,0.09106744,-0.19420734,-0.20253956,-0.02451086,-0.008406352,-0.48435172,-0.38200507
1738237947.062212,0.16526964,0.010099324,-0.0020311982,0.09581158,-0.2744394,-0.20710741,-0.04528223,-0.013261141,-0.51413476,-0.44293806
1738237947.0740836,0.14732021,-0.009597484,-0.014078638,0.08247592,-0.28802142,-0.22247352,-0.065928124,-0.0025794571,-0.5185167,-0.4700143
1738237947.0826302,0.1376884,-0.011998477,-0.009345081,0.063806385,-0.26324615,-0.22701478,-0.017913483,0.021908171,-0.49569055,-0.48662767
1738237947.0944476,0.14775982,0.046339564,0.01499979,0.060395993,-0.2864788,-0.21415356,0.056307565,0.04849068,-0.44978824,-0.45490503
1738237947.1047227,0.15034081,0.042170484,-0.0021966007,0.04894527,-0.26703438,-0.1655583,0.11191589,0.07396224,-0.3723219,-0.3503239
1738237947.1165311,0.13076335,-0.008412359,-0.034845296,0.033661455,-0.14192957,-0.11542407,0.12234959,0.111046925,-0.2725563,-0.20391925
1738237947.1262126,0.08785385,-0.033257637,-0.039907947,-0.00781493,0.06567197,-0.10441847,0.181678,0.13584632,-0.16401415,-0.027060892
1738237947.1365473,0.07798126,-0.06601533,-0.044964023,-0.01959868,0.26790002,-0.061053306,0.16563693,0.113413505,-0.05854669,0.09658831
1738237947.148024,0.07930771,-0.040745303,-0.039460853,-0.01821424,0.3997029,-0.01444589,0.13618782,0.09440556,-0.0015331022,0.14483191
1738237947.1575236,0.103808835,-0.018790826,-0.046792887,-0.011396377,0.5033053,0.0093151415,0.10802023,0.061041124,0.009324834,0.087477
1738237947.1688628,0.13650505,-0.025219489,-0.06712966,-0.026480269,0.5351711,0.05995844,0.0062203556,-0.00752075,0.025145583,0.0025279224
1738237947.1782267,0.16520396,-0.0143190045,-0.0643635,-0.063234165,0.42777148,0.09553576,-0.035564832,-0.03699234,0.043629836,-0.09433371
1738237947.1893723,0.21053983,0.027834505,-0.043803047,-0.1058299,0.17912385,0.09766842,0.0078538805,-0.019675134,0.053397056,-0.16740051
1738237947.1999981,0.23000161,-0.0028461367,-0.051397692,-0.15669812,-0.08922467,0.06291573,0.12777786,0.029622702,0.06998938,-0.24734458
1738237947.213439,0.2332774,-0.051978886,-0.052328423,-0.23174044,-0.3574516,0.060566496,0.13512035,0.03183357,0.09246625,-0.29312372
1738237947.2214618,0.24894847,-0.04405826,-0.039073016,-0.29709002,-0.5321007,0.041296087,0.1522696,0.017296135,0.10173473,-0.3773058
1738237947.2321386,0.25380537,-0.0037051132,-0.056220703,-0.36450922,-0.6242726,0.0005837595,0.1635465,0.008695288,0.11204746,-0.4657416
1738237947.2435148,0.24934554,0.0089537045,-0.06157693,-0.43081388,-0.6640857,-0.01543399,0.10381505,0.00073097646,0.1116028,-0.44529507
1738237947.2558906,0.26279825,-0.026184311,-0.061808247,-0.47712147,-0.6260519,-0.0050716596,0.083010934,-0.015127797,0.11476754,-0.43915364
1738237947.2664766,0.2755483,-0.013692418,-0.061378837,-0.49314687,-0.59819925,-0.0028844308,0.09462002,-0.013857836,0.112652555,-0.41738605
1738237947.2784176,0.2793705,0.0148068825,-0.033133667,-0.4978478,-0.6215913,-0.015597531,0.03809891,-0.013870789,0.12498377,-0.44817418
1738237947.2876618,0.2762699,0.014454494,-0.016648924,-0.49059284,-0.61035573,-0.02708233,0.03081632,-0.016765544,0.13053752,-0.43942085
1738237947.2980275,0.28019577,0.027448762,-0.011336235,-0.4620017,-0.5432709,-0.018573394,0.06168665,-0.008604517,0.12794222,-0.4111661
1738237947.3084333,0.2877106,0.009634574,-0.0039856015,-0.42465883,-0.4609677,-0.0028704172,0.07427115,-0.004505951,0.123146445,-0.39881763
1738237947.3189707,0.27194977,0.014045999,-0.00012247713,-0.4059896,-0.36630493,-0.0048016002,0.06281808,-0.01472548,0.12446365,-0.38148224
1738237947.3299942,0.25620306,0.016581107,-0.005866495,-0.37251088,-0.24413729,-0.00433701,0.047937635,-0.017394481,0.13375355,-0.39436775
1738237947.3404887,0.2392423,0.0007561194,-0.009572556,-0.33926734,-0.07171329,0.004680558,0.052974258,-0.008361848,0.12630932,-0.35778534
1738237947.3515847,0.24998233,0.0086809425,-0.018003091,-0.3205413,0.12865183,0.044544253,0.04389749,0.007312734,0.113948464,-0.2529379
1738237947.3626344,0.22903259,0.016509589,-0.034336146,-0.29529557,0.3057798,0.06253915,0.045657016,0.03408157,0.121964276,-0.12714767
1738237947.3734415,0.182113,0.014986,-0.045747902,-0.2622147,0.43378988,0.06553741,0.06851592,0.05712433,0.15224938,-0.016597155
1738237947.3829134,0.14413357,0.008277171,-0.05463012,-0.22543366,0.5322673,0.07791396,0.073235996,0.07082361,0.18474452,0.07929982
1738237947.3954957,0.104606226,-0.055935193,-0.06774334,-0.15975408,0.6074308,0.06188829,0.05355505,0.07463899,0.17857409,0.19814973
1738237947.4049413,0.11155784,-0.15020716,-0.08992282,-0.09228599,0.6800527,-0.0017576981,-0.0009824224,0.066556655,0.06991395,0.29178
1738237947.4153106,0.14993358,-0.20785953,-0.13573802,-0.11366862,0.7438086,-0.031467933,-0.06653089,0.052372478,-0.07147687,0.2533654
1738237947.4259005,0.17732823,-0.19693877,-0.12649257,-0.12314946,0.7683996,-0.0635715,-0.07453302,0.05110026,-0.15366413,0.08955172
1738237947.437768,0.1973991,-0.16450748,-0.109496176,-0.12700567,0.7543519,-0.06872614,-0.04897219,0.034124997,-0.20630655,-0.018053161
1738237947.4469678,0.18064108,-0.15636176,-0.06747839,-0.13497004,0.77944106,-0.08772686,-0.020702995,0.010319101,-0.27460754,-0.109728664
1738237947.4593432,0.16882554,-0.12683785,-0.042450823,-0.12949112,0.8165358,-0.110898614,-0.007860772,-0.0035217442,-0.3383019,-0.20751971
1738237947.470281,0.16497722,-0.08579711,-0.014121249,-0.112944596,0.780898,-0.13884598,0.0067477934,-0.015290147,-0.40066192,-0.3124854
1738237947.4799573,0.17102881,-0.046008892,-0.0035417383,-0.09765793,0.73663473,-0.15551256,0.009738531,-0.017710451,-0.44655862,-0.37706318
1738237947.491595,0.16653341,-0.009700777,-0.0060036015,-0.09808998,0.67733103,-0.17275694,0.0156185515,-0.007185489,-0.47040793,-0.40881243
1738237947.5011177,0.1750583,-0.015170057,-0.021671021,-0.105620384,0.60171163,-0.18354043,-0.0025134496,0.00037127826,-0.47664455,-0.4011788
1738237947.5116334,0.17231339,-0.017787974,-0.016402204,-0.12107999,0.528505,-0.19593069,-0.021156207,0.014067059,-0.46229678,-0.35307485
1738237947.5225623,0.1612455,-0.005361987,-0.012969727,-0.1514391,0.49034142,-0.18726659,0.0118909255,0.0053050797,-0.42688587,-0.26732048
1738237947.5334976,0.14362478,0.02293827,-0.012223879,-0.16691525,0.4521014,-0.18004067,0.057846844,0.032330148,-0.3649558,-0.16603705
1738237947.5434678,0.13625611,-0.044582363,-0.02228582,-0.17850155,0.4862082,-0.15420264,0.0954464,0.05208853,-0.2823554,0.01729841
1738237947.5560703,0.12047386,-0.038511124,-0.023904236,-0.18386894,0.52118295,-0.1465748,0.14801738,0.07984351,-0.21089908,0.18573765
1738237947.566047,0.10865328,-0.03641567,-0.03584548,-0.18383044,0.4858402,-0.109202445,0.09122214,0.04911516,-0.15075788,0.2913955
1738237947.5764346,0.111415535,0.013395942,-0.032728516,-0.17513599,0.44271904,-0.07692123,0.063300796,0.028480446,-0.1074833,0.3269734
1738237947.5875356,0.14253074,0.032108106,-0.04455212,-0.16967419,0.36916026,-0.043076273,0.08474966,0.016038781,-0.097693875,0.2954605
1738237947.5983784,0.17881013,0.02529103,-0.056719635,-0.17162316,0.16301033,-0.017681165,0.07826649,0.001620465,-0.09199351,0.21311368
1738237947.6079834,0.17942508,-0.0076245945,-0.061005212,-0.18319933,-0.101499096,-0.0040467056,0.084271125,-0.015479958,-0.07676551,0.12741473
1738237947.621311,0.16573727,0.021056905,-0.04838507,-0.20243725,-0.36892098,-0.027671698,0.14349122,-0.012982113,-0.038673114,0.014750438
1738237947.630225,0.13797005,0.0014323667,-0.05028708,-0.24055229,-0.5748555,-0.056926746,0.18180078,-0.0066749556,0.0005719997,-0.07404187
1738237947.640175,0.14288431,-0.012159615,-0.04838903,-0.28255603,-0.67919093,-0.06213531,0.19161767,-0.010812128,0.010780994,-0.10434739
1738237947.6519105,0.14623216,-0.021001007,-0.052295282,-0.3348069,-0.7401722,-0.06433089,0.16886637,-0.023268564,0.02363374,-0.17523412
1738237947.6636593,0.15185812,-0.027383462,-0.057094697,-0.39298412,-0.7658785,-0.07517709,0.17673635,-0.02592002,0.033077236,-0.24715891
1738237947.6727564,0.15987462,-0.045183755,-0.04746708,-0.45159578,-0.78343534,-0.07372343,0.14564806,-0.02603553,0.038277756,-0.29874057
1738237947.682907,0.18810803,-0.060105927,-0.035904635,-0.48886025,-0.7315295,-0.06206206,0.11839731,-0.026071658,0.04549204,-0.3227678
1738237947.6954222,0.21505342,-0.04860122,-0.022384696,-0.5143138,-0.68895805,-0.052097496,0.085654914,-0.030467601,0.049463097,-0.3330895
1738237947.703894,0.2375222,-0.03651503,-0.0033258155,-0.51518536,-0.6193673,-0.040377285,0.041724294,-0.033268094,0.050808806,-0.3435901
1738237947.7166448,0.24169913,-0.030319259,0.009291491,-0.49820238,-0.54867417,-0.03625547,0.006367024,-0.044084787,0.05131105,-0.31884363
1738237947.7271304,0.22710021,-0.055382412,0.01299813,-0.44457415,-0.45681268,-0.03387463,0.0027541034,-0.055381246,0.038001824,-0.30880657
1738237947.736378,0.21911322,-0.056709833,0.018815361,-0.37960905,-0.32590088,-0.025631096,-0.015567556,-0.064501524,0.025221378,-0.30127952
1738237947.7463121,0.2138158,-0.066164196,0.0150647145,-0.33008897,-0.08142903,-0.014831041,-0.0075836927,-0.05225861,-0.0036916807,-0.26448527
1738237947.7579634,0.20093787,-0.060788643,0.005072723,-0.29513714,0.11430291,-0.007985716,-0.0049927793,-0.033794492,-0.031318113,-0.22074775
1738237947.7679558,0.18139586,-0.053256046,-0.004184438,-0.26662618,0.26036367,-0.0071807923,0.03386449,-0.0008906899,-0.05530235,-0.17121279
1738237947.7786956,0.16758533,-0.03382999,-0.013419138,-0.23416919,0.37112653,-0.0063692043,0.065921456,0.03796278,-0.06539372,-0.10369002
1738237947.7892654,0.14161116,-0.028947093,-0.025323663,-0.20157614,0.45263237,-0.0008903155,0.05608879,0.05743099,-0.06044973,-0.03249512
1738237947.799951,0.104901984,-0.03222933,-0.042365715,-0.1784406,0.56014884,0.0014419397,0.05400007,0.07121222,-0.038848452,0.04186137
1738237947.8100455,0.0764299,-0.0462228,-0.05251971,-0.14425007,0.6467274,-0.010614567,0.045610465,0.08588421,-0.00094986334,0.072326414
1738237947.820915,0.08025394,-0.08330147,-0.070148416,-0.10117802,0.7208136,-0.01772479,0.018621907,0.07774331,-0.005643582,0.067680605
1738237947.8345835,0.11157733,-0.15368497,-0.09068243,-0.07351439,0.82541317,-0.043888826,-0.04619831,0.053869866,-0.09322721,0.06898936
1738237947.8436348,0.14333633,-0.17499636,-0.11826807,-0.08715827,0.9279788,-0.05614852,-0.05859839,0.032878824,-0.17336603,-0.0029734652
1738237947.8528945,0.13634597,-0.14785726,-0.096890144,-0.108203836,1.0114851,-0.06516684,-0.056533247,0.007985813,-0.23742495,-0.10415961
1738237947.8645697,0.12663914,-0.13352282,-0.067962505,-0.11320295,1.074715,-0.08535997,-0.054042622,-0.014968673,-0.28595078,-0.1859948
1738237947.8745935,0.13264883,-0.14148393,-0.06438306,-0.12413264,1.0768613,-0.09924338,-0.068473294,-0.033617087,-0.34414014,-0.26097465
1738237947.886019,0.13146159,-0.11425318,-0.04250923,-0.12201229,1.0452223,-0.12976964,-0.038056947,-0.025189938,-0.400918,-0.3288614
1738237947.896575,0.14567813,-0.087662645,-0.03533246,-0.120604835,0.9449914,-0.15324207,-0.038900092,-0.03866157,-0.45825547,-0.36731985
1738237947.907435,0.13613799,-0.065439016,-0.029895252,-0.13084982,0.8865117,-0.1758084,-0.059971303,-0.044340245,-0.4906228,-0.3698943
1738237947.9172866,0.15010683,-0.07435461,-0.04018962,-0.13608089,0.8347757,-0.18307836,-0.07713369,-0.037720434,-0.50812984,-0.35842517
1738237947.9291801,0.16297019,-0.05353491,-0.033948537,-0.13876459,0.76311773,-0.1894298,-0.05600454,-0.01749477,-0.5095542,-0.3331792
1738237947.938385,0.17012072,-0.06492469,-0.027022287,-0.14452015,0.6850023,-0.19099662,-0.01801382,-0.0061586266,-0.49466333,-0.25750023
1738237947.9495568,0.17072687,-0.05716251,-0.014490493,-0.15056783,0.62084895,-0.1830862,0.006918721,0.007228573,-0.47069296,-0.17132455
1738237947.961556,0.15314698,-0.06762703,-0.015302381,-0.15686733,0.5710448,-0.17809008,0.028321408,0.023069158,-0.42385027,-0.08025282
1738237947.9710658,0.14238289,-0.052458465,-0.019391801,-0.14812453,0.5446721,-0.17161746,0.0551373,0.042737164,-0.37240982,0.005808903
1738237947.9815214,0.12840612,-0.039989915,-0.024907397,-0.14095914,0.5378765,-0.16679697,0.09948309,0.052497655,-0.3072213,0.12793054
1738237947.992966,0.113038346,-0.024418253,-0.021793908,-0.137936,0.5269441,-0.14019643,0.110784866,0.0485394,-0.24478033,0.22349373
1738237948.0036151,0.103840366,-0.004940208,-0.02356106,-0.13331488,0.5176914,-0.11500048,0.12715772,0.045774147,-0.2039979,0.2830223
1738237948.0143788,0.1058483,0.028135527,-0.027728394,-0.120821565,0.41503942,-0.07714134,0.13804926,0.03445281,-0.18169679,0.27825862
1738237948.0245326,0.1254423,0.043302014,-0.039111868,-0.11213798,0.19168848,-0.053664315,0.14559343,0.031374335,-0.15103273,0.23501354
1738237948.0346951,0.14341834,0.06801696,-0.043097977,-0.11541096,-0.08677833,-0.032383125,0.17194498,0.027175285,-0.117920846,0.16338773
1738237948.045585,0.13833591,0.044033375,-0.052239727,-0.13543753,-0.33194408,-0.041419867,0.20434853,0.0330982,-0.074021906,0.1373274
1738237948.0568624,0.13673815,0.009874153,-0.057475846,-0.19421488,-0.56242687,-0.039169002,0.20837763,0.018774986,-0.038821477,0.085105635
1738237948.06826,0.1400913,-0.014989625,-0.057615854,-0.2576134,-0.7205026,-0.04622669,0.20348501,0.0016104667,-0.016065333,-0.004432723
1738237948.0776649,0.14722505,-0.032706644,-0.057717316,-0.31422284,-0.7943076,-0.053299055,0.17097774,-0.016996922,0.003952995,-0.10244864
1738237948.087542,0.1522387,-0.04130991,-0.05813024,-0.37786958,-0.83202976,-0.052133255,0.11075263,-0.03368994,0.0169059,-0.18655422
1738237948.0998724,0.1767946,-0.040621094,-0.046677437,-0.43221083,-0.81702065,-0.04652412,0.059323464,-0.04646921,0.026162893,-0.25179255
1738237948.1100698,0.20639175,-0.017173935,-0.02944932,-0.47944438,-0.7811852,-0.047446903,0.042139575,-0.036566585,0.030989055,-0.2864883
1738237948.1221938,0.23266421,0.0060716597,-0.010191299,-0.511122,-0.74883586,-0.04892139,0.013867296,-0.035745643,0.035203356,-0.2981193
1738237948.131708,0.24221794,0.014963609,0.0070658405,-0.52275,-0.7034708,-0.04581713,0.007244047,-0.029979395,0.039589155,-0.3104703
1738237948.1434102,0.2376248,0.00532288,0.008146664,-0.5108156,-0.628259,-0.05041693,0.008183192,-0.037191622,0.04778194,-0.32031763
1738237948.1533463,0.2240449,-0.008019079,0.011833545,-0.4868297,-0.51827735,-0.05434794,0.04028454,-0.031290606,0.038096007,-0.32030517
1738237948.166046,0.21145567,-0.020789115,0.020876838,-0.43614152,-0.37895396,-0.051852345,0.029187726,-0.043018706,0.019379266,-0.3077601
1738237948.1763628,0.20977281,-0.044675443,0.020909984,-0.36898425,-0.18338552,-0.03537682,0.025612714,-0.045911305,-0.0063352454,-0.2762337
1738237948.1863601,0.19826043,-0.04170236,0.01575219,-0.32763663,0.07735144,-0.028548768,0.040026624,-0.030212102,-0.037102085,-0.23756517
1738237948.1963158,0.19248249,-0.034347795,0.009237599,-0.29347357,0.25851527,-0.0130109005,0.032663275,-0.01291435,-0.064868,-0.17283869
1738237948.2074049,0.1822393,-0.030431915,0.002294948,-0.26883435,0.39904612,-0.00094975904,0.053161558,0.022464704,-0.07270695,-0.09704467
1738237948.2182674,0.15816694,-0.021674173,-0.0070631,-0.23849036,0.49760163,0.003558592,0.070645876,0.058968507,-0.06401379,-0.0326047
1738237948.2290483,0.12285935,-0.014152677,-0.02599251,-0.22127448,0.5930703,0.0044307737,0.057007793,0.07165323,-0.03182173,0.018636784
1738237948.240494,0.08499138,-0.036977414,-0.040330227,-0.19690195,0.6716625,0.005471957,0.045621473,0.08286771,0.0073469654,0.07404092
1738237948.2500172,0.095538564,-0.04898945,-0.059641633,-0.16245061,0.7909425,0.013119112,0.0552395,0.08711019,0.035384875,0.09160166
1738237948.2612095,0.09783286,-0.11735034,-0.07400093,-0.110854656,0.88255984,-0.031491842,-0.019855194,0.061384052,-0.027318154,0.078531474
1738237948.2715402,0.14065091,-0.19528072,-0.1297558,-0.122822694,0.97253627,-0.031898707,-0.08040681,0.02707503,-0.13335937,0.053004608
1738237948.2827492,0.14838377,-0.21725938,-0.13317609,-0.13499805,1.0592446,-0.054543816,-0.08835053,0.01913675,-0.2069372,-0.053572424
1738237948.2923713,0.14100653,-0.18650275,-0.10749794,-0.14314854,1.1086898,-0.06328901,-0.05698643,0.0031941445,-0.26490074,-0.17044716
1738237948.3048728,0.1349793,-0.1658006,-0.08080893,-0.151663,1.1598448,-0.07482716,-0.038467914,-0.01684526,-0.3094913,-0.24728057
1738237948.3147833,0.11965305,-0.1406884,-0.066318214,-0.153132,1.0682877,-0.11039228,-0.029046126,-0.033313073,-0.38062865,-0.3405741
1738237948.3260593,0.11041534,-0.14907336,-0.05234475,-0.15995319,1.0136839,-0.14318779,-0.02994638,-0.042518057,-0.4333813,-0.35928333
1738237948.337336,0.117467724,-0.12070541,-0.042738322,-0.16705613,0.98376495,-0.16778676,-0.04561411,-0.04736758,-0.46074116,-0.36513525
1738237948.3480082,0.13261142,-0.07518077,-0.045171615,-0.16657253,0.9170781,-0.18028277,-0.033860907,-0.033875696,-0.4827343,-0.3755882
1738237948.3585844,0.14516322,-0.083569296,-0.04669433,-0.17630693,0.8069332,-0.18396191,-0.045386754,-0.018675482,-0.48147073,-0.32457605
1738237948.369045,0.14496237,-0.08129908,-0.031613998,-0.19515462,0.7406579,-0.18289135,-0.006304186,-0.0050484203,-0.47012004,-0.22506829
1738237948.3810818,0.13740152,-0.07754726,-0.017501682,-0.20854236,0.6932399,-0.18725525,-0.0071921386,-0.0042183576,-0.4361552,-0.14047627
1738237948.392341,0.1408819,-0.05523594,-0.012127757,-0.21292928,0.6121113,-0.16689025,0.034315985,-0.0028258422,-0.3974286,-0.094029486
1738237948.4019828,0.13028646,-0.05574804,-0.016725259,-0.20403875,0.6041431,-0.1616003,0.08562447,0.030799057,-0.34010747,0.01739283
1738237948.41129,0.12254548,-0.04697767,-0.016921265,-0.19213504,0.6137277,-0.14347164,0.101385035,0.053996272,-0.27672285,0.15283343
1738237948.422813,0.106786005,-0.020975105,-0.021104252,-0.18659483,0.6399991,-0.12394811,0.11667437,0.05380503,-0.22160076,0.2515613
1738237948.4323597,0.09960057,0.033240795,-0.016275015,-0.18177778,0.5881339,-0.092319846,0.13104644,0.04469999,-0.18370259,0.32589924
1738237948.4432418,0.09174494,0.03510549,-0.020784654,-0.16508044,0.4697683,-0.06757629,0.15425175,0.037379652,-0.15531741,0.35575062
1738237948.4531515,0.12133553,0.062252995,-0.03161615,-0.15777415,0.29523984,-0.017944722,0.12225273,0.01602404,-0.13102426,0.30158687
1738237948.4644186,0.15121377,0.055560764,-0.046434693,-0.1630053,-0.007841006,-0.012892526,0.13590127,0.023584262,-0.10623187,0.24137437
1738237948.474427,0.14507604,0.03765076,-0.047328684,-0.18288155,-0.29939824,-0.013989692,0.18193677,0.020117564,-0.06879357,0.1727621
1738237948.484962,0.13170356,0.02261274,-0.053416427,-0.22916155,-0.5644746,-0.025833828,0.21962583,0.015435265,-0.03090656,0.094553396
1738237948.4958768,0.12728071,-0.022380162,-0.05170096,-0.269986,-0.71905065,-0.035807546,0.20604733,-0.0040838113,-0.0030907486,0.010786371
1738237948.507152,0.13356477,-0.043395158,-0.05328997,-0.31953692,-0.79064584,-0.045293164,0.175075,-0.028669255,0.012095332,-0.080371566
1738237948.5167997,0.13798231,-0.054244198,-0.05137162,-0.37175405,-0.81578434,-0.041982703,0.11292618,-0.051695563,0.021986768,-0.1573988
1738237948.5282907,0.15484227,-0.046256013,-0.041576736,-0.42742074,-0.813314,-0.041023694,0.10467048,-0.046348795,0.022509202,-0.22567596
1738237948.538304,0.18621373,-0.029760841,-0.02561066,-0.4678771,-0.785979,-0.038067646,0.045019567,-0.055512927,0.029595118,-0.25310233
1738237948.5484154,0.21778566,0.0015133927,-0.00029336225,-0.50405663,-0.7508891,-0.034590617,0.017617784,-0.045315273,0.028411519,-0.2707883
1738237948.5597408,0.23323613,0.018859297,0.0091672,-0.5239184,-0.7054647,-0.040056545,0.009495918,-0.042052425,0.037083376,-0.3017972
1738237948.5714693,0.22662313,0.032891393,0.015208278,-0.5288582,-0.6519055,-0.052012354,0.012559526,-0.04422225,0.05287755,-0.33336782
1738237948.5812209,0.213851,0.027635079,0.01991358,-0.5243994,-0.5388238,-0.065700874,0.03705939,-0.041726217,0.056390826,-0.36416948
1738237948.591864,0.2033531,0.020720664,0.025080193,-0.48875415,-0.41329858,-0.06391763,0.038829133,-0.05329384,0.047402482,-0.37014517
1738237948.6031375,0.19571804,0.004891607,0.024372162,-0.43186903,-0.24562246,-0.05621019,0.04336796,-0.05846297,0.030654397,-0.3563203
1738237948.6133702,0.19126044,-0.0059971157,0.024640145,-0.38045505,-0.01212512,-0.040382504,0.054571044,-0.047481522,0.007513497,-0.32630548
1738237948.6270764,0.18751198,-0.0031891475,0.018226547,-0.3450367,0.17785022,-0.021858718,0.043650344,-0.03291276,-0.013012508,-0.2811807
1738237948.6350627,0.19098368,-0.0020958064,0.008149216,-0.31891692,0.33541024,0.003320475,0.038953513,-0.006764667,-0.022943135,-0.1991413
1738237948.6455865,0.18000142,0.00022471696,-0.0033210583,-0.287006,0.43189216,0.019951314,0.058150526,0.027842471,-0.01895142,-0.12830193
1738237948.6562517,0.1403633,0.0059667984,-0.00524617,-0.25626966,0.5158168,0.020409442,0.073855594,0.054190822,0.01392547,-0.063502766
1738237948.6672125,0.1050384,-0.0040439526,-0.020670922,-0.23188616,0.590469,0.029536016,0.06520584,0.062317997,0.06964414,-0.008748123
1738237948.6771524,0.0836346,-0.021918721,-0.035008363,-0.19974919,0.658371,0.035378434,0.060615614,0.060805827,0.12876616,0.031258255
1738237948.6879702,0.07507732,-0.07938606,-0.056594964,-0.14106616,0.73813283,-0.0070220325,0.022310574,0.051577806,0.08803718,0.057227314
1738237948.6981437,0.10450049,-0.15788954,-0.09188753,-0.12198712,0.8255382,-0.034073047,-0.037403777,0.03082851,-0.034615174,0.12005557
1738237948.7091002,0.14057907,-0.22385842,-0.13319243,-0.13926911,0.91559637,-0.04975793,-0.06409219,0.022386435,-0.16246375,0.10068081
1738237948.7194088,0.16434488,-0.18222569,-0.100567564,-0.13503101,0.96340746,-0.06897474,-0.02653826,0.022170601,-0.22930506,-0.05542309
1738237948.730598,0.17052987,-0.15370148,-0.07398473,-0.14211512,0.9374335,-0.07105183,-0.013416588,-0.009837614,-0.29227245,-0.17469777
1738237948.7402751,0.15121955,-0.118107565,-0.032678533,-0.14270307,0.87984836,-0.104611345,0.002579499,-0.029613422,-0.36529845,-0.26420617
1738237948.75216,0.14196286,-0.13196157,-0.025373828,-0.14390457,0.8069186,-0.1404364,0.02201796,-0.037889987,-0.4351176,-0.3139618
1738237948.764787,0.14749578,-0.1119606,-0.020346114,-0.14055601,0.7421786,-0.15844356,0.022190612,-0.033606887,-0.47941115,-0.3649244
1738237948.7745767,0.16220793,-0.094747454,-0.024231276,-0.13696134,0.65058744,-0.16556838,0.0031984225,-0.021801405,-0.4989711,-0.3774033
1738237948.7821927,0.18062271,-0.050711177,-0.026532965,-0.13373476,0.5138599,-0.15883173,-0.008741908,-0.01022408,-0.50420856,-0.34366122
1738237948.7943869,0.17433202,-0.074390985,-0.019923633,-0.14963394,0.44298875,-0.16446394,0.009643953,0.00652078,-0.48133358,-0.24979872
1738237948.8038943,0.17236853,-0.057959393,-0.009499714,-0.17192176,0.41140005,-0.16217293,0.038611714,0.017036904,-0.4420488,-0.18044248
1738237948.8154156,0.16524851,-0.035579875,-0.0026535615,-0.18635647,0.35189304,-0.15402651,0.09710914,0.026422717,-0.38933212,-0.11287861
1738237948.8262227,0.14526281,-0.01405269,-0.01191931,-0.18416661,0.28712878,-0.14324823,0.14790264,0.06198112,-0.32345396,-0.0060613994
1738237948.8370204,0.1011199,-0.044428743,-0.019041076,-0.18713109,0.3044294,-0.13426928,0.17456059,0.08723917,-0.2258966,0.17838499
1738237948.8482916,0.099309675,-0.023798436,-0.020462895,-0.1807386,0.3575865,-0.125685,0.21750799,0.08884353,-0.16256514,0.26333696
1738237948.8578017,0.10840605,-0.0027538212,-0.028994508,-0.18266329,0.31905645,-0.081621505,0.18638825,0.056643978,-0.13138431,0.32308143
1738237948.8686833,0.14440003,0.03126208,-0.03908906,-0.1802951,0.17982766,-0.03978958,0.18278801,0.033905737,-0.10620405,0.27550372
1738237948.8798208,0.16806957,0.036578633,-0.055665717,-0.18522905,-0.044315565,-0.011336299,0.1285223,0.012150511,-0.0787995,0.17368288
1738237948.8894775,0.17497891,0.027178835,-0.058057595,-0.20170288,-0.23343417,-0.0068359785,0.13741674,0.0013805148,-0.059844557,0.10549244
1738237948.901036,0.1690803,0.026539177,-0.053801693,-0.2429624,-0.43681538,-0.011309126,0.13318846,-0.012710655,-0.020758811,0.018095383
1738237948.9120796,0.17164189,0.018398948,-0.050325286,-0.29136294,-0.5907486,-0.025818747,0.1013739,-0.040190578,0.01653381,-0.10641672
1738237948.9220848,0.15368155,-0.004755459,-0.049762752,-0.34327576,-0.6694521,-0.044446867,0.07992892,-0.04899776,0.03652486,-0.20442353
1738237948.9326808,0.16754647,-0.005006578,-0.042404763,-0.39472178,-0.6875408,-0.053121585,0.07465004,-0.055935286,0.049943868,-0.280371
1738237948.943333,0.17181416,-0.0009732358,-0.035205673,-0.44674334,-0.7031207,-0.05669624,0.07080841,-0.05416333,0.05570664,-0.33576137
1738237948.953232,0.19289379,0.019581523,-0.02178061,-0.49587294,-0.7025145,-0.059901375,0.06989651,-0.06697716,0.06651364,-0.39721954
1738237948.963858,0.18754031,0.034661748,-0.015834874,-0.5357647,-0.6906273,-0.08056407,0.07917528,-0.052428767,0.07141279,-0.43019256
1738237948.9741433,0.19952251,0.03023633,-0.0051230607,-0.5510429,-0.6324874,-0.079996355,0.07718861,-0.047065854,0.06780675,-0.42073736
1738237948.9854913,0.21554247,0.01111644,0.0046399944,-0.54901886,-0.5680087,-0.06255529,0.0847006,-0.044326417,0.056656305,-0.41147974
1738237948.9971151,0.22218232,-0.010711802,0.013320178,-0.52484643,-0.4794401,-0.055706516,0.075543135,-0.046474673,0.05903123,-0.40997127
1738237949.009521,0.20215322,-0.015738707,0.009535048,-0.49214947,-0.3992239,-0.06811215,0.091869496,-0.044621438,0.06424874,-0.4243146
1738237949.018767,0.20063306,-0.03293255,0.024442004,-0.43855584,-0.2813769,-0.0516058,0.067884155,-0.05472181,0.055181373,-0.39636093
1738237949.0294895,0.20101586,-0.03793218,0.017184705,-0.39973885,-0.11238392,-0.038817268,0.078316934,-0.041399613,0.04866674,-0.35029757
1738237949.039444,0.19578217,-0.031254444,0.011902424,-0.37034056,0.032476366,-0.027343543,0.08519457,-0.0209119,0.04270524,-0.31341633
1738237949.049713,0.188487,-0.0055616903,0.0060231877,-0.3590069,0.13552436,-0.017953735,0.09488799,4.363153e-05,0.05021699,-0.28089973
1738237949.0601356,0.19004121,-0.0076809702,0.0027507555,-0.33410624,0.2476815,0.0117594255,0.08033161,0.022188827,0.043810677,-0.16492556
1738237949.0722601,0.17036103,0.008760403,-0.009887591,-0.30666927,0.33476666,0.03456177,0.09502094,0.04527434,0.06741947,-0.052822087
1738237949.0819395,0.13349971,0.009311701,-0.020375548,-0.28207523,0.43646076,0.04566324,0.09495709,0.05884648,0.11185905,0.043473803
1738237949.092291,0.1014483,0.028135605,-0.029759087,-0.26260495,0.5571078,0.052598346,0.116117865,0.07584905,0.1700391,0.13057306
1738237949.1040244,0.07622045,-0.00088832434,-0.05607941,-0.22304142,0.65307516,0.061078105,0.07032264,0.068165764,0.21063314,0.2221285
1738237949.1145926,0.061222896,-0.08628762,-0.08032575,-0.15856324,0.7855502,0.022400357,-0.009214111,0.05448643,0.124926254,0.36436167
1738237949.1243787,0.08184152,-0.18668224,-0.1452176,-0.15917216,0.94136065,-0.007216503,-0.08262014,0.0416584,-0.040239997,0.35819897
1738237949.135969,0.10189241,-0.2007861,-0.16257368,-0.16677597,1.0051508,-0.03988648,-0.100811936,0.043050677,-0.13884966,0.1479474
1738237949.145852,0.13901657,-0.15974931,-0.11028748,-0.1504802,1.0218867,-0.06528774,-0.075340904,0.0407004,-0.18754688,-0.06264658
1738237949.156584,0.1388267,-0.13954772,-0.08009456,-0.1667728,1.0582037,-0.060968366,-0.02128487,0.0041903066,-0.2365215,-0.17358509
1738237949.1674592,0.09926095,-0.13582873,-0.0466887,-0.17777056,1.074655,-0.10762902,0.019480586,-0.028465321,-0.31076863,-0.27602443
1738237949.1782577,0.0890335,-0.13578002,-0.033445504,-0.17117803,1.0091364,-0.14488389,0.023490407,-0.041949145,-0.38645545,-0.35674858
1738237949.191116,0.08436153,-0.1452753,-0.050236806,-0.18428783,1.0165465,-0.15263563,0.0095108375,-0.042345934,-0.40869597,-0.39401415
1738237949.200348,0.08173771,-0.07612498,-0.042017348,-0.18783803,0.9826947,-0.18272236,0.028900027,-0.014802743,-0.42061523,-0.41888353
1738237949.209852,0.092081234,-0.07950433,-0.06629241,-0.2066741,0.8967785,-0.18501331,0.018123977,0.0013110461,-0.42220584,-0.354441
1738237949.2219563,0.080564104,-0.06411917,-0.035255216,-0.22164966,0.8278183,-0.20244095,0.02641447,0.013397455,-0.4074404,-0.26684225
1738237949.2314436,0.0801063,-0.03312183,-0.013743853,-0.23292655,0.76862127,-0.20276608,0.027171513,0.019856468,-0.3801128,-0.16287911
1738237949.2416708,0.08395498,0.0074186614,-0.0065592253,-0.24118398,0.6649871,-0.17483158,0.044161208,0.018811706,-0.32935464,-0.07542509
1738237949.2521436,0.095024526,-0.015495432,-0.016967032,-0.23916385,0.6741284,-0.14400476,0.0922039,0.042316914,-0.26792696,0.06307267
1738237949.2631485,0.095821306,-0.0364,-0.020312201,-0.23082753,0.70769113,-0.13031329,0.1130894,0.0642643,-0.20090291,0.25198165
1738237949.2734811,0.07862051,-0.01494042,-0.021726528,-0.23301256,0.69658715,-0.10129392,0.11274713,0.06203244,-0.15745293,0.38165686
1738237949.2846992,0.07615827,0.041268766,-0.025106657,-0.23201947,0.63885444,-0.055651195,0.09311575,0.040834382,-0.119409144,0.47114924
1738237949.2956455,0.08010047,0.065654136,-0.026685856,-0.22309889,0.540527,-0.025161885,0.122829996,0.030264152,-0.10374451,0.49636325
1738237949.3050737,0.11921044,0.089679174,-0.03725282,-0.21290715,0.35739955,-0.004099993,0.16290021,0.038788937,-0.10493474,0.41197366
1738237949.3165834,0.15538368,0.044350572,-0.053833038,-0.22170055,0.012943082,0.018740173,0.14031745,0.0324075,-0.09080993,0.34804285
1738237949.3266943,0.16760747,0.019443914,-0.05548554,-0.2417424,-0.35050985,0.0070818635,0.17534497,0.026155354,-0.057103142,0.23600158
1738237949.337112,0.13797078,0.0062591517,-0.050182797,-0.284602,-0.59458876,-0.020175435,0.2060279,0.007641698,-0.026974127,0.14209
1738237949.3482192,0.12267219,-0.02636704,-0.043548297,-0.31089345,-0.7216786,-0.03613295,0.2079016,-0.0075057074,-0.008139199,0.0723639
1738237949.3595774,0.11786298,-0.054708276,-0.042781446,-0.3371019,-0.7693151,-0.03235248,0.1702257,-0.03480868,0.0024453439,0.0142069515
1738237949.370374,0.12624481,-0.04081378,-0.03636411,-0.37853992,-0.7927381,-0.037223604,0.14727245,-0.041198455,0.0020032786,-0.05128248
1738237949.3801012,0.1347926,-0.03863514,-0.03341783,-0.41661167,-0.79662716,-0.038733535,0.12388556,-0.036107436,-0.0022673197,-0.08841456
1738237949.3908572,0.17240632,-0.030948289,-0.0060358187,-0.4442071,-0.7705444,-0.03158784,0.10084264,-0.025517968,-0.012128424,-0.08401593
1738237949.4001834,0.21636988,0.0016207853,0.020501083,-0.46769965,-0.7181925,-0.020708982,0.07651282,-0.012683626,-0.022955349,-0.080269985
1738237949.4106274,0.2491149,0.026321087,0.030159973,-0.4768239,-0.65868217,-0.02034121,0.026049707,-0.0131287,-0.025437832,-0.097471714
1738237949.4236465,0.25707233,0.026999347,0.04123955,-0.48634678,-0.57891333,-0.026193473,0.015432451,-0.016686535,-0.032039598,-0.10321165
1738237949.433753,0.25730425,0.043885972,0.04840811,-0.47924635,-0.42872703,-0.03438683,0.04215288,-0.014560487,-0.044458147,-0.09534651
1738237949.4450731,0.25313663,0.037264355,0.04320868,-0.4557024,-0.26372936,-0.036806483,0.04112665,-0.019850602,-0.060366828,-0.0999028
1738237949.4550116,0.2561478,0.031633988,0.043569125,-0.4192151,-0.0135675445,-0.029125035,0.036190502,-0.018456738,-0.08136281,-0.067686155
1738237949.4654796,0.24861899,0.055756498,0.04486511,-0.37359127,0.20833507,-0.018427216,0.018936358,-0.015753442,-0.09924975,-0.016621748
1738237949.475164,0.23150726,0.04438606,0.04041112,-0.33302417,0.39867875,-0.0050714277,0.020934861,-0.004033791,-0.11199477,0.061147235
1738237949.4891472,0.2160226,0.022050627,0.023371369,-0.3015336,0.55005866,0.010118409,0.016032968,0.024081945,-0.12434499,0.12775147
1738237949.4975326,0.20410039,0.01905613,-0.0077043953,-0.28230274,0.6917403,0.032346826,0.021227147,0.052184105,-0.1209909,0.17419288
1738237949.5084977,0.17106268,-0.013098224,-0.027208185,-0.26923102,0.80328393,0.0423539,0.01621199,0.07366811,-0.11063591,0.20876333
1738237949.520018,0.13936375,-0.037605457,-0.048736244,-0.26345485,0.9365312,0.046690598,0.021034215,0.084542744,-0.08344494,0.23632708
1738237949.530564,0.1147004,-0.082530625,-0.07587787,-0.25417462,1.0686437,0.051515628,-0.00539691,0.07285259,-0.059609286,0.21238531
1738237949.5419738,0.11662027,-0.15310043,-0.10277418,-0.20360856,1.1824042,0.02311831,-0.016786747,0.06678175,-0.08113566,0.12085895
1738237949.5527565,0.13397601,-0.22822228,-0.13752256,-0.16509931,1.2282128,-0.007972043,-0.060930178,0.043485716,-0.13277756,-0.07176429
1738237949.5643783,0.13292134,-0.23562011,-0.13668041,-0.1493873,1.287107,-0.021780007,-0.041593596,0.02047828,-0.18217266,-0.22290157
1738237949.5742686,0.09246129,-0.24087879,-0.13009913,-0.15850283,1.3034899,-0.039047237,0.02830064,-0.01462063,-0.24142094,-0.34270588
1738237949.5857797,0.03691379,-0.23877376,-0.111159444,-0.17574424,1.3708336,-0.06721151,0.047064293,-0.041560642,-0.2937597,-0.39955747
1738237949.5955145,0.0053766817,-0.23288052,-0.0962232,-0.18222097,1.4024297,-0.09880684,0.026737956,-0.057512313,-0.3261116,-0.44180927
1738237949.6056247,0.0022553317,-0.18958032,-0.0859662,-0.1724349,1.408066,-0.11971911,0.05039119,-0.05795826,-0.36030653,-0.4644904
1738237949.6156645,-0.021184124,-0.17800023,-0.07580569,-0.17305318,1.2702215,-0.16781999,0.03572786,-0.055305228,-0.3754778,-0.4232484
1738237949.6274776,-0.020960279,-0.1011698,-0.033434976,-0.16524848,1.1253933,-0.19449438,0.06519844,-0.04414092,-0.40485582,-0.38047066
1738237949.6376586,-0.010435265,-0.0945485,-0.03587286,-0.16585033,0.9815729,-0.19856453,0.032419458,-0.039815493,-0.41267106,-0.30379316
1738237949.6481583,0.009084448,-0.045634296,-0.022232082,-0.17653225,0.8193913,-0.17776504,0.03519079,-0.024097284,-0.40638682,-0.23465964
1738237949.658823,0.017083243,-0.043840215,-0.015502442,-0.19827648,0.76191425,-0.16103846,0.038631015,-0.013600685,-0.3652209,-0.04310944
1738237949.6698444,0.017098553,-0.02356695,-0.00042319723,-0.20924205,0.72695166,-0.13825323,0.01076512,0.0037102294,-0.31467754,0.12961428
1738237949.680048,-0.00036162138,-0.022228608,0.0018495067,-0.23348667,0.75371975,-0.124004774,0.019656181,0.015345214,-0.24846753,0.28057146
1738237949.6914983,-0.010768179,0.056697916,0.008945495,-0.23048666,0.66727716,-0.10204041,0.052353825,0.03746999,-0.20300028,0.4025478
1738237949.7017376,-0.032301232,0.055353265,-0.0021774387,-0.22227979,0.62277985,-0.08143593,0.07936315,0.043072462,-0.15189536,0.5286491
1738237949.7130399,-0.012490235,0.10172096,-0.0031726125,-0.21703221,0.63115793,-0.04124522,0.096836925,0.03774909,-0.12451826,0.5667361
1738237949.723929,0.024707796,0.094614506,-0.023403328,-0.21002159,0.5105134,-0.013427946,0.12704241,0.04700111,-0.121282905,0.5893158
1738237949.7334754,0.076723106,0.09199542,-0.030049143,-0.20942065,0.22883797,0.015185158,0.14559099,0.047080487,-0.111411884,0.47998765
1738237949.7470038,0.10722798,0.0204141,-0.043452606,-0.2357302,-0.1955418,0.029980782,0.179796,0.04775937,-0.09481255,0.38846484
1738237949.7553954,0.10159369,-0.0016161762,-0.02532856,-0.24808738,-0.43283063,0.018609874,0.22938123,0.035404876,-0.05189126,0.28389725
1738237949.766459,0.06901779,-0.013077079,-0.016984543,-0.28592104,-0.5739723,0.007429256,0.27140388,0.030940548,-0.042380862,0.24184182
1738237949.7768545,0.060242273,-0.07196899,-0.031342685,-0.3261174,-0.674069,0.0053483928,0.23539394,0.0023155287,-0.029985486,0.17355421
1738237949.7888043,0.04791155,-0.06710823,-0.03817745,-0.36085877,-0.7567788,-0.0060148956,0.2175504,-0.01009497,-0.017525705,0.08616251
1738237949.7999024,0.0650406,-0.0673914,-0.037454892,-0.3807301,-0.75956875,-0.020256845,0.18396232,-0.020680796,-0.0075909086,0.04771205
1738237949.8101652,0.090427816,-0.06449599,-0.01747527,-0.40810904,-0.75993025,-0.020533243,0.15221357,-0.014980933,-0.008879289,0.022673445
1738237949.8210487,0.1421816,-0.052838538,0.014882462,-0.43683383,-0.7172851,-0.01279336,0.1110647,-0.027193828,-0.0139085725,0.018805562
1738237949.8313637,0.18858987,-0.0003559785,0.03470393,-0.46300218,-0.689473,-0.011270249,0.06821224,-0.032590546,-0.019321047,0.0094688255
1738237949.8419096,0.22010997,0.022730436,0.045364484,-0.47463605,-0.6007328,-0.020661047,0.040104076,-0.02861411,-0.034289613,0.00982151
1738237949.8539865,0.23905212,0.048359614,0.066010185,-0.4643622,-0.50431126,-0.012901189,0.0077348575,-0.031304114,-0.05008565,0.017920224
1738237949.864627,0.25186932,0.025894161,0.06577995,-0.4474727,-0.34135062,-0.015855554,0.0036387555,-0.039179005,-0.07892376,0.023075076
1738237949.874569,0.24799393,0.035651013,0.056186132,-0.41961053,-0.15655403,-0.014628651,0.000925567,-0.045212477,-0.10419266,0.02853421
1738237949.8858144,0.24379505,0.059116278,0.058223426,-0.38819,0.0751121,-0.014333226,0.0037095882,-0.032519847,-0.122194335,0.06887299
1738237949.894211,0.2301825,0.07453779,0.05120957,-0.33909813,0.28879252,-8.533895e-05,0.0008668266,-0.02257677,-0.13365516,0.107489556
1738237949.906586,0.21112555,0.04561058,0.035262555,-0.3073403,0.46803296,0.010672123,0.0015367344,-0.0057860557,-0.15037386,0.14455914
1738237949.9169672,0.19484201,0.03311303,0.0148084145,-0.28597343,0.61813956,0.023675982,-0.016247712,0.019356389,-0.15941225,0.16610366
1738237949.9280548,0.17352274,0.014942274,-0.014327897,-0.27571648,0.73804307,0.03739003,-0.014255106,0.04668624,-0.15388809,0.19120516
1738237949.9406886,0.14866292,-0.019703424,-0.030153438,-0.26474717,0.8840167,0.044022836,0.009123057,0.07537991,-0.13910125,0.21799967
1738237949.9502122,0.122904986,-0.043961097,-0.050166722,-0.2521727,1.0099006,0.037820995,0.039575938,0.08695118,-0.11934683,0.20527291
1738237949.9618232,0.10105853,-0.104834504,-0.07825598,-0.24068609,1.1147912,0.041147694,0.01911993,0.07408483,-0.09369559,0.15803769
1738237949.972238,0.10213569,-0.19257824,-0.11124595,-0.20387529,1.2119381,0.023566365,-0.01824861,0.0537654,-0.09915413,0.033232115
1738237949.984176,0.10520793,-0.24236052,-0.12772597,-0.14660302,1.3000202,-0.0212609,-0.027416289,0.036738534,-0.14385696,-0.15140235
1738237949.9942255,0.08389272,-0.2593334,-0.1476872,-0.1487697,1.3415163,-0.012400493,-0.01800885,-0.0037870305,-0.19207141,-0.30421326
1738237950.0063007,0.03695474,-0.27851453,-0.13931003,-0.16163047,1.4160496,-0.036746714,0.03123378,-0.027829157,-0.24518743,-0.3827348
1738237950.0152173,-0.018585816,-0.25480893,-0.11150394,-0.1640817,1.4974086,-0.08231579,0.06324953,-0.04563845,-0.28495258,-0.4398901
1738237950.0244715,-0.035090566,-0.2453609,-0.108220235,-0.16792785,1.5254363,-0.0940484,0.051792424,-0.06300401,-0.31519547,-0.47802982
1738237950.0351887,-0.05164063,-0.21910065,-0.104020126,-0.16786046,1.4815197,-0.11980487,0.034745097,-0.06745774,-0.33152455,-0.45265457
1738237950.046361,-0.046509326,-0.13733439,-0.058750764,-0.14514342,1.262053,-0.17579107,0.047078565,-0.05736956,-0.3755124,-0.42432472
1738237950.0568109,-0.026424684,-0.07725236,-0.03536512,-0.14148802,1.0393953,-0.18783869,0.031250432,-0.05310908,-0.41066924,-0.37791452
1738237950.068797,-0.0024075806,-0.04157244,-0.025137927,-0.14857167,0.8463128,-0.17396979,-0.004975401,-0.04079394,-0.429772,-0.285347
1738237950.0789208,0.034710076,-0.015311325,-0.017073523,-0.154263,0.6927143,-0.15847762,-0.013794072,-0.02780844,-0.4399772,-0.19108027
1738237950.089815,0.05745007,0.006691563,0.00051723246,-0.16603523,0.5689457,-0.13976806,-0.047556475,-0.013345154,-0.4235607,-0.05724834
1738237950.0997448,0.051025588,0.007592735,0.010833416,-0.18564188,0.53130215,-0.11466906,-0.06397138,-0.0014637578,-0.377631,0.09443618
1738237950.1108894,0.042352013,0.019061979,0.01708943,-0.19487065,0.49701607,-0.12009777,-0.033800095,0.021765344,-0.33858898,0.17988966
1738237950.121138,0.033636495,0.033796217,0.01416132,-0.18417858,0.4596731,-0.11803256,0.006204702,0.04122535,-0.29934874,0.2398974
1738237950.132374,0.022546314,0.045956194,0.01718477,-0.16759527,0.46344638,-0.10850345,0.053833686,0.047133498,-0.24762484,0.29672945
1738237950.1437263,0.029072672,0.04157849,0.0036689974,-0.14919004,0.46015996,-0.09965469,0.08839219,0.04708316,-0.21458367,0.33245027
1738237950.152699,0.045500197,0.04049777,-0.005598434,-0.12489846,0.4046825,-0.087081835,0.13739866,0.047991708,-0.19550306,0.29677677
1738237950.1639833,0.033490997,0.02559686,-0.013803193,-0.12737033,0.24806803,-0.04994276,0.1420434,0.029823285,-0.17170084,0.25015506
1738237950.1755474,0.044261392,0.027804825,-0.019483117,-0.14945017,-0.014814854,-0.0488927,0.19870815,0.033888094,-0.120490074,0.16846919
1738237950.1868722,0.030351311,0.0036606817,-0.028860847,-0.18072535,-0.24938047,-0.0611201,0.26457402,0.033947475,-0.06629131,0.09052088
1738237950.1966572,0.025837276,-0.015231808,-0.040063858,-0.2244464,-0.43774363,-0.06343156,0.27729803,0.02234656,-0.034723,0.037504494
1738237950.2079444,0.042256508,-0.046181355,-0.045670666,-0.2893698,-0.5875729,-0.06297123,0.2609732,0.004357263,-0.027605152,-0.0037023015
1738237950.2177305,0.058221042,-0.054446694,-0.062179975,-0.353189,-0.703341,-0.06508105,0.23126283,-0.014536772,-0.012067614,-0.09674955
1738237950.2289107,0.072609305,-0.06851051,-0.05745195,-0.41325563,-0.7746122,-0.060741536,0.17209391,-0.023915386,0.0038231201,-0.15861678
1738237950.2389107,0.11306493,-0.06229314,-0.042779922,-0.46332052,-0.7677812,-0.05571001,0.101644486,-0.04921834,0.025516652,-0.21694462
1738237950.249941,0.15115881,-0.051298797,-0.025959909,-0.5073478,-0.73916453,-0.05108242,0.06312457,-0.065371424,0.03619011,-0.25712466
1738237950.2604713,0.18048544,0.002121618,-0.002050695,-0.5385984,-0.7074879,-0.05873319,0.020816639,-0.07254019,0.054308113,-0.3125763
1738237950.2712379,0.19356199,0.035292495,0.013844822,-0.5489707,-0.648649,-0.06509364,0.009629663,-0.06754195,0.060902204,-0.31581953
1738237950.2816792,0.19993486,0.03917923,0.029188776,-0.5382978,-0.58087105,-0.06607443,-0.012883283,-0.078747734,0.06813015,-0.32654473
1738237950.2923973,0.1911968,0.024420362,0.03427075,-0.51396215,-0.50730884,-0.06952401,-0.004469812,-0.085909806,0.060683202,-0.34422645
1738237950.3037293,0.1771179,-0.006226013,0.037785716,-0.4584522,-0.39483547,-0.07029722,-0.009742379,-0.097401716,0.03943332,-0.33063948
1738237950.3142593,0.16187541,-0.02678499,0.03529677,-0.398353,-0.24009293,-0.06665944,-0.00385027,-0.09486665,0.01560558,-0.3239569
1738237950.3234725,0.1629188,-0.038834166,0.028695453,-0.34255606,0.035114177,-0.03305107,0.0051615387,-0.07915371,-0.029760791,-0.2619267
1738237950.3345335,0.16272753,-0.028289732,0.008843938,-0.2905391,0.20964357,-0.010141425,0.0011062846,-0.04997404,-0.06198345,-0.20446837
1738237950.3444736,0.14732811,-0.037751615,0.0010366789,-0.24581736,0.3367829,-0.0092003,0.0050082467,-0.007319059,-0.076895736,-0.13506845
1738237950.355886,0.12029675,-0.018565785,0.003646283,-0.20836236,0.409269,-0.017856868,0.03338705,0.035984576,-0.06959364,-0.10382932
1738237950.3671181,0.0861281,-0.016585998,-0.00046061067,-0.17328566,0.46093315,-0.025905617,0.03672993,0.0685988,-0.02762695,-0.08418603
1738237950.377619,0.05772998,-0.031173483,-0.010531746,-0.13299632,0.5039711,-0.035319094,0.04198741,0.081791796,0.030679304,-0.07634952
1738237950.3883018,0.051458105,-0.06383,-0.032375462,-0.08330269,0.56159914,-0.051574156,0.03736447,0.07367316,0.048973504,-0.06436666
1738237950.399193,0.059356973,-0.13007036,-0.055265777,-0.035447236,0.6195875,-0.089107126,-0.020152189,0.04217755,-0.0399834,-0.009002658
1738237950.4107034,0.11994072,-0.1742142,-0.08943315,-0.041481942,0.74200875,-0.07555133,-0.029997371,0.02080097,-0.16886754,0.07843421
1738237950.4208565,0.12565443,-0.15900931,-0.093174115,-0.064467736,0.81402725,-0.07706825,-0.01754471,0.016633801,-0.24466157,0.01137268
1738237950.4329717,0.12662779,-0.16252325,-0.08540976,-0.084477335,0.7941692,-0.084687024,-0.026964769,-0.013374958,-0.30478525,-0.06869385
1738237950.4438202,0.12551922,-0.1455294,-0.04967236,-0.083820716,0.73783076,-0.115820594,-0.031875096,-0.021565773,-0.368226,-0.15441833
1738237950.453521,0.1276883,-0.1330392,-0.03117994,-0.085217945,0.64142627,-0.13476579,-0.014445335,-0.035977826,-0.44269145,-0.23316605
1738237950.465383,0.14511901,-0.096946694,-0.0057745883,-0.06854997,0.5359654,-0.1672656,-0.019239582,-0.026297456,-0.5056714,-0.30221283
1738237950.4754398,0.17254409,-0.0792904,-0.004377865,-0.055731595,0.437163,-0.17381312,-0.012614943,-0.025368048,-0.54465145,-0.3595014
1738237950.4856744,0.18808185,-0.08421225,-0.014554977,-0.04296223,0.30645403,-0.17802086,-0.049668826,-0.022551714,-0.56145865,-0.3699305
1738237950.4966848,0.1926099,-0.08102441,-0.01572398,-0.039001953,0.20914248,-0.17816578,-0.058152556,-0.013360603,-0.5575583,-0.34652698
1738237950.5083911,0.1943291,-0.06446633,-0.0013195036,-0.050566077,0.14318734,-0.18089812,0.018481463,0.017997118,-0.53282744,-0.30336955
1738237950.5183723,0.1869286,-0.050500836,0.004642612,-0.063993946,0.059387483,-0.17250362,0.09819506,0.035047166,-0.4902723,-0.25759065
1738237950.529572,0.15609547,-0.03902732,-0.0048977006,-0.061326835,-0.030165926,-0.17311858,0.148519,0.071486,-0.41602337,-0.16554257
1738237950.5407245,0.11517073,-0.045024972,-0.021042613,-0.053397983,-0.07163332,-0.17037444,0.16739321,0.09178259,-0.32291985,-0.08547574
1738237950.5510516,0.08444262,-0.034836628,-0.026037848,-0.07074235,0.036433816,-0.1527287,0.18074447,0.109214745,-0.23534912,0.074987985
1738237950.5604444,0.06915125,-0.030806977,-0.030561417,-0.092198275,0.17039752,-0.1026484,0.15190786,0.08445427,-0.16669145,0.22770533
1738237950.571399,0.07586118,-0.011063871,-0.029238438,-0.081660256,0.22586611,-0.073886074,0.13960934,0.062972724,-0.13065265,0.2324644
1738237950.5814571,0.12763408,-0.0004891595,-0.046165403,-0.07528253,0.1789813,-0.018071268,0.05330802,0.0117298,-0.0900473,0.15337038
1738237950.5926342,0.16006222,0.020757422,-0.052898087,-0.088498436,0.06309706,0.01700113,0.025767263,-0.014749536,-0.059859835,0.09400449
1738237950.6036952,0.17102131,0.043525685,-0.04289227,-0.10537724,-0.06892969,0.043999005,0.0012562424,-0.04271385,-0.030532729,0.020315299
1738237950.6143177,0.18993364,0.059107397,-0.03795016,-0.1386933,-0.23250535,0.038488127,0.04574615,-0.03616669,-0.0006913133,-0.038204536
1738237950.6251214,0.18740432,0.008301568,-0.042829506,-0.18783826,-0.40403536,0.021228,0.08166275,-0.0111852195,0.027925026,-0.11162682
1738237950.6367023,0.18763761,-0.0026591811,-0.04024695,-0.24377969,-0.54713124,-0.0029878188,0.099207446,-0.02079824,0.05354741,-0.21035726
1738237950.646886,0.1748637,-0.02846178,-0.04194979,-0.29925394,-0.6276995,-0.025199395,0.1361242,-0.019817226,0.05800129,-0.2773414
1738237950.6571522,0.19529392,-0.01642419,-0.04168867,-0.36272636,-0.6714721,-0.034824613,0.17247932,-0.023496734,0.06686941,-0.3648921
1738237950.6680565,0.2026215,-0.04448498,-0.042837586,-0.42597425,-0.6754019,-0.04783413,0.13134432,-0.031276315,0.07504009,-0.39164844
1738237950.67805,0.21490644,-0.040201284,-0.042545643,-0.472111,-0.6569062,-0.054464925,0.104389936,-0.0445887,0.07940842,-0.42585903
1738237950.6881754,0.21822725,-0.053500127,-0.035931136,-0.4980766,-0.627407,-0.062692136,0.062954515,-0.04879663,0.08798431,-0.47607678
1738237950.6989076,0.21800666,-0.061444342,-0.028434701,-0.50007164,-0.57373786,-0.060302168,0.07064186,-0.040667623,0.08329111,-0.47156462
1738237950.7098794,0.21904206,-0.060807023,-0.017210187,-0.48167607,-0.53454643,-0.055062804,0.057598896,-0.03791047,0.07856566,-0.4888971
1738237950.7206998,0.20816594,-0.06410316,-0.015370643,-0.4341893,-0.4988699,-0.052769672,0.037446983,-0.050766423,0.08075617,-0.5110579
1738237950.7308505,0.19370188,-0.06671065,-0.010785032,-0.39021033,-0.41670015,-0.05677181,0.043772157,-0.044471227,0.08281964,-0.48582408
1738237950.7419007,0.18272744,-0.07132838,-0.01196474,-0.33042017,-0.30180347,-0.045359958,0.06100695,-0.03379701,0.07175204,-0.43465382
1738237950.7537544,0.17933737,-0.08044016,-0.016954845,-0.29512444,-0.1594639,-0.028930813,0.043200787,-0.029765615,0.05803371,-0.36687568
1738237950.7632105,0.16883945,-0.07047893,-0.021895025,-0.25661808,-0.008428685,-0.019977838,0.045394823,-0.0109871235,0.04809534,-0.3087182
1738237950.773687,0.15097365,-0.048409272,-0.02136645,-0.23551285,0.10729178,-0.016446758,0.059353046,0.011490218,0.040984068,-0.25743574
1738237950.7839887,0.13458097,-0.0539531,-0.032900605,-0.19905718,0.20905477,-0.0030363519,0.03742471,0.022813141,0.04531798,-0.16657616
1738237950.796114,0.112686075,-0.0627576,-0.047038812,-0.16647704,0.31461978,0.022578295,0.036976624,0.03790386,0.05275033,-0.029436067
1738237950.80569,0.07603653,-0.06066211,-0.05478024,-0.11039514,0.4012108,0.022930544,0.029452553,0.055786625,0.07945204,0.05507227
1738237950.81716,0.06649473,-0.08683142,-0.058435746,-0.029481601,0.43115848,-0.026322195,-0.009625718,0.06489675,0.03743172,0.099316075
1738237950.8268805,0.11419916,-0.13193011,-0.077480644,0.0019362643,0.4980396,-0.05187592,-0.05095301,0.05714211,-0.054794196,0.17684315
1738237950.8380651,0.115944296,-0.1411369,-0.09693612,-0.026988942,0.5522036,-0.09421132,-0.060144708,0.050201766,-0.14035892,0.12443088
1738237950.849687,0.1352393,-0.12782668,-0.083797306,-0.038062107,0.5761435,-0.11511036,-0.04285489,0.035146907,-0.198979,0.0074956175
1738237950.8588412,0.14160964,-0.10357238,-0.051244635,-0.039086513,0.56047463,-0.12553063,-0.050954565,0.0083039375,-0.2667281,-0.10003703
1738237950.869673,0.12439586,-0.13737552,-0.0488537,-0.051750723,0.50411105,-0.15236841,-0.08452793,-0.026544688,-0.354439,-0.17856528
1738237950.8813162,0.115365036,-0.12659486,-0.043485094,-0.06262756,0.50126636,-0.16975132,-0.07757976,-0.032815762,-0.42303836,-0.24220654
1738237950.8913858,0.13334675,-0.13354908,-0.03703606,-0.05597427,0.4964288,-0.19246313,-0.09641037,-0.034683555,-0.46347076,-0.2906302
1738237950.9025917,0.15821001,-0.08755201,-0.02323526,-0.04286103,0.43521714,-0.19841787,-0.08686618,-0.027017435,-0.5028157,-0.34649223
1738237950.912977,0.16721314,-0.10802773,-0.027903281,-0.03338012,0.33276397,-0.20717345,-0.09948092,-0.027270025,-0.53821146,-0.3721687
1738237950.9231644,0.16137114,-0.08344337,-0.01527111,-0.03973131,0.2978164,-0.21442786,-0.06607053,-0.015998911,-0.5428299,-0.37856868
1738237950.9330583,0.16321802,-0.06944895,0.0025210767,-0.03794025,0.24810764,-0.21852659,-0.00878875,0.009489826,-0.53640896,-0.36924803
1738237950.9433825,0.17450812,-0.06536521,-2.3220433e-05,-0.031536955,0.13517323,-0.20555119,0.056248218,0.027800255,-0.50160015,-0.33884498
1738237950.9544194,0.15477009,-0.0734108,-0.012115266,-0.02885519,0.048509434,-0.19780378,0.1164577,0.068798885,-0.44471684,-0.23775789
1738237950.9658597,0.13306473,-0.07861715,-0.022037031,-0.017291522,0.01667115,-0.19328585,0.14326015,0.10564766,-0.38158214,-0.121046215
1738237950.9771166,0.10327399,-0.067592725,-0.028492562,-0.035072464,0.08844923,-0.18237428,0.1711916,0.11720968,-0.31012613,0.0017270539
1738237950.9865606,0.07121285,-0.04686662,-0.029466018,-0.05035927,0.16591004,-0.14603433,0.17025004,0.101122715,-0.22957121,0.10454418
1738237950.9980197,0.056944482,-0.028479405,-0.029942771,-0.04571958,0.21907336,-0.10863975,0.15500909,0.086579405,-0.16344397,0.14952154
1738237951.0085094,0.07838314,-0.024020448,-0.04277261,-0.028775744,0.21110842,-0.062327094,0.10773021,0.04728332,-0.118802994,0.11598423
1738237951.0194714,0.11931593,-0.0059727724,-0.052118793,-0.044380702,0.15370756,-0.033795252,0.08991549,0.03121949,-0.08877374,0.07560476
1738237951.0297687,0.13946633,0.014458942,-0.049633168,-0.05865986,0.014744662,0.011297538,0.030452458,-0.008974189,-0.04422665,0.012617951
1738237951.0430667,0.16267124,0.05070767,-0.043885097,-0.098271534,-0.17140159,0.011501695,0.074962564,-0.0058357613,-0.01044666,-0.06098503
1738237951.0501983,0.1607614,0.007888182,-0.049672816,-0.1467071,-0.35449165,0.015507366,0.09090023,0.012023012,0.015362121,-0.065959334
1738237951.0629115,0.18148577,-0.014278479,-0.041422565,-0.211084,-0.5196352,0.01655,0.09470829,0.005100549,0.03998905,-0.11870487
1738237951.0720248,0.17653981,-0.013909342,-0.03470182,-0.26592314,-0.6051777,-0.022630911,0.16989343,0.038410276,0.033960234,-0.17546113
1738237951.0844326,0.18709257,0.018361736,-0.042383477,-0.32021442,-0.6891422,-0.040117405,0.180965,0.03694053,0.030289564,-0.22813402
1738237951.0929837,0.20495193,-0.02044285,-0.04426576,-0.37788212,-0.6983475,-0.04270932,0.16132417,0.032543108,0.026003364,-0.23152924
1738237951.1037996,0.23337267,-0.030202895,-0.03956522,-0.42150903,-0.6860607,-0.035516933,0.14723295,0.01723427,0.018936597,-0.23634182
1738237951.1137848,0.25725937,-0.039343633,-0.03483211,-0.44205955,-0.6515697,-0.03014424,0.09853619,0.0029605846,0.0184386,-0.24345072
1738237951.1263685,0.2722154,-0.051226504,-0.009973088,-0.45641014,-0.60427976,-0.023168974,0.0399514,-0.012288649,0.019056037,-0.2573837
1738237951.1360486,0.26910484,-0.04751692,-0.0039008923,-0.4551116,-0.5269734,-0.025169445,0.0049015544,-0.022928024,0.021581631,-0.26414695
1738237951.1470842,0.26783124,-0.06876516,0.001808347,-0.40710965,-0.4640379,-0.017129743,-0.05022525,-0.04262381,0.019845568,-0.2806014
1738237951.1583803,0.24987741,-0.069691665,0.0067566065,-0.3675384,-0.3511822,-0.025572145,-0.01238475,-0.028056609,0.0066769756,-0.26649526
1738237951.1684341,0.23897232,-0.059266813,0.008008549,-0.33685306,-0.19201615,-0.017241172,-0.057430975,-0.04150243,-0.0006489605,-0.26557338
1738237951.1803772,0.2088625,-0.06435182,-0.007140969,-0.30974767,-0.028594593,-0.02510657,-0.027452648,-0.027475772,-0.01091579,-0.24060449
1738237951.1908367,0.19567326,-0.053967334,-0.005238337,-0.2921629,0.20074958,-0.023501985,0.030752381,0.005286919,-0.029214293,-0.18361737
1738237951.1994758,0.1857159,-0.023167308,-0.02309655,-0.27035946,0.3176657,-0.010791692,0.04522655,0.01820216,-0.029232636,-0.15061547
1738237951.2111723,0.16669089,-0.028539404,-0.029038666,-0.24330963,0.4669789,-0.0066941483,0.08098296,0.05093223,-0.028537098,-0.061219804
1738237951.222429,0.15256044,-0.0117470175,-0.05208249,-0.2214864,0.5953541,0.021793284,0.05885882,0.05494088,-0.021439187,0.021914488
1738237951.2326102,0.1148248,-0.029418595,-0.05854289,-0.19277997,0.72552806,0.03078093,0.0450596,0.067916624,0.0047691166,0.10571852
1738237951.242768,0.11525202,-0.06233704,-0.07174383,-0.15832753,0.8192543,0.037860036,0.039582003,0.07779933,0.009563442,0.12623006
1738237951.2527664,0.12517709,-0.11735244,-0.08117255,-0.10625776,0.9298654,-0.0065320265,-0.016179278,0.065954305,-0.06254682,0.08918952
1738237951.264786,0.12898092,-0.1866889,-0.1165118,-0.11423673,1.014111,-0.046687197,-0.08384966,0.042123504,-0.1444028,-0.017947286
1738237951.2756538,0.13959801,-0.1988285,-0.12247707,-0.13070665,1.1067871,-0.04713288,-0.080226205,0.018064,-0.21315727,-0.12693723
1738237951.2862847,0.100035444,-0.17957368,-0.10863759,-0.1453763,1.1367086,-0.06600336,-0.051552102,-0.018672764,-0.27618703,-0.23880984
1738237951.296074,0.07338809,-0.17838006,-0.090685286,-0.14615175,1.1484079,-0.10562965,-0.08374084,-0.028084481,-0.3308622,-0.3003935
1738237951.3087244,0.061444886,-0.18422759,-0.084532455,-0.14961596,1.1698389,-0.12739603,-0.089227535,-0.038935073,-0.37831143,-0.3457433
1738237951.3170142,0.058315672,-0.1703145,-0.08164374,-0.13998939,1.0980395,-0.16572422,-0.07711557,-0.036166057,-0.42468685,-0.3915661
1738237951.3275528,0.07255562,-0.15881994,-0.058769275,-0.13547902,0.99664134,-0.20069852,-0.052724965,-0.031079216,-0.4622852,-0.389837
1738237951.337414,0.079851925,-0.11107537,-0.035573464,-0.13830224,0.9225786,-0.21690123,-0.032662243,-0.03741864,-0.49043092,-0.38091588
1738237951.349134,0.07792251,-0.11566219,-0.03522137,-0.14579847,0.84295386,-0.23789941,-0.056668006,-0.032626383,-0.4977238,-0.36333084
1738237951.359324,0.083519176,-0.10023732,-0.026527056,-0.15975192,0.7569873,-0.23028763,-0.0138431415,-0.026153108,-0.48931888,-0.3209645
1738237951.3712327,0.08339614,-0.11323274,-0.021810625,-0.17334278,0.69653255,-0.22130738,0.0059526786,-0.014333673,-0.45267594,-0.19691043
1738237951.3817403,0.08239554,-0.08162393,-0.0094018895,-0.17942944,0.68962914,-0.20096956,0.018807888,0.0043318924,-0.41189566,-0.09239695
1738237951.391908,0.08094905,-0.0725404,-0.011062035,-0.17748593,0.6901057,-0.18761134,0.03529763,0.028120263,-0.36765793,-0.0026545878
1738237951.403353,0.061326362,-0.04949251,-0.013982309,-0.17894913,0.70104396,-0.1644093,0.048247214,0.040463433,-0.3054884,0.11393961
1738237951.414545,0.01512431,-0.038325023,-0.009252472,-0.17475088,0.7245508,-0.14515227,0.05028586,0.037110895,-0.23843962,0.25940937
1738237951.425375,0.0089962445,0.03245626,-0.008480543,-0.1553718,0.76658136,-0.10898708,0.090540946,0.038636193,-0.18997012,0.3256515
1738237951.4353478,0.013953507,0.03912642,-0.02043498,-0.14462757,0.7100631,-0.06506774,0.0811329,0.029021945,-0.15096796,0.38814315
1738237951.4468958,0.019930147,0.037094705,-0.03171759,-0.1372456,0.6166776,-0.014633657,0.05567519,0.010068128,-0.11712669,0.4038052
1738237951.4573803,0.06345595,0.040446576,-0.03314075,-0.13400327,0.38925833,0.021611191,0.07949457,0.017646965,-0.0797236,0.36143258
1738237951.4686854,0.10730371,0.064217284,-0.037214924,-0.13300459,0.025041863,0.031206928,0.154024,0.04642383,-0.052799195,0.28181434
1738237951.4774694,0.13170788,0.00020696875,-0.0461944,-0.16727142,-0.38231456,0.029664148,0.2181423,0.06752316,-0.03188824,0.22839028
1738237951.4891746,0.12692723,-0.046253197,-0.04164875,-0.21798606,-0.6147411,0.037291322,0.23130107,0.040282458,0.0013403185,0.18433067
1738237951.49938,0.1169169,-0.014714422,-0.02995224,-0.2657311,-0.7488783,0.0023383414,0.34128764,0.07917306,-0.019333344,0.12198609
1738237951.511143,0.12585819,-0.056459125,-0.03890367,-0.31069237,-0.8275203,-0.0006274041,0.28773805,0.03826444,-0.006242849,0.058248445
1738237951.5202553,0.12474778,-0.062537074,-0.031005954,-0.3716175,-0.8393158,-0.018947426,0.27782953,0.03412613,-0.013576686,0.033252798
1738237951.5318763,0.1615794,-0.06040167,-0.029971048,-0.4154281,-0.80964845,-0.014613422,0.2457155,0.021544721,-0.016750637,-0.018216264
1738237951.5413973,0.1988442,-0.015835587,-0.015648473,-0.4637759,-0.79333055,-0.021000173,0.21948826,0.031051764,-0.014168853,-0.07687786
1738237951.5535862,0.22385785,0.017678875,0.015152689,-0.5022085,-0.7324648,-0.02497252,0.15541619,0.022338409,-0.016609946,-0.10203052
1738237951.5642147,0.24621874,0.08418696,0.028749425,-0.53512514,-0.6872516,-0.03361726,0.093468845,0.0052630156,-0.010458378,-0.13480712
1738237951.5742786,0.24586818,0.07113125,0.028649712,-0.54989374,-0.5741517,-0.047844563,0.070680216,-0.008823838,-0.006495977,-0.16870745
1738237951.5841355,0.24616304,0.109223165,0.038749274,-0.5502298,-0.43758762,-0.060650572,0.08826694,-0.007926304,-0.0060933884,-0.18951863
1738237951.594722,0.23623073,0.11072815,0.051216614,-0.53819644,-0.31530264,-0.072009794,0.055106282,-0.026083352,-0.0033208188,-0.22436148
1738237951.6046844,0.23549345,0.11853735,0.048783097,-0.5135337,-0.15750612,-0.07399517,0.07178979,-0.032642767,-0.007397188,-0.22354448
1738237951.615498,0.23826975,0.1415357,0.058070652,-0.4708707,0.06390407,-0.053511407,0.07177759,-0.016082734,-0.027500413,-0.13942826
1738237951.6259475,0.23749612,0.14788307,0.054008033,-0.41640675,0.2771287,-0.02098807,0.055396914,-0.008597931,-0.018007923,-0.0890985
1738237951.6369908,0.22570004,0.08910788,0.025793226,-0.38634995,0.42103234,0.0033307886,0.043860078,0.00436986,-0.01611764,-0.00054391474
1738237951.6493583,0.21215433,0.0925127,0.019439703,-0.35931826,0.5530231,0.035423763,0.051892754,0.03148499,0.010216109,0.045164965
1738237951.6590917,0.17322388,0.09105863,0.012457522,-0.33692515,0.6844399,0.04430923,0.07195726,0.062485687,0.06742728,0.08159901
1738237951.6700237,0.15737405,0.075042434,0.0033115358,-0.3052073,0.8400863,0.09472861,0.06964897,0.07175669,0.13965726,0.13152672
1738237951.6799302,0.10432689,0.054246444,-0.013395557,-0.2640432,1.017158,0.10294659,0.07924477,0.069311336,0.20901169,0.17082642
1738237951.6907718,0.04782004,-0.079838246,-0.05520439,-0.19861819,1.140138,0.028833777,0.009674206,0.05274588,0.15499377,0.1884056
1738237951.701039,0.08752982,-0.20360613,-0.1139936,-0.1613051,1.194007,-0.02586164,-0.05272875,0.036833808,-0.016047774,0.10911894
1738237951.7113035,0.1727938,-0.24836199,-0.13930927,-0.14396074,1.1980122,-0.037933055,-0.06291998,0.029070403,-0.16609831,-0.07513899
1738237951.7212703,0.14617202,-0.22368385,-0.118882135,-0.14905037,1.2006333,-0.050786708,-0.011066116,0.008116402,-0.2290539,-0.25144264
1738237951.7323134,0.087583676,-0.20976357,-0.09049889,-0.1541918,1.1240735,-0.076287016,0.08483259,-0.03695081,-0.30972192,-0.391929
1738237951.7430365,0.046825435,-0.19619523,-0.04927637,-0.16767888,1.098992,-0.11707207,0.06796866,-0.05298648,-0.38773397,-0.43614268
1738237951.7548487,0.04612118,-0.17956996,-0.0326959,-0.16718493,1.0131036,-0.16155058,0.07692358,-0.06113445,-0.43883753,-0.47735268
1738237951.7654955,0.0565401,-0.12659113,-0.044163663,-0.16430888,0.8427427,-0.18749173,0.09373669,-0.03633005,-0.47503394,-0.48984239
1738237951.777175,0.055654734,-0.08514968,-0.016017472,-0.1656857,0.6241802,-0.20771563,0.05964091,-0.020971201,-0.47796276,-0.41127017
1738237951.7883246,0.069866,-0.027325917,-0.0048714075,-0.16999283,0.4436434,-0.18830213,0.05788151,0.0002987152,-0.47532338,-0.29942077
1738237951.7988327,0.067559935,0.0033865543,-0.0011099684,-0.18677953,0.2768115,-0.16559955,0.040744912,0.018370882,-0.42001763,-0.15902516
1738237951.8145568,0.07139012,0.06002522,0.018436398,-0.20426613,0.094923474,-0.11819595,0.099848434,0.039360605,-0.34706932,-0.051266957
1738237951.8254688,0.06130254,0.03491712,0.007879201,-0.23528844,0.039581902,-0.08965252,0.14706765,0.060083136,-0.22709085,0.116826296
1738237951.8348916,0.031135643,-0.012447292,-0.0021129593,-0.2390228,0.080285065,-0.08267425,0.16479626,0.106355414,-0.1281932,0.24564892
1738237951.8458915,0.012175135,-0.0033813557,-0.011169415,-0.24213542,0.21428612,-0.08308171,0.21420985,0.1044012,-0.08395676,0.36506087
1738237951.855351,0.08070481,0.02098674,-0.032669734,-0.22567523,0.18481112,-0.012719041,0.17824814,0.06961004,-0.05592733,0.39729878
1738237951.8670077,0.1028954,0.03197096,-0.039365817,-0.2252284,0.098239265,0.025006156,0.16834837,0.043962993,-0.0329782,0.32299584
1738237951.876822,0.14956167,0.0666256,-0.03334836,-0.25089312,-0.03256855,0.05903438,0.09263334,-0.0018885089,-0.022329662,0.23639706
1738237951.8872123,0.18144667,0.055763606,-0.043169804,-0.2825081,-0.19953415,0.05983929,0.023789449,-0.00831412,-0.005283978,0.12962261
1738237951.8979883,0.15311474,-0.035951715,-0.027709583,-0.3066545,-0.3006265,0.054428067,-0.01085975,-0.041139454,0.018961102,0.058921278
1738237951.909437,0.1535687,0.02340727,-0.017581845,-0.3550275,-0.40716708,0.023382172,0.004741531,-0.067396924,0.046645734,-0.06720594
1738237951.921194,0.1330404,0.03667271,0.0043994333,-0.36399782,-0.463117,-0.023243587,0.09852363,-0.04138396,0.04993594,-0.12796046
1738237951.9308348,0.14996152,0.052313287,0.010755379,-0.400875,-0.5099529,-0.030976325,0.12757601,-0.04372786,0.035802703,-0.1791436
1738237951.9425497,0.1677811,0.018883664,-0.010016656,-0.44628316,-0.5329048,-0.03243244,0.11086513,-0.058576807,0.03349441,-0.2360406
1738237951.953087,0.18069832,0.03213426,-0.0024608516,-0.493871,-0.56772274,-0.048649274,0.15938836,-0.039187476,0.025890317,-0.28233713
1738237951.9628499,0.2070591,0.050605733,0.008950189,-0.5269128,-0.5497757,-0.05609201,0.18058401,-0.019010149,0.010880891,-0.27301875
1738237951.9739645,0.23194478,0.059011098,0.0316562,-0.5462283,-0.5138297,-0.046536468,0.12997895,-0.01651691,0.0048309416,-0.2797347
1738237951.983775,0.24437813,0.020563565,0.020275723,-0.5571928,-0.4441579,-0.055658348,0.13832009,-0.014268313,-0.0013766475,-0.2937353
1738237951.9938564,0.25505704,0.039117415,0.025988694,-0.55930793,-0.39150956,-0.053048383,0.11826936,-0.02095944,0.0024564825,-0.3100127
1738237952.0048952,0.25065422,0.06369072,0.03379869,-0.5558939,-0.30686903,-0.06259884,0.11828502,-0.012947898,0.008622669,-0.30107597
1738237952.0150445,0.24742652,0.080478266,0.043451864,-0.54466856,-0.21516502,-0.056712866,0.104229525,-0.014954405,0.013815697,-0.29298395
1738237952.0259788,0.24183707,0.0831968,0.031611748,-0.5311396,-0.11785525,-0.052669685,0.08754805,-0.014465464,0.011647545,-0.27547193
1738237952.0365689,0.25011587,0.073968336,0.034803353,-0.49764544,0.035922915,-0.032228995,0.07869843,-0.0037168683,0.010607723,-0.21847701
1738237952.0480769,0.23699442,0.07039272,0.026752988,-0.4734843,0.10044644,-0.023096668,0.062087584,-0.0052613225,0.028598797,-0.21407221
1738237952.0583827,0.22474405,0.037720606,0.0046993457,-0.4366065,0.18514496,-0.011675126,0.02258943,-0.004324983,0.060948055,-0.20057018
1738237952.069502,0.20958593,0.018117797,-0.0047314903,-0.406141,0.30243534,0.009780261,0.015619889,0.0070858574,0.086749345,-0.19302838
1738237952.0797033,0.18606386,0.0077828346,-0.02752332,-0.36497098,0.42867196,0.037332032,0.0021253154,0.0150306,0.14064783,-0.16830072
1738237952.0909185,0.14412422,0.018272862,-0.04427303,-0.3336285,0.5303854,0.037585072,0.0030354895,0.025864052,0.20776415,-0.15044849
1738237952.1013446,0.108089685,0.0072666397,-0.0664332,-0.28569677,0.64086324,0.043884967,-0.014890701,0.026667934,0.26237732,-0.113373384
1738237952.1118844,0.08884407,-0.052571982,-0.07938244,-0.20364161,0.75046617,0.005134483,-0.0723849,0.03476586,0.17756814,0.0091023315
1738237952.124194,0.13099751,-0.13668376,-0.103636794,-0.13657701,0.86950254,-0.039463125,-0.11835996,0.03672451,-0.030493608,0.08776065
1738237952.1340759,0.19154161,-0.14773709,-0.12165529,-0.1497101,0.93380886,-0.024964236,-0.095233135,0.03576982,-0.164554,-0.0052217618
1738237952.1438036,0.1786954,-0.15690692,-0.10832316,-0.16520308,0.9033993,-0.048983987,-0.061355464,0.0041216495,-0.21938303,-0.103021495
1738237952.1552289,0.15168521,-0.10417782,-0.052291676,-0.15605694,0.8877157,-0.05669098,-0.036348462,-0.029747201,-0.29497728,-0.18888438
1738237952.1649086,0.12880361,-0.07790097,-0.013265543,-0.14899886,0.8551481,-0.090333186,-0.061684318,-0.04576382,-0.3732702,-0.24943618
1738237952.1772742,0.13732341,-0.07355215,-0.011081746,-0.13260019,0.7705594,-0.12917362,-0.055149794,-0.037213378,-0.4468888,-0.31297252
1738237952.1879528,0.1544436,-0.07202911,-0.002567572,-0.10620502,0.6882172,-0.15730368,-0.07843744,-0.026536899,-0.50839424,-0.34728894
1738237952.198599,0.16776823,-0.06435796,0.0019649467,-0.09024394,0.59382725,-0.17232716,-0.09268417,-0.01534432,-0.5566424,-0.35595363
1738237952.2101355,0.1630584,-0.078714415,-0.005690911,-0.086960375,0.50249374,-0.19382839,-0.109945215,-0.01266492,-0.5752587,-0.37930724
1738237952.2199316,0.17200749,-0.10541473,-0.007121608,-0.08940446,0.39049777,-0.20170677,-0.069881715,-0.0052491343,-0.57501346,-0.39446464
1738237952.2310553,0.17474745,-0.1440993,-0.0056774467,-0.106233925,0.32872975,-0.20227043,0.003901355,0.00021367054,-0.5462362,-0.36466587
1738237952.2407975,0.17779581,-0.0996686,0.008052064,-0.111822374,0.2823872,-0.18927094,0.039483417,0.0110678775,-0.51352143,-0.3320635
1738237952.2532465,0.17400351,-0.104545,-0.00666115,-0.111412,0.22627789,-0.16533184,0.05950682,0.026844926,-0.4569099,-0.2583206
1738237952.2635095,0.16871697,-0.094473094,-0.016327731,-0.11190141,0.14465955,-0.13723671,0.09102665,0.04833691,-0.38248196,-0.17999154
1738237952.2740707,0.116467945,-0.057602447,-0.017238643,-0.10537667,0.068136536,-0.12683237,0.13819161,0.08177055,-0.26558027,-0.06623384
1738237952.2847638,0.08393261,-0.042025283,-0.019742182,-0.08807861,0.10297582,-0.09688281,0.16632566,0.0859599,-0.1687726,0.033074208
1738237952.2938585,0.090858884,-0.013333866,-0.0266756,-0.07724864,0.17025036,-0.079291955,0.20726126,0.09245711,-0.11687353,0.059047163
1738237952.3047228,0.120575905,-0.0053455606,-0.04233084,-0.07952662,0.17805737,-0.025817301,0.18675953,0.056974053,-0.07368762,0.030029343
1738237952.3156886,0.12767686,0.0077814935,-0.06136329,-0.09602372,0.07442928,0.0030561006,0.15321323,0.040723562,-0.038552992,-0.05192935
1738237952.3256013,0.16897461,0.020061795,-0.05941966,-0.12272718,-0.08342889,0.049351264,0.060531043,-0.02173296,0.02675078,-0.16064665
1738237952.3358874,0.17065015,0.027819768,-0.058266804,-0.19505821,-0.24224982,0.038459346,0.038932644,-0.020569246,0.07717569,-0.23459527
1738237952.3476062,0.18341464,-0.009798966,-0.06741025,-0.258649,-0.33653057,0.026716646,0.0011062883,-0.035644166,0.1117596,-0.31153676
1738237952.3586683,0.19185758,-0.0068159653,-0.051893074,-0.31989282,-0.42413464,-0.039537814,0.09244885,-0.0030272175,0.11688286,-0.41850024
1738237952.367719,0.19812603,0.030721016,-0.0486197,-0.3730842,-0.49523568,-0.07057495,0.11345725,-0.009522174,0.124188125,-0.4922557
1738237952.3788054,0.19039297,0.033800658,-0.039827026,-0.43245226,-0.5714664,-0.086273566,0.18835828,-0.0027017817,0.1050933,-0.52450585
1738237952.3879097,0.21551716,-0.005921883,-0.046692707,-0.4843053,-0.5889125,-0.061605662,0.16405593,-0.019962272,0.091134354,-0.4978012
1738237952.4002297,0.23392229,-0.003698255,-0.054754313,-0.52245414,-0.6008202,-0.05271731,0.1975945,-0.02317041,0.090012714,-0.5174908
1738237952.4097862,0.2343413,-0.023373697,-0.045279805,-0.5551034,-0.62081057,-0.060575277,0.13120306,-0.037369765,0.09881885,-0.55834454
1738237952.420833,0.2295243,-0.014017743,-0.025439875,-0.57086253,-0.6008509,-0.064601,0.091777936,-0.041927986,0.10015902,-0.54783875
1738237952.430554,0.22483669,-0.041858524,-0.022142617,-0.54780626,-0.5051178,-0.05025317,0.07062602,-0.044295885,0.087320894,-0.52269834
1738237952.4414651,0.22606489,-0.048740804,-0.020382363,-0.48969328,-0.4521898,-0.038969062,0.063795045,-0.039096452,0.0726136,-0.5174876
1738237952.452763,0.21732853,-0.058211062,-0.019697525,-0.43015224,-0.40091965,-0.04265904,0.02972372,-0.037981384,0.07850818,-0.5185819
1738237952.463042,0.19591044,-0.0463275,-0.019243818,-0.35295054,-0.3248412,-0.043067534,0.032080952,-0.029265875,0.08505547,-0.5090306
1738237952.474772,0.17416471,-0.03694469,-0.02034973,-0.28845087,-0.19834837,-0.031432558,0.042607896,-0.008112585,0.09162657,-0.45615608
1738237952.4842107,0.18458976,-0.05353161,-0.02661359,-0.2576042,-0.056841847,-0.0048664827,0.03746666,0.003051069,0.0884978,-0.34731963
1738237952.4949021,0.16825755,-0.05684452,-0.039550956,-0.23148611,0.05847478,0.0018928843,0.055139072,0.016487077,0.09192118,-0.2879559
1738237952.5075595,0.12518458,-0.02887521,-0.03607429,-0.18749954,0.15791178,-0.009503474,0.08491193,0.032872252,0.1137203,-0.26646703
1738237952.5168583,0.0874276,-0.022549715,-0.03837947,-0.14816704,0.2641989,-0.004470202,0.053545672,0.0350639,0.12959816,-0.20421313
1738237952.5266104,0.063995935,-0.052427668,-0.041988324,-0.080109045,0.42782187,0.012079268,0.035141088,0.037577473,0.10699105,-0.038511146
1738237952.5379817,0.09043321,-0.13336143,-0.063623376,-0.022395978,0.5297535,-0.025234062,-0.016233593,0.04075355,-0.006754106,0.132926
1738237952.5483162,0.11136718,-0.17608894,-0.08698037,-0.03726883,0.67068875,-0.07611476,-0.07918737,0.0437193,-0.121016085,0.20228933
1738237952.5588686,0.11097822,-0.10223798,-0.08571979,-0.060111206,0.7450427,-0.077693306,-0.06291371,0.051769488,-0.18660004,0.06142199
1738237952.5678337,0.12665826,-0.09876048,-0.07155163,-0.057755567,0.6458143,-0.09142945,-0.05321119,0.024086606,-0.2381294,-0.04980489
1738237952.579631,0.13771692,-0.14613177,-0.07168978,-0.07472785,0.5845186,-0.11662477,-0.06937073,-0.0015252875,-0.30236498,-0.123904295
1738237952.5902855,0.12668884,-0.21767506,-0.0936906,-0.10010416,0.6179348,-0.1464466,-0.1125303,-0.01560602,-0.36787984,-0.16882543
1738237952.602085,0.10804822,-0.11567312,-0.06540472,-0.088968836,0.6261889,-0.1759638,-0.12410482,-0.02534311,-0.4264623,-0.27537143
1738237952.6119666,0.11347973,-0.06592845,-0.03482177,-0.055633724,0.52920675,-0.20226267,-0.1571137,-0.027357263,-0.48634756,-0.31510407
1738237952.622207,0.12515913,-0.17590629,-0.057747588,-0.05696567,0.5265688,-0.21764915,-0.16952237,-0.026856476,-0.5006539,-0.27469698
1738237952.6319325,0.13029025,-0.13306816,-0.029127918,-0.053114057,0.5004001,-0.23762405,-0.12221972,-0.012818415,-0.5299973,-0.31113955
1738237952.6438427,0.16198725,-0.107940935,-0.011602936,-0.04020224,0.40773576,-0.23305951,-0.077425055,-0.012942962,-0.5525208,-0.37593448
1738237952.6535347,0.1423922,-0.1228469,-0.0017826594,-0.050426528,0.3091819,-0.23298794,-0.069315605,-0.028399324,-0.5371968,-0.37691638
1738237952.666818,0.11991441,-0.14528349,-0.0142539535,-0.06195156,0.29700094,-0.22483405,-0.02817747,0.003131697,-0.5003911,-0.28746936
1738237952.6753423,0.11038658,-0.14909044,-0.0017852818,-0.051077053,0.2950854,-0.22124922,0.06701594,0.050644442,-0.4546399,-0.18507947
1738237952.6854954,0.085254624,-0.14220643,-0.007151126,-0.046803974,0.26615766,-0.22055335,0.13956797,0.07322618,-0.39329323,-0.09380385
1738237952.6950154,0.05407259,-0.12836179,-0.0037361332,-0.036009178,0.20189402,-0.18317504,0.13842218,0.06742366,-0.31320176,0.0047843736
1738237952.7065585,0.009872116,-0.108203314,-0.010424547,-0.018826494,0.22043368,-0.14322756,0.12469122,0.08146204,-0.23645048,0.07356781
1738237952.716283,-0.020244926,-0.08885076,-0.030905562,-0.009903397,0.3971555,-0.1374077,0.13138372,0.0985827,-0.179646,0.16645311
1738237952.7278252,-0.036650844,-0.07498182,-0.030304303,0.001857819,0.480173,-0.09691129,0.15412691,0.07425782,-0.13597824,0.19751634
1738237952.738225,-0.023064353,-0.006046565,-0.026176449,0.033291228,0.44888365,-0.047927804,0.13834944,0.041281857,-0.09534897,0.13467233
1738237952.7480223,0.03589157,-0.0056594303,-0.044464774,0.003386652,0.29224405,0.008216602,0.09490903,0.02087382,-0.03698818,0.07447353
1738237952.7590163,0.06300922,-0.032366503,-0.048725437,-0.04627316,0.04504308,0.029456194,0.11176226,0.033774026,0.00022904202,0.052474856
1738237952.7705114,0.11872463,-0.003329535,-0.04733209,-0.10672024,-0.29388088,0.044513617,0.16853873,0.038452677,0.038188394,0.00390096
1738237952.779549,0.12806651,0.01486021,-0.031540178,-0.16739401,-0.5360959,-0.019151825,0.34200028,0.13556145,0.037155684,-0.08386171
1738237952.7905369,0.13435604,0.026506718,-0.05516296,-0.25659257,-0.70688444,-0.043441802,0.3258437,0.106510766,0.033869322,-0.14741777
1738237952.80067,0.14670396,-0.029731765,-0.04950825,-0.34118935,-0.7868132,-0.039197788,0.2608345,0.0609788,0.03599729,-0.19145857
1738237952.812759,0.18287092,-0.07705239,-0.051091634,-0.41314483,-0.7388857,-0.036325123,0.23343313,0.02809408,0.043786798,-0.24773233
1738237952.8233888,0.20426667,-0.010836663,-0.049515735,-0.47696573,-0.72486514,-0.04387824,0.21223786,0.017041245,0.05078719,-0.3002817
1738237952.8334956,0.23217015,-0.023563966,-0.021938814,-0.51646256,-0.6890624,-0.033396006,0.13424648,0.0011233981,0.048583414,-0.29032975
1738237952.843864,0.25720364,-0.04460585,-0.021995472,-0.5217756,-0.6643591,-0.02486981,0.06767514,-0.01967862,0.04715017,-0.28527477
1738237952.8554313,0.25286877,-0.06482743,-0.023503864,-0.4916629,-0.60600936,-0.028957423,0.02622906,-0.038506776,0.041104596,-0.29442158
1738237952.8655424,0.24426584,-0.060966346,0.012594368,-0.43041462,-0.5496722,-0.0342578,-0.004526563,-0.039097823,0.019910723,-0.28948182
1738237952.877428,0.21284424,-0.07017874,0.012871567,-0.37729707,-0.4700038,-0.04667838,-0.04202888,-0.05688087,0.0059006587,-0.31441617
1738237952.886443,0.1886185,-0.099640705,-0.0055857636,-0.2980364,-0.28605998,-0.04782381,-0.03867378,-0.05146472,-0.01962728,-0.328363
1738237952.896446,0.17377299,-0.11852103,-0.020103691,-0.2431532,0.04376886,-0.03288452,-0.023663238,-0.025272677,-0.057775516,-0.27079168
1738237952.9074686,0.17232203,-0.09973188,-0.039198097,-0.21077237,0.29443336,-0.007932855,-0.0125022605,-0.011493431,-0.083479024,-0.16994107
1738237952.9175098,0.15157259,-0.08767059,-0.038834933,-0.16755478,0.46029657,-0.0033595767,0.0014117919,0.02342723,-0.10284236,-0.10238388
1738237952.9269052,0.13115679,-0.042358987,-0.03252981,-0.12442676,0.61309934,0.005638524,0.04383711,0.07118892,-0.10981789,-0.035224162
1738237952.9383957,0.115367346,-0.053481475,-0.053864386,-0.12489322,0.7491673,0.024285972,0.016914513,0.081024304,-0.10106899,0.047465846
1738237952.9497337,0.08376995,-0.11493945,-0.070167586,-0.09884012,0.85564375,0.010177695,0.009313598,0.0819698,-0.08782555,0.07126604
1738237952.960006,0.08567764,-0.15954132,-0.076426566,-0.03557034,0.9467128,-0.044836853,-0.019776613,0.06414464,-0.15024191,-0.017301459
1738237952.9698586,0.14406878,-0.1550893,-0.08693542,-0.026980944,0.92785525,-0.046943743,-0.04470691,0.04296509,-0.18977214,-0.1748445
1738237952.9801836,0.124505825,-0.13282932,-0.073962055,-0.06458915,0.95468205,-0.062140826,-0.04899752,0.02141886,-0.25331047,-0.21004896
1738237952.9900901,0.09384081,-0.12229028,-0.07220309,-0.083992064,0.97158235,-0.10007851,-0.0464134,-0.011834418,-0.31083268,-0.24294524
1738237953.0013294,0.07514717,-0.13643472,-0.06503089,-0.08874106,0.98139936,-0.1487346,-0.10616035,-0.020060668,-0.37180632,-0.2908176
1738237953.0117836,0.0787888,-0.13694729,-0.062142715,-0.09164564,1.0039723,-0.15943445,-0.12967834,-0.027369926,-0.4114052,-0.33844715
1738237953.0223064,0.07918336,-0.104330234,-0.06266088,-0.102746904,0.94540936,-0.16834351,-0.11741149,-0.0444936,-0.45576656,-0.3737276
1738237953.033099,0.098061845,-0.09952773,-0.05695284,-0.10150305,0.84381044,-0.20350695,-0.12783104,-0.030777277,-0.49888852,-0.36344463
1738237953.0451238,0.13443086,-0.07459377,-0.020412438,-0.09690413,0.7603228,-0.21429335,-0.05112268,-0.01958042,-0.53885204,-0.35762691
1738237953.05544,0.13816765,-0.05924123,-0.01478802,-0.10221127,0.6061082,-0.22392103,-0.020538464,-0.028251959,-0.54609096,-0.35136628
1738237953.0668278,0.15559354,-0.06883059,-0.024607938,-0.10739815,0.4241828,-0.1993961,0.003539417,-0.015124286,-0.5343008,-0.29560152
1738237953.0775244,0.16961303,-0.08030218,-0.020570999,-0.118527904,0.34509385,-0.1719995,0.064634405,0.013553785,-0.4907611,-0.18786922
1738237953.087393,0.15449148,-0.0760731,-0.013980869,-0.12976262,0.29998446,-0.17085,0.13302097,0.06236972,-0.42577678,-0.06401683
1738237953.099146,0.12628308,-0.058807977,-0.016232809,-0.12851727,0.294497,-0.18554214,0.18527377,0.10353562,-0.35581926,0.053902112
1738237953.1089046,0.088634625,-0.012372997,-0.020467022,-0.13828395,0.2790391,-0.17134881,0.21271515,0.1094709,-0.26127684,0.16087033
1738237953.1204526,0.062362447,-0.00088691805,-0.028140502,-0.14115757,0.278314,-0.155285,0.24522895,0.11902711,-0.18800962,0.24988839
1738237953.1300077,0.09216292,0.02070377,-0.030180033,-0.12884158,0.2644094,-0.121194355,0.2772457,0.10578011,-0.1678209,0.2695913
1738237953.1420753,0.15246302,0.030344654,-0.046360686,-0.12814313,0.11937337,-0.06854107,0.23136568,0.07667923,-0.13899174,0.2383514
1738237953.1520715,0.17420462,0.034868676,-0.059694026,-0.1405079,-0.10395469,-0.03148954,0.13826823,0.044236235,-0.10973404,0.18184145
1738237953.1631782,0.17285535,0.035565194,-0.057772674,-0.16961554,-0.3043292,-0.015985243,0.111593045,0.016505895,-0.069057345,0.124317035
1738237953.1750898,0.14335033,0.032760598,-0.047733154,-0.19799371,-0.42439634,-0.060922407,0.21589097,0.05811277,-0.057162568,0.07091353
1738237953.1850362,0.152884,0.06933377,-0.033668365,-0.2254406,-0.46834797,-0.09932644,0.3097792,0.074726745,-0.08185348,0.0149325
1738237953.1960905,0.15986043,0.031806298,-0.026250398,-0.2777204,-0.524545,-0.090270236,0.27466184,0.041527063,-0.081242144,-0.04594277
1738237953.2053957,0.14992334,-0.0074223545,-0.044317223,-0.3453076,-0.5682882,-0.10746703,0.24903148,0.04328008,-0.07194572,-0.13316329
1738237953.2179914,0.16981146,0.007594784,-0.045784134,-0.41435546,-0.61699253,-0.117988534,0.23356622,0.033680975,-0.05600455,-0.19236553
1738237953.2280931,0.1887156,0.020818248,-0.03241879,-0.47210386,-0.6308724,-0.12252136,0.25084433,0.055200785,-0.06285834,-0.1856617
1738237953.2383273,0.22439662,0.01949548,-0.014965864,-0.5169046,-0.6381395,-0.11353955,0.21813971,0.047989525,-0.06700236,-0.18182263
1738237953.248616,0.24625339,0.0073347418,-0.009171357,-0.55022085,-0.62516046,-0.108666286,0.1549518,0.025916215,-0.063494556,-0.21006623
1738237953.2603388,0.25249448,-0.007730471,-0.010152083,-0.56468093,-0.56193864,-0.11428576,0.12716779,0.026011994,-0.05828165,-0.21237493
1738237953.272529,0.25678816,0.00584888,0.0025804206,-0.56858146,-0.500668,-0.1062916,0.08925734,0.013263881,-0.049535602,-0.22768568
1738237953.2825754,0.24872644,0.008069403,0.009897465,-0.5605421,-0.41152987,-0.10063845,0.08109087,0.0073625715,-0.04394005,-0.23356007
1738237953.2940476,0.24168271,0.03272434,0.012695087,-0.5388802,-0.29030314,-0.09879418,0.10916919,0.015552586,-0.04213972,-0.2405407
1738237953.3053267,0.23870474,0.030324835,0.017273765,-0.5120284,-0.16654077,-0.090045966,0.08623484,0.01206092,-0.041690186,-0.23134735
1738237953.3173037,0.23603538,0.0334685,0.017228391,-0.47857705,-0.026583288,-0.0770934,0.07530589,0.010630591,-0.042626817,-0.17889659
1738237953.3260226,0.23033383,0.035660483,0.008870369,-0.43955827,0.10374593,-0.058650818,0.0726133,0.019062635,-0.047274757,-0.13742462
1738237953.3368454,0.22965221,0.033361275,0.0048628594,-0.39310595,0.23480353,-0.028675722,0.05053201,0.03915584,-0.04462599,-0.09281823
1738237953.3455782,0.21057606,0.014668436,0.0010248772,-0.35765794,0.38023457,-0.0033732643,0.03643439,0.05407963,-0.031072928,-0.04567237
1738237953.3576674,0.17553897,0.028960552,-0.007863365,-0.3291042,0.5218041,0.01791311,0.059716128,0.066049814,0.01734659,-0.0129300505
1738237953.3666468,0.13819584,0.034797836,-0.019034578,-0.30069873,0.63961506,0.025176436,0.06805957,0.07579225,0.08466785,-0.0085073225
1738237953.378407,0.10445572,0.030114923,-0.023202835,-0.25961447,0.79201037,0.050466035,0.06255706,0.07572544,0.15565787,0.013306936
1738237953.3887432,0.064897634,-0.003055106,-0.037720863,-0.20348969,0.94406337,0.023012143,0.03490898,0.067271054,0.15462315,0.04386972
1738237953.399009,0.070725374,-0.11776342,-0.07562812,-0.13975757,1.0692877,-0.050510943,-0.05121856,0.04829976,0.008697301,0.047987692
1738237953.410292,0.12587757,-0.19615516,-0.11985561,-0.14989853,1.0638413,-0.057506286,-0.05871802,0.015823686,-0.14471732,-0.06895005
1738237953.4213173,0.13010904,-0.21866286,-0.117276505,-0.1621501,1.0705177,-0.06536479,-0.028458387,-0.005131835,-0.2167422,-0.18252446
1738237953.4316893,0.09288874,-0.12633695,-0.05415234,-0.15610702,1.0329672,-0.08524983,0.021709628,-0.026949288,-0.28974572,-0.32125616
1738237953.4425,0.07633552,-0.12680341,-0.04306903,-0.16078548,1.0040339,-0.115119144,-0.0011613853,-0.051492065,-0.36235735,-0.37571993
1738237953.452587,0.07118227,-0.1721172,-0.046411693,-0.16370158,0.922368,-0.17813349,-0.02344986,-0.04478067,-0.42107335,-0.3884555
1738237953.4634824,0.08051126,-0.15164201,-0.031985946,-0.15625437,0.8151594,-0.20627081,0.0017274544,-0.038653918,-0.47017735,-0.41061062
1738237953.4735296,0.08914534,-0.086639024,-0.0072341654,-0.14636338,0.65539974,-0.21541671,-0.0069225766,-0.030135175,-0.50473875,-0.42415327
1738237953.4852517,0.09662409,-0.08298102,-0.008805861,-0.15323724,0.50647205,-0.20896132,0.005075734,-0.011674341,-0.5067648,-0.39906767
1738237953.4950774,0.11358478,-0.08493458,-0.014187533,-0.16441342,0.3805384,-0.19777381,0.030173669,0.005640956,-0.49029413,-0.32885948
1738237953.5051668,0.11216256,-0.08801774,-0.0066959457,-0.17774954,0.27419758,-0.18595845,0.04826742,0.018099185,-0.4411735,-0.23198426
1738237953.5155072,0.10378812,-0.030829974,0.008179452,-0.20595843,0.25177756,-0.1666874,0.069183074,0.027586779,-0.37213433,-0.1204786
1738237953.5271902,0.07853648,-0.017371222,0.011045033,-0.22358774,0.21512684,-0.13782346,0.10695122,0.06383045,-0.2803576,0.049406365
1738237953.5376358,0.051733635,-0.041436616,-0.007135071,-0.21746416,0.26535457,-0.1325494,0.12270717,0.09661097,-0.20886609,0.15254334
1738237953.5489275,0.01835344,-0.055613715,-0.017647984,-0.21721429,0.36106467,-0.11155267,0.11474241,0.0823408,-0.13431631,0.26636544
1738237953.5591977,0.038379703,-0.010585135,-0.019542024,-0.20367737,0.40500736,-0.07177069,0.11965911,0.048559487,-0.102336735,0.32294282
1738237953.5694234,0.06182823,0.033978768,-0.028666807,-0.19112016,0.37735033,-0.021284,0.08409549,0.015256067,-0.08357827,0.29430044
1738237953.5802042,0.09348725,0.028863348,-0.043427665,-0.1954444,0.31251267,0.030122235,0.03147953,-0.009755682,-0.05768136,0.23974884
1738237953.5908813,0.12973374,0.0031283898,-0.05397264,-0.2030278,0.15283409,0.064029045,-0.020058952,-0.03835708,-0.026301503,0.1370989
1738237953.6000826,0.14553478,0.015906248,-0.031878438,-0.23018472,-0.09515528,0.056153517,0.027802547,-0.038587414,1.744181e-05,0.026901262
1738237953.6110942,0.13107008,-0.0010527223,-0.020189658,-0.25277585,-0.3068559,0.018551625,0.121338785,-0.014298396,0.019910127,-0.05040703
1738237953.6219468,0.13975734,-0.008373452,-0.020966595,-0.2795955,-0.4374324,-0.0033919644,0.15465741,-0.015836975,0.037885297,-0.13243903
1738237953.6335375,0.13827763,-0.0328844,-0.025259215,-0.3227626,-0.5293854,-0.019966137,0.20280823,-0.009562673,0.03646997,-0.16795574
1738237953.6446526,0.15132388,-0.045001026,-0.031544622,-0.3628416,-0.5981093,-0.0209686,0.19844517,-0.016836194,0.040233757,-0.20323214
1738237953.654662,0.16873392,-0.063147336,-0.035012096,-0.41920486,-0.6521624,-0.021573855,0.18303403,-0.021497967,0.050264504,-0.24656962
1738237953.6658523,0.19749352,-0.08217909,-0.026144475,-0.4587389,-0.6235657,-0.019127233,0.15714176,-0.032327667,0.04400826,-0.23421462
1738237953.675884,0.22081593,-0.083407156,-0.0209739,-0.47596002,-0.5639888,-0.013838303,0.12868285,-0.030573165,0.03781565,-0.26601973
1738237953.6871343,0.23424163,-0.069740735,-0.0039177667,-0.47097543,-0.5019256,-0.015314089,0.08861072,-0.03398528,0.030408736,-0.2557655
1738237953.6974568,0.24108413,-0.030377358,0.01668874,-0.46003696,-0.4373099,-0.017823426,0.06000046,-0.0395367,0.022664879,-0.25510597
1738237953.710245,0.23064317,-0.009185661,0.018194832,-0.43366876,-0.37884662,-0.022135187,0.030769436,-0.04890696,0.021665368,-0.29011834
1738237953.720206,0.21913356,-0.0090416595,0.019202719,-0.41803423,-0.25301298,-0.030658916,0.035644807,-0.044473805,0.0083899535,-0.28724653
1738237953.7301064,0.22318304,0.0010379385,0.017860597,-0.3900718,-0.07202282,-0.010931434,-0.0039568692,-0.056749567,-0.009686356,-0.286422
1738237953.7410686,0.21423458,-0.0023195716,0.013766939,-0.3663108,0.11060498,-0.0057749934,-0.0012090132,-0.04760763,-0.0289772,-0.24043843
1738237953.7512426,0.20053513,-0.002868887,0.010010794,-0.34151933,0.27887404,-0.0063403416,0.0066923536,-0.02728268,-0.0405532,-0.20239626
1738237953.763417,0.18463686,0.01063156,0.00078871567,-0.3097324,0.395693,0.0040248977,0.019180868,-0.012256671,-0.04326258,-0.13970481
1738237953.7741578,0.17985965,-0.012172342,-0.02037727,-0.2838654,0.52716976,0.027649336,-0.00057318434,0.0055122646,-0.046981324,-0.030163564
1738237953.7850685,0.16640519,-0.017676376,-0.03892571,-0.2533828,0.6568479,0.04975332,-0.0029355995,0.035875574,-0.037433207,0.05882466
1738237953.793993,0.13494684,-0.03517764,-0.06293097,-0.24499305,0.76547337,0.05064148,-0.012201637,0.05058939,-0.01182547,0.09134297
1738237953.8060756,0.13356423,-0.06683647,-0.06772649,-0.21734612,0.8363698,0.045843896,-0.0040012635,0.06688217,0.0058555864,0.07392081
1738237953.8154323,0.1362635,-0.12707004,-0.07611838,-0.16988337,0.91195333,0.005039432,-0.053268827,0.050374188,-0.06397945,0.030210791
1738237953.8262835,0.13459285,-0.19573292,-0.1256887,-0.17987576,0.94036686,-0.017586743,-0.0940055,-0.0012041721,-0.15099086,-0.07008306
1738237953.836686,0.12751359,-0.19757903,-0.10836915,-0.16952989,1.0465772,-0.035643835,-0.06723767,-0.0048049735,-0.22901297,-0.14094567
1738237953.8487754,0.11055833,-0.1378612,-0.07389691,-0.15728684,1.0719702,-0.058950927,-0.043017797,-0.016269458,-0.29183513,-0.25266725
